x = 24949, y = 24973, rule = B3/S23
24927b2o$24928b2o$24927bo28$2o$obo$o117$180b2o$179b2o$181bo12314$
12489b2o$12488bo2bo$12489bobo$12490bo$12459bo$12458bobo3b2o$12459b2o3b
2o2$12509bo$12496bo12bo$12496bo12bo$12496bo$12517b2o$12517b2o5$12425b
2o$12424bobo$12424b2o31bo$12456bobo$12456bobo$12457bo6bo$12443b2o18bob
o$12443b2o18bobo$12464bo2$12435b2o$12435b2o56b2o$12493b2o$12466bo$
12466bo52b2o$12466bo52b2o4$12531bo$12530bobo$12507b2o21bobo$12507b2o
22bo2$12520bo$12520bo$12489bo30bo$12488bobo$12488bobo$12489bo2$12473b
2o$12473b2o12432$24922bo$24923bo$24921b3o8$24946bobo$24947b2o$24947bo
11$24903bo$24904bo$24902b3o!
