x = 1024, y = 2208, rule = B3/S23:P1024,2208
3b2o64b2o34b2o7b2o140b2o202b2o78b2o65bo48b2o163bo43b2o12b2o121b2o14bo$
3b2o31bo5b2o25b2o34b2o7b2o140b2o112b2o42bo6b2o37b2o20b2o56bobo63bobo
40bo6b2o10b2o129bo21bo43b2o12b2o97bo23b2o7b2o4bobo$10b2o24bo5b2o38b2o
76bo137bo71b2o41bobo5b2o44bo6b2o6bobo2bo7b2o44bo14b2o48bo2bo39bo18b2o
74b3o34b2o16bo21bo156bo32b2o4bobo$9bo2bo23bo12bo9bo21bo2bo76bo67b2o66b
obo96bo4b2o10bobo50bobo5b2o7bo3bo6bo2bo58b2o49b2o40bo10b3o118b2o16bo
50b2o126bo39bo$10bobo36bo9bo22b2o77bo66bo2bo65b2o96bobo3b2o11bo51bobo
18bo7b2o46b2o305b2o51bo12b2o77bo$11bo14b2o21bo9bo35b3o24b2o104bobo164b
obo69bo75b2o250b3o3b3o59b2o37bobo11b2o76bobo$26b2o94b2o71bo33bo94bo14b
2o38b3ob3o10bo12b2o297bo8b3o50b3o90b2o38b2o48b2o39bo2bo$54bo71b2o51b3o
13bo59b3o40bo7bo17bo14b2o67bo2bo59b2o124b2o7bo100bobo243bobo39b2o$53bo
bo70b2o42b2o23bo69b2o30bobo5bobo16bo83bo2bo41b2o15bo2bo93b2o28b2o7bo
100bobo244bo$53bobo114b2o81bo11b2o30bobo5bobo36b3o62b2o42b2o16b2o18b2o
73bobo37bo101bo58bo$49b2o3bo109b2o49bo37bo27b2o15bo7bo28bo155b2o33b2o
40bo96b2o3b2o24bo20bo23b2o23bobo48bo192b2o$48bo2bo66bo44bo50bobo36bo
26bo2bo50bobo65b2o11b2o17bo91b2o74b3o3b3o53bo2bo2b2o24bo20bo23b2o23bob
o47bobo37b2o152b2o$49bobo65bobo44b2o48bobo63bo2bo50bobo6bo58b2o11b2o
17bo141b2o18b3o66b2o29bo20bo49bo47bo2bo36bo2bo39bo$50bo66bobo42bo2bo
49bo65b2o52bo6bobo89bo25b2o38b2o74b2o28bo197b2o10b2o37bo2bo38bobo$118b
o42bobob2o22b2o119b2o31b2o2b2o62b2o47b2o38bobo52b3o48bo162bo29b2o3b2o
50b2o39bo2bo24bo96b2o$55b2o46b2o56bo3bobo21b2o119b2o32b3o8b2o52bo91bo
52bo3b2o46bo53bo58b2o47bobo28b2o46b2o49b2o24bobo69b2o24b2o$55b2o46b2o
56bobo3bo177b2ob2o5b2o50b2obo2bo127bo7bo4bo3bobo51b2o45bobo56bo2bo46bo
2bo35b2o38b2o75b2o56b2o11bo2bo$36bo110b2o13b2obobo9b2o165bob2ob2o56b2o
17b2o101bo11b2ob2ob2o5bo5bo50bo2bo19b3o23bo19bo38bobo47b2o36b2o172bo2b
o11b2o8b2o$34b2o111b2o15b3o10b2o164b2obo2bobo12bo24b3o15b2o2bo14b2o
100bobo11b2ob2o2bo2bo5bobo50bo2bo24b3o26b2o9bobo38bo173b2o85bo2bo20bo
2bo$34b3o168b2o128b2o7b2obo3bo11bobo41b2o2bo116bobo6bo4bo2bo3b2o2bob2o
b2o52b2o6b2o46b2o9bo2bo210bo2bo49b2o13b3o18b2o8bo13b2o$8b3o22bob2o167b
o2bo96b2o28bo2bo27b2o28b2o9bo3bo118bo6bo8bo4bobo66bo2bo14bo5bo36b2o
212bobo49b2o43bobo$6bo4bo20b2obo3b2o74b2o88b2o97b2o28bobo9bo2bo8b2o5b
2o28b2o9bob2o126b2o3bo2bo6bo68b2o15bo5bo251bo75b2o18bobo$5b3o2bo11b3o
8bobobob2o74b2o20b3o195bo11bo10b2o5bo40b3o128b2o2b2o94bo5bo11bo16b2o
40bo255bo2bo18bo$4b3o2b2o11b3o9bob2ob2o174b2o97b2o48bo25b2o146bo115bob
2o13bo2bo39bo256b2o$8b3o10b4o13bo14bo80b2o25bo53bobo60b2o34b2o59bo14b
2o54bobo76b2o61b2o38b2o23bo3b2o13b2o40bo84b2o162b2o$6bo2b2o9b2o31bo79b
obo24bobo52bo54b2o6b2o58bo35bobo70b2o76b2o61b2o38b2o2b2o20b2o3bobo37b
2o43bo54b2o12b2o119b2o27bobo$8bo11b2o31bo80bo25bobo106bo34b2o31bobo34b
obo70bo184b2o22b2o3bo37b2o38bo4bo24b2o41bo2bo107bo9bobo28bo29b2o$21b2o
41b2o28bo66bo97b3o4bo3b2o32b2o30bo2bo35bo40b3o209b2o27b2o3bo74bobo29b
2o41bo2bo106bobo9bo3b2o53bo2bo$22b3o39b2o27bobo163bo2bo2bobo69b2o61b2o
53b2o50b3o118b2o29b2o19b3o54bo2bo19b2o51b2o107b2o14b2o54b2o$22b2o2bo
66bo2bo5b2o131bo21b4o2bob2o133b2o13bobobo35b2o53b2o143bobo2bobo89bo7b
2o118bo$23bo3bo7bo58b2o6b2o85b3o42bobo20b2obobo68b3o81b2ob2o53bob3o28b
3o145bo2bo3bo77bo12bo86b2o38bobo122bo$23bo2b2o5b2ob2obo45b2o46bo100bo
2bo19b3o11bo141b2o5b2o52b4o28bo51b3o52bo40bo3bo73bo9bobo7bo86b2o38bobo
122bo10b2o$24bo2b2o4b2obobobo43bo2bo44bobo100b2o21bobo3b3o3bobo138bo2b
o2bo2bo2bo47bo33b2o3bo101bobo40bobo73b2o147bo95b2o26bo10b2o$24b2o7b2ob
obob2o43b2o35b2o8bobo19b2o103b3o4bo3bo3bo136bobo2bobo2bobo5b2o39bo3bob
3o2bo25bo2b2o100bo2bo22b3o15bo23b2o48bo8bo4bo3b3o3b3o43b3o108bo64b2o$
24bo11bo2bo82b2o9bo19bo2bo102b2obobo3b2o2bobo11b2o11bo111bo2bo2bo2bo8b
2o19b2o18bo8b2o11b2o14bob2o101b2o64bo2bo46b2o3b3o2bo28b2o140bobo82bo4b
3o3b3o3bo$30b2o4b2o116b2o96b3o6b2o3bo2bo16b2o10bobo112b2o5bo2bo26b2o
19b3obo3bobo6b2o3bo2bo10bo2bo21bo147b2o47b2o4b2o2bobo10bo14bo2bo33bo
59b2o44bobo81bobo14bobo$29bo2bo95b2o121bo3bo10b3o29bobo17b2o54b2o6b3o
30b2o3bobo49b4o11b5o3b2o10bo2bo20bobo85b2o42bo72bo14bobo14b2o34bo59b2o
45bo81bo2bo7bo6bobo$30bobo94bo2bo89bo30bo47bo18b2o22b2o30b2o39b2o4bo
55b2o7b2ob3o5bo9b3o22bo24b2o38b2o20b2o19b2o20bobo71b3o11bo2bo50bo14b2o
55b3o115b2o8bo7bo$31bo96b2o90bo17b3o8b2obo3bo85b2o71b3o51b2o4b3o6b3o3b
o2b4obo45b3o10b2o37bo2b2o10bo28b2o20bo72bo15b2o42b2o22b2o22b2o30bo2bo
104bo15b2o3bo$220bo16b4o7bo2bo3b2o33bo125b3o5bo50bobo5bo6b2o4b3o101bo
9bobo50b2obo21b2o16bo5bo23b2o57b2o45bo2bo14b2o5b3o5bo2bo103bobo14b2o$
6b2o134b2o93bo3bo6bo40bobo125b2o5bo42bo2bo5b3o4b2ob3o107b2ob2o8bo2bo
52bobo20bobo15bo5bo22b3o105b2o9b2o4b2o115b3o2bobo$6b2o2b2o17b2o111b2o
72b3o3b3o14b2o7bo3bo37bo81b2o50bo36bo5bo2bob5o2bo4bob3o2bo118b2o48b2ob
ob2o22bo16bo5bo141b2o18b2o107bo$10b2o16bo2bo57b2o90b2o5bo48b3o9b2ob6o
26b2o86b2o85b2obo2bo5b9o8b4o39b2o33b2o92bob3o209bo83bo$29b2o25bo32b2o
46bo42bobo4bo2bo29bo16bo13b2ob5o25b2o134b3o37bo6bo4b3obo12b3o39b2o33b
2o2b2o88b2o2bo5b3o35b3o33bobo2bobo206bo$44b3o7b3o10bo68bobo41b2o5bo2bo
29bo32bo2bo55b3o141bo9b2o12bo89b2o23b2o64b3o5bo3bo70bo3bo2bo71b2o34b2o
97bo31b2o$53b3o10bobo67b2o51bo30bo33b3obo62b2o32b2o99bo12b2o3bo6bo18b
2o93b2o11b2o52bo5bo5bo69bobobo3b2o68bo2bo33b2o110bo18b2o$34b2o6bo5bo3b
o13b2o14b2o172b2obo63bo31b2o45b2o29b2o21bo15bob3o3bo19b2o107b2o18bo5b
2o67b2o42bob3o70b2o67b2o76bobo46b2o$34b2o6bo5bo4bo2b3o22bo2bo170b2ob2o
60bo81bobo27bo2bo28b2o4bobo2bobob2o67bobo57bo19bobo4b2o31b2ob3o30b2o
20bo20b2o5b2o75bo15b2o43b2o76bobo45bo2bo$42bo5bo5b4obo21bo2bo162b3o7b
2obo60b2o80b2o27bobo34b3o3bobo69bo79bo2bo38b3o53bobo20b2o4b2o74bobo13b
obo24bo97bo47b2o$57bobo22b2o175b2o37b2o133bo35bobo4bo23b2o48b3o6b2o67b
2o96bo25bob2o18bo55bobo14bo25b2obo$28bo15b3o212b2o37b2o10b3o104b2o61bo
19b2o7b3o27bo7b2o4bo5b2o119b3o66bo2b3o18bobo55bo40bo2bob2o128b2o$28bo
123b2o157b3o3b2o98b2o61bo24b3o25b3o3bo11b2o47b2o77bo3b2o37b2o25b2ob3o
18bobo97b3o131b2o$28bo25b3o8b3o84b2o106bo13bo42b2o22b2o5bo90b2o39bo20b
o4bo5bo26bo9b2o49b2o7bo69bo2b2obo36b2o25bo2bo21bo51b2o7b2o36b2o$235b3o
21b2o12bobo17b2o37bo7bo2bo5bo26b2o60bo2bo44b2o4b2o7bo5bo41b2o9bo48bo
69b3o3b2o63bo74bo2bo5bo2bo131b2o4bo$15b2o13b3o148b2o42b2o32bo13bobo16b
o2bo35bobo5b2o7bo27b2o61b2o45b2o3bo2bo14b2o37b2obo8bo48bo8b2o60b2o4b2o
138b2o7b2o68b2o61bobo4bo$15b2o131b2o31b2o8b2o31bo2bo48bo16bo37bobo4b3o
118b2o31bobo4bobobo31b2o11b2o10bo35bo21b2o61bo4bo161bo23b2ob2o3bo24b2o
62bo5bo$35b2o111bobo39bo2bo31b2o46bo2bo55bo6b2o9b3o106b2o32bo5b5o32b2o
3b2o5b2o46b2o7b3o3b3o51bobo15bo2bo66bobobo23b3o47bo16bo23bo3bo3bo$35b
2o58b2o52bo40bobo64bo16bo20bobo42bo2bo3b2o26b2o120b2ob3ob2o30bo3bo2bo
18b3o32bo69bo15b2o67bo5b2o70bobo15bo24b3o95b3o$53bo41bobo93bo65bo38b3o
42b2o4bobo25b2o41b2o78b2obob2o35bobo15bo104bo2b2o6bo78b2obob2o70bobo
46b3obo2b2o119b2o$53b2o41bo123bo36bo38bo9b2o33b2o4b3o67bo2bo44bo28b2ob
4ob4ob2o27b4o17bobo35bo58bo8b3o6b3o37b2o117bo35b2o10bobobo2bobo33b2o
83b2o$52b2o3b2o48b2o110bobo57bo17b2o7b2o32b3o56b3o15bo2bo44bo32b2obob
2o30bo5bo15bo2b2o90bob2o15bo4bo34bo2bo43b2o29b2o75bobo16b2obo32bo2bo
40b2o$57b2o10bo37b2o86b2o22bobo37b3o14bob2o10bo49b3o122bo31b2ob3ob2o
28bo7bo13bo4bo91bobo14bo5bo35b2o3bo40b2o5b3o21b2o75b2o17b3o5b3o26bobo
39bo2bo$68bo3bo79b2o41b2o23bo55bo3bo7b2obo47bo3bo59b2o94b5o27b2o2bo3b
6o13bo2bo108bo2b2obo3bo7b2o26bobo28b2o5bo106bo23b3o4bo3bo26bo15b3o23bo
bo$20b3o46b2obo79b2o48b2o53bo18b4obo6b2ob2o46b2ob2o48b2o9b2o11bo39bo
42bobobo13b3o12bo7bo9b2o5b4o29b2o23b2o56bo2b4obo6bobo25bo2bo26bo2bo3bo
bo17bo87bo23bo6bo4bo55b2o11bo$70b2o130b2o53bo13b2o5b4o2b2o2b2o49bo2b2o
34b2o11bo2bo21bo38bobo82b4o6b3o2b2o32bo2bo21bo2bo19bo15bob2o8bo7bob3o
2b2o6bob2o25b2o28b3o2bo3bo15bo2bo59b2o24bo36bo53bo2bo$257bo15bo6bo2bo
2bo2bobo48b2o36b2o12b2o22bo6bo31bobo43bo13bo24b2o2b3o3bo5b2o32b2o23b2o
19bobo13bob2o8bobo6b2ob2o9bobo48b3o6b2o3bo3bo15bo2bo59b2o55b3o3bo32bo
21b2o$66b2o7b2o150b2o38bo2bo2bo11bo3b2o125bo5bobobo29bo44bo13bo24b2o3b
2o6bobo2b2o76bobo14b2o9b2o8b2o10b2o64bo3bo17bo27b2o68b2o11b2o6bo2b3o
32bo30b2o5b3o$65bo2bo6b2o6b2o142b2o37bobo3bo16bo126bo3bobo3bo88bo24b2o
2b2o7bob2o26b2o52bo47b2o66bobo46b2o70b3o8b2o8b2o34bo26bo3bobo$66bobo
14b2o51bo46b2o37bo43bo4bo64b2o55b2o26bo2bobo113b2o14bo2bo23b2o38bo24b
2o36b2o66bo119b3obo16bo61bobo3bo36b2o$67bo68bo46b2o6b2o28bobo6b2o35bo
2bo16bo47bo5b2o50b2o22bo73b2o130bo23bo2bo36bo16b2o27b2o133bo4bob3o55b
3o2b2o17bobo40b2o20b2o$13b2o32bo88bo54bobo28b2o6b2o36b2o17bo48bobo2b2o
75bo2bo15b2o24b2o25bo2bo57bo71bo24b2o53bo2bo26b2o31bo20b2o18b2o58b4ob
3o62bo2bo17bo63b2o$13b2o32bo144b2o81bo13bo9b2o30b2o86b3o5b3o7b2o23bo2b
o25b2o59bo2bo45bobo37bo62b2o3bo55b3o7b3o8bo2bo17b2o9b2o46bo3b3ob2o16bo
45b2o$47bo105b2o54bo64bobo11bobo7bo2bo29b2o6bo123bobo10bo76bobo45b2o
37bobo65bobo53b2ob2o18b2o29b2o47b2o3bo2bo15bo27b2o$13b2o99bo37bo2bo51b
2ob2o60b2o2b2o13bo7b2o72bo72bo17bo11bo76b3o46bo37bobo16b2o47bobo5bo46b
2o103b4o3bo42bo2bo$13b2o72b2o13b2o9bo39bobo51b2ob2o63b2o9bo5bo14b2o25b
o2b2o34bo71bobo28bo164bo16bo2bo11b2o5b2o27bo5bobo44b3o7bo2bo94bo47bobo
$87b2o13b2o10bo39bo28b2o25bo44b2o18b2o9bo5bo13bo2bo25b2o36bo71bobo73b
3o135b2o12b2o5b3o33b2o45b2o11bo46bo95bo5bo$2bo108b2o70b2o14b3o5bo46bo
2bo12bo3bo11bo5bo14bobo46b3o87bo232bo61b2o21b2ob2o3bo4bo45bo12b3o85bob
o94b2o$bobo39b2o66b2o79bo6b2ob3o6bo34b3o5bo2bo12bobo14bo3bo16bo182b3o
28bo145bobo6bo3b3o57b2o22b3o5b2ob2o13b2o30bo100bo2bo6b3o37b2o8b3o33bo
2bo$bobo38bo2bo65b2o77bo7bo3b4o2bo46b2o31b3o82bo115bob3o29bo3bo92b2o
46bo8b2obob2o82bo24b2o41bo90b2o47b2o33bo11b2o$2bo14bo25b2o27b3o114bo4b
o4b4o7b2o32bo58bo69bo42b2o69bob5o7b2o2b2o16bo3bo92b2o45b2o3b2o2bo4bobo
135b3o3b3o6bo173bobo$18b2o53b3o38bo41b2o3b2o25b2obo7bo2b3o39bo57bobo
31bo36bo42b2o25b3o54bo3b2o23bo136bo3bo2bo160bo173bobo$17b3o115b2o23b2o
bo6bo18bo5bo4b3o41bo56bo2bo13b2o14bo2bo149b2o11bo7bo19b2o59bo16b3o56b
3ob2o14bo86bo28b2o20bo185bo$11bo6bo116b2o21b2o3bo6bo19bo3bo6b2o99b2o
13bo2bo13bo2bo30b2o5b3o63bo5bo52bo3b2o21b2obo58bo75bo3bob2o12bo86b2o
27b2o20bo12b2o10b3o$11b4o4b2o123b2o12bo3b2o6bo20b3o8b2o114bobo14bo32b
2o11b2o58bo5bo56b2o2bo18b2ob2o10b2o45bo76bo4b2o4bo18b2o98b2o12bo12bo
12bobo$11bo8b2o121bo2bo11bo44bo95b2o18bo37b2o22b2o58bo5bo51bo5b3o20bob
o11b2o19b2o18b2o34b2o48b3o4b3o16b3o19bo11bo22b2o42b2o11bobo25b2o107b2o
$144b2o11b2ob2o137b2o56b2o139bo10bob2o10bo5bo33b2o18b2o34b2o19bo25b2o
9b2o14b3o3b3o7b3o5bo10bobo21b2o55b2o135b2o70b2o$10b2o4b5o107bo28b2o90b
o34b2o5b2o55b2o93b3o3b2o48b3o7bo2bo9bobo114bobo24bo2b2o2bo2b3o14b2o5b
2obo13bo10bobo30b2o161bo93b2o$11b2o3b2ob3o60b3o42bobo27b2o7b2o81bo34b
2o5b2o55b2o42b2o55b2o29b2o17b3o7b3o35b2o54b2o35bo26b3o23b2o7b2o25bo16b
o13bo2bo160bo$12bo8bo12bo92bobo36b2o60bo20bo12bo43b2o83bobo86b2o18b2o
20b3o22b2o54b2o67bo9b2o13b2ob2obo42bo14b2o161bo18bo$5b2o10bo2b2o11bobo
44bo6b2o39bo68bo12bo16bo33bobo42b2o8b3o72b2o107bobo25b2o142b2o7bo2bo
12b2ob2o44bo9bo14b2o84b2o19bo48b2o13bobo51bo$4bobo10b3o13bo2bo43bo5bob
o7bo87bo12b2o3bo6bob4o12b3o31bobo221b3o11bo2bo13b2o11b2o20bo116b2o12b
2o14bo57bo14b2o84b2o18bobo46bo2bo12bo2bo50bo$5bo28b2o44bo6bo8bo73b2o
11b2o7b2o4b2o2bo5b2obobo48bo51bo5bo25b3o102bo31b3obo4bobo5b2o13bo2bo
10bo8bo11bobo114bo2bo2bo2b2o46b2o16b3o3b3o5bo31bo88b2o17b3o28bobo13b2o
38b2o11bo$15bo45bo2b3o24bo4bo12b2o59b2o10bo9b2o4b2o3bo6b2o102bo5bo130b
o9b2o19bo9bobo21b2o4bobo11b2ob2o9bobo115b2o4b3o30b2o7b2o6b2o61bobo46bo
91bo54b2o$14bobo43bobo19b3o6bo16bo2bo3b2o64b3o13bo4bo8bo2bo99bo5bo22b
2o11b2o3b3o87bo9b2o19bo9bobo26bo2bo11b2ob2o10bo110b2o11bo30bo2bo6b2o
28bo40bobo46bo57bo5bo$14bobo43b2o29bo16bobo4b2o6b3o34bo20b2o27b2obo7b
2o2b2o52b3o3b2o56b2o11b2o124bo3bo5bo28bo3bo9bo2bo123b2o14bo28b2o37bo
41bo47bo41b2o14bo5bo6bo4b2o13bo$15bo93bo50bo20bo2bo21bo2b2o74b2o4b3o
22b3o74b2o80b3o5bo8b2o27bo2bo11b2o8b2o7b2o19bo100bobo5b2o59bo131b2o14b
o5bo6bo4b2o13bo$20b2o19b2o50b3o25bo38bo19bo2bo10bo4bo5b2obo16b3o36b2o
123b2o2b2o87b2o9bo28bobo20bo2bo5bo2bo18bo99bo2bo4bo2bo144b3o3b3o66bo
19bo94b2o$10b2o5bo2bo20b2o70b3o5bo62bo9bo3b2o4b3o4bo13bo2b2o34b2o23bo
5bo93b2o30bo75b2o47b2o7b2o19bo23bo49b2o25b2o6b2o105b2o102b3o115bo7b2o$
9bo2bo8bo90b2ob2o4bo59b3o10b2o2b2o7b2o3bo11b2ob3o3bo12bo42bo5bo60b2o
63bo64b3o8b2o100bobo48b2o94b2o5bo37bobo42bo64bo14b2o5b3o3b3o81bobo$10b
2o5bo2bo90bobob2o65bo12bob2o10b2ob2o14bob5o11bo42bo5bo60b2o63bo129bo
48b2o23bo68b2o50b2o4bob2o35b2o43bo31b3ob3o26bo14b2o95bobo$18b3o3bobo4b
2o78bo3bo53bo25bo3bo13b2o13b5ob2o10bo104b2o197bobo71bobo38b2o5b2o20bob
o49b2o3b2ob2o51b2o27bo64bo25bo43bo42bo$15bo7bo2bo4b2o62b2o15bo2bo52bob
o10b2o12bo2bo6b2obobo2bo9bo4bo2b2obo97b2o16bo2bo137b3o21b2o9b2o3b2ob2o
14bobo13b2o3b2o8b2o40bo2bo38b2o5b2o5b2o12b2o28b2o17b3obo4bo2b2o50bo2bo
117bo18b2o22bobo$14bobo7bo3bo2bo63b2o15b3o53bobo26bo8bobobobo11b2o3b5o
8b3o3b3o74b2o4bo2bo16b2o138bobo21b2o10bo3bo2b2o15bo13bo2bobo2bo7b2o41b
2o53bobo12bo28b2o16b3obob2o2b2o54bobo117bo18b2o23b2o30b2o4b2o11bo$14bo
bo8b2obo140bo9bo5bo38bo5b3o91bobo5b2o42bo114bo2bo5b2o10bo12bob2ob2obo
3bo28b2o3b2o107b2o11b3o44b3ob5o59bo86b2o68b2o36b2o3bo2bo9bobo$15bo13bo
37b2o32b2o76bo5bo60bo78bo30b2o17bobo90b2o21b2obo5b2o10bo6b2ob4o7bo4bo
100b2o47b3o2b2o46b3o4b2o91bo52bo2bo54b2o11b2o42b2o10bobo$27b2o37bo2bo
25b2o3bo2bo75bo5bo60bo39b2o53b2o13bobo15bo2bo6bo83b2o20b2o20bo5bobo6bo
bob2o2bo2bo57bo42b2o48b3obo2bo14b2o28b4o2b3o33b2o55bobo28b2o21bobo55b
2o68bo$8b3o56b2o25bo2bo3b2o35b2o106bo38bo54bo2bo13bo17b2o7bo103b2ob2o
25bob5ob6o2bo2bo57bobo96bobo11b2o2bo31b2obo35b2o49b2o4b2o29b2o22bo17b
2o$95b2o41b2o41b3o105bo51b2o41bo104bo3b4o22bo75bobo98b2o10bob2o36bo10b
2o62b2o9b2o77b2o3bo55bo$220b2o45b2o9b3o7b3o199b3ob3o39bo59bo98b2o43bo
3bo3bo74b2o93bo55bo$23b3o97b2o43b2o97b2o19b3o15bo104b3o78bo36bo4b2o81b
3o74bo46b3obobo79bo52bo37bo55bo$123b2o42bo2bo116bo2bo14bobo53b2o124b4o
37b3o77bo61bo21bo2bo34b2o94bobo51bo$21bo5bo139bobo21bobo31b2o11b2o46b
5o14bobo53b2o45b2o5bo56b2o13bo119bobo5bo5bo47bobo20bobo2bo32bobo25bobo
29bo35bo2bo50bo33b3o50b2o$21bo5bo79b2o59bo5b2o14bobobo2bo27b2o11b2o19b
2o25bo4bo14bo100bo2bo4bo56bobo21bo110bobo5bo5bo47bobo13b4o3b2o4bo32bo
19b2o3b3o7bo23bo31b2o3b2o46b3o59b3o12bo14b2o20bo$21bo5bo79b2o9b2o5b3o
46b2o13bobob2o3bo26b2o31bo2bo25b2ob2o116b2o5bo57bo22bo111bo6bo5bo48bo
13bo2bob2o3bo45b3o9b2o2bo9b2o22bo31b2o128bo36bo$118b2o69bo2bo2bo3b3o
26b3o28bobo29bo172bo218b2obo8bo2bo39b2o13b2o2bobo6bo168bo5bo47bo$23b3o
163bo5bobobob2o27bo29bo26bo176b2o145bo5b3o63bo12bo41bo3bo6b3obo4bob2ob
o2bo10b2o13b3o140bo5bo$175bo20bo2bo3bo21b2ob2o5bo2bo48b3o23bobo10bo
137b3o144bo71bo6bo21b3o24b3o8b3o6b3o15b2o118b2o14bo21bo5bo5b2o4b2o19b
2o$32b3o90b2o37b3o7b2o19bo3bo2b3o21bo8b3obo52b2o19b2o10bobo22b3o112bob
o143bo72bo4bo61bo4b2o2b2obobo85bo45b2o14bo10b2o20bobo4b3o17bo2bo$28b2o
7b2o34b2o15bo34b2o37bo8bobo20bob2o2b2o32b2o2b2o13b2o34bo3bo18bo10bo2bo
85b2o38b2o9b3o152b2o63b3o67bo5bo2bo85bobo60bo10b2o11b3o12bobo18bobo$
28b2o2bobo2b2o30b2o2b2o14bobo17b2o54bo18b2o10bo5bo52b2o39bo29b2o85bo2b
o37b3o11bo138b3o3b3o4b2o133bo5bo50bo19b2o16bobo40b2o14bo38bo25bo$12b2o
19bo2bobo30b2o18bobo17b2o60bo2bo2b3o3bo2bo9b3o75b3o20b2o115b2o41b5o5b
2o124b2o161bobo2bo49bobo9bo8b2o17bo40bobo5b2o6bobo5bo30bo$12bo2bo19bo
2bo51bo78b2o3bo9b2o9bo258b2obobob3o3b2o92b3o29b2o16bo146bobo51bo9bobo
67bo9bo5bob2o3bobo29bo36bo$13bobo19bo6b3o9b2o112bo3bo22bob2o100bo91b2o
26bo34b2obobo3b2o29b2o29b2o84bo146b2o62bobo12b2o54b2ob3o6bo4bo5bo19bo
7b2o3bobo31b3o$13b3o19bo2b4o3bo8b2o111bo3bo22bo7b2o71bo15b2o5bo83b2o7b
2o25bobo36bobo3bo30b2o23b2o3bo2bo46b2o35bo146bo29b2o33bo13b2o60bobo8bo
24bobo8bo3bobo29bo$13b2o22bo2bo66b3o23b2o34bo24bo2bo4b2o70bobo15bo2bob
o31b2o51b2o34bobo36bobo2bo2b2o23b2o26b3o4b2o6bo40b2o176bo14bo20b2o105b
ob2o6bo3bo25bobo12bobo28b2o2bobo$11bo3bo30bo86b2o59b2o3b2o73bobo16b4o
24b2o6bobo22b2o63bo19b2o21b2o2bo22bo2bo24b2o3bo8b2ob2o215bobo14b2o116b
o9bo9b2o28bo21b2o16b2o2b3o2bob2o$10bo4bo25bo3bo71b2o76b2o48bo29bo14bo
3bo26bobo6bo23b2o83b2o17b2obobo2bo23bobo24b8o5bobob2o22b2o191bobo13b2o
35bo47b3o30bobo70b2o16b2o3bo5bo$11bo3bo19bo6b3o49bo9b2o11b2o82bo42bobo
8bo33bobo30bo120b2o19b2o25bo25b4o3bo32bo2bo191bo50bobo79bobo94b5o28bo$
12b3o15b2o3b2o57bo9b2o93b4o41bobo8bo22b2o4bo4bobo7b2o56b2o83bobo16bo2b
o56b2obo4bo5bo22b2o5b2o95bo55bo7b3o74b2o45bo5bo29bo58b5o33bo30bobo$12b
3o14bo2bo2b3o56bo38b2o63bo3b2o41bo9bo5b3o13bobo3bobo4bo8b2o7bo48b2o53b
3o28bo19bo44bo13b2o6bo21b2o11b2o63b2o21b3o6bo54bobo130bo5bo17b2o70b3o
43b2o20bobo$30b2o4b2o85b2o7bobo55b2o6bo4bo74bo4bobo21bobo152b2obo42bo
22b2o2bo15bo2bo75b2o2b2o46b2o33bo2bo29b3o20b2o75bo5bo17b2o71b2o43b2o
21bo$31bob4o9b2o75b2o8bo56b2o9b2o54b3o24bo22b2o153b2o44bo27bo15b2o80bo
bo44bo2bo33b2o29b5o18bo2bo$46b2o33b2o114bo3bo32bo168b3o52b2o2b3o59bo4b
2o2bo2bo98b2o45b2o64bo5bo12b2o4b2o19b2o56b3o152b2o11b2o$11b3o66bo2bo
101b2o10bo2bo32bobo105bo19bo96bo2bo61bob2obo2bobobo49bo74b2o85b4ob4o
11b2o25b2o102bo100b3o4bo2b2obo7b2o$10b2o2bo65bo2bo52b2o47b2o7bo4b2o32b
obo103bob2o18bo95bo2b2o57b5obo5bo2bo50bo74b2o235bobo52b2o8b2o22b2o11b
2obo3bo2bo3bo$9b3o69b2o53b2o55b5ob2o2b2o29bo22bo80b2o2bo18bo45b2o48b2o
60b3o3bo4bo54bo95bo4bo209bo2bo52b2o8b2o22b2o3b2o5bobobo4b2ob2obo$9b2o
2b2o20b2o105b2o48b2o5b2o2b2o52bo5b3ob3o68b4obo63b2o73b3o33bo60b3o99bo
4bo210b2o30b2o60b2o5b2o2b2o5bob2o$10bo23bo2bo103bo2bo47bo2b2o5bo6bobo
45bo5b2obo3bo59b3o4b3o2bo127b2o173b3o8b2o7bo15bo4bo60bobo3bobo173b2o
77bobo$35b2o105bobo48b3obo4bo3b3obob2o52bob4o56b2o2bo2b2ob2o43bo84b3ob
o13bo38bo2bo126bo2bo5bobo69b2o9b3o3b3o34b2o215bo2bo$31b2o75b2o33bo54bo
8bo3bo50b2obo3b2o66b3o42bobo12bo69bo4bo13bo29b2obo4bo3b4o111bo11bobo6b
2o70b2o52b2o216b2o$17b2o12bobo74b2o37b2o48b3ob2o2b2ob3o51b2o5b2o60bo2b
3o2bo12bo29bobo12bo73bo14bo29b2ob4ob4ob3o51b2o58bo12bo13bo137b2o$16b2o
b2o11b2o113b2o49bo2bo45b3o13bo5bobo56bo6b3ob2o11bo13b2o15bo13bo70b3o
48b2o28b2o32b2o58bo25b3o54b2o79bo2bo127b2o$9b2obo6b2o4b2o172b3o69bo22b
2o26b2o5b2ob2o5bo3bo22b2o99b2obo11b3o64bobo102bo6bo7b4o53bobo78bobo
128bobo$12bobo6bo3bobo88b2o163b2o11b2o25bo2bo8bo7b2obo2bo30b2o7b2o4b3o
3b3o148bo94b3o5bo3b2obobo9b2o2b3o48b2o79bo130bo$9b3o7bobobo3bo88b2o3bo
67b2o51bo16b2o19bo2bo14b2o22bobo6bo3b2o4b3ob3o29bo2bo5bo2bo267b2o4bo9b
4o144b2o$13bo4bob2o4b2o15b2o75b3o47bo17bo2bo49bobo15b2o20b2o15b2o23bo
3b2o2b3obo5bo3bobo30b2o7b2o8bo43b3o25b2o48b3o14b2o88b2o31bo3bo4bobobob
o2bo80b2o8b3o50b2o6b2o$13bo7bo21b2o74bobobo45bobo2bo13bobo51bobo81bo2b
ob2ob2o29b3o29bo6b2o62bo2bo46bo3bo7bo5b2o39bo27b2o19b2o23bo5bo2b4o4b3o
2b2o83bobo68b2o119b2o$3b2o9b2o7bo24bo38b2o30bobobo45bobo2bobo12bo53b2o
10b2o70b3o3b7o7bo35bo13bo6b2o31bo7bo17bo2b2o3bo46bo3bo6bobo22bo12b2o7b
obo26b2o16bo27b2o4bo10bo4bo85bo23b2o20bo144b2o$2bo2bo8b2o32bo37bo2bo
27b2ob3ob2o44bo3b2o79b2o71b2o3bo2b4o3b4o35bobo51bobo6bo16bo3bobo2bo46b
o3bo7b2o21bobo11b2o8b2o43bobo29bo4b3o2bo4b3o27b2o65b2o15b2o19bobo3b2o
3b2o16bo133b2o$3bobo42bo38b2o27bob2obob2obo47b2o9b2o97b3o46b7o3b3o36bo
bo51bo2bo5bo15bo5bo51b3o31bobo65bo2bo29bo4bobobob2o4bo4bo22b2o17b2o46b
2o36bobo3b2o3b2o9b2o4bobo132b2o41b2o$4bo110b2obo5bob2o37b2o7b2o9b2o
131bo14b2o8bo39bo53b2o22bo4bo3b2o74b2o6bo67b2o41b2o9bo41bobo84bo20b2o
3bobo123b2o50bo2bo$14b2o15b2o67b3o13b2obo3bob2o37bo2bo5bo2bo140bobo32b
2o74b2o31bo4bo4bo61bo12b2o86b2o24bobob3o9bo27b2o13bo111b2o124b2o45b2o
4b2o$13bo2bo14b2o7bo33b2o41b3o3b3o31b2o6b2o7b2o58b2o82b2o7bo24b2o64bo
8bo2bo31bo2bo67bo100b2o26bo41b2o43b2o145bo107b2o$14b2o23bobo32b2o13b2o
66b2o41bo33b2o42b2o48bo37bo51bo8bobo33bo69bo128bo86b2o6b3o103b2o30bobo
62bo$39bobo47b2o23b2o54bo29bo77b2o48bo36bobo44b2o4bo9bo350b2o82b2o31b
2o62bo6b2o11bo$40bo72bobo5b3o45bobo28bo5b2o86b3o20b3o45b2o8b2o35b2o7bo
22b2o182b2o87b2o59bo2bo178bo6b2o10bobo$9bo20b2o81b2o5b2ob2o44bobo34bob
o107b5o48b2o4b2o43bobo21b2o6bo175b2o87bobo59b2o198bo2bo$8bobo19b2o72bo
15bo3bo45bo36bobo82bo5bo16b2o2b3o47bobo48bobo29bo135bo127b2ob2o25b2o
196b2o6bo27b2o31b2o$8bobo93bo16b3o84bo83bo5bo19bob2o48bo50bo30bo9bo
124bobo119b2o6bobo26b2o41b2o112b2o38bo2bo5bo60b2o$9bo73bo20bo17b2o77b
3o48b2o38bo5bo15b2o4bo140bobo4b2o3bo44bo67bo2bo45bo73b2o6b3o69b2o48b3o
60bo2bo38b2o6bo$82bobo97b2o45bo22b2o5bo5bo12bo36bo3bo77b2o49b3o3b3o3bo
2bo4b2o3bo42b4o67b2o6bo28b2o8bobo80bobo9b2o172b2o7b2o$82bo2bo32b2o61bo
2bo36b2o6bo29bo5bo12bo15b3o20b2o20b2o55bo2bo60bobo10bo41bo4bo74bo28bob
o7bobo37b3o41b2o8bobo106bo74b2o$83b2o33b2o62bobo36b2o6bo29bo5bo12bo37b
2o21b2o56b2o53bo8bo53b2o3bo74bo29bo9bo21bo60bo4bo3b2obo106bo14b2o$119b
o63bo131bo3b6o127bo16b2o4b3o36bo2bob3o80b2o53bo14bo5bo40bo3b3o4bo87b2o
17bo13bo2bo136bo$60bo56bo107b3o33b3o52b2o3bob2o43b2o72b2o8bo16b2o44b2o
3b2o75b3o2b2o24b2o27bo14bo5bo39b3o3b4o2bo64b2o21b2o32b2o78bo57bobo$59b
obo55bo3bo153b2o45b2o44b2o66b2o4b2o11b2o16bo41b3obo67b2o38bo2bo17b2o
22bo5bo39bo5bo6bo63b2o42b3o89bobo56b2o$59bo2bo49b2o6bobo151bo2bo57bo
74b2o13b2o9b2o16bobo16bo45bo5b2o59bo2bo5bo32bobo17b2o36b2o32b4o2b2o3b
2o69bo82b2o44bobo61b2o$60b2o50b2o5bo2bo152b2o57bobo73b2o12bo2bo27bo17b
o51b2o59bobo6bo33bo44b3o9b2o33b3o6bo2bo68bo12bo69b2o45bo62b2o$82b3o35b
2o87bo124bobo47b2o38bo2bo124b3o32bo7bo109b3o13b2o6b2obo11b2o56bo12bo
198b2o$90b3o66b2o47bobo13b2o18bo41bo48bo10b2o35bo2bo38b2o196b3o103bo3b
2o8bo2bo34b2o32bo111b2o84bobo$80bo5bo71bo2bo46bobo13b2o18bo40bo2bo13b
2o41bo2bo35b2o153bo5bo36bo146b3ob2o8bobo28b2o5b2o3b2o138bo2bo83b2o$80b
o5bo72b2o25bo22bo34bo39b2o2bo12bo2bo36bo4b2o191bo5bo36bo27bobo3bo17b2o
90bo3b2ob2o9bo5bo23b2o10b2o29b3o23bo83b2o34b2o9b2o18b2o15b2o$80bo5bo
63b2o33bobo96bo17b2o37bo84b2o77b2o32bo5bo36bo30bob2o17b2o30b2o57bobo4b
3o14bobo6bo84bo45bo73b2o8bo2bo16bobo9bo4bobo5b2o$25b2o28bo94b2o34bo94b
ob3o55bo84b2o77b2o65b2o34b2o2bob2o50b2o58bo6b2o14bo2bo4bobo45b2o36bo
44bobo83b2o18bo4bo4bobo3b2o5bobo$25bobo26bobo25b3o58b3o129bo3b2o3b2o
114b2o139b3o28b2o34b2o5b2o115bo17b2o5bobo45b2o70b2o4b2o4bo40b2o66bobo
3bobo10b2o$26b2o27b2o65b2o64b2o72bo11bobo5bo9b2o106b2o144b2o60b6o144bo
117bo2bo2bo2bo44b2o8bo57bobo4bo9b2o$28b2o92b2o63bo2bo13b2o56bo11bo2bo
3bo3bo6b2o237bo14b2o63bo3b4o43b2o179b2o32bobo3b2o37bo16bobo57bo14bobo$
21b2o5bobo3b2o91b3o58bobo13b2o56bo12b2o5bo2bo148bo95bobo79b3o47b2o178b
obo33bo16bo2bo23bo15bo2bo72b2o$21bobo5b2o3b2o153bo93bo149bobo94bo2bo
83bobo35b2o111b2o73bo78bo16b2o53b2o7b2o$22b2o149bo260bo96b2o70b2o12bob
o35b2o34bo76b2o129bo93bo2bo6b2o$24b2o84b3o59bobo92b3o42b2o204b3o81bo
14bo73bo21b2o179b2o2bo11b3o50b2o29b2o$24bobo23b2o120bobo136bo2bo201bo
4bo80bo2b4o11b2o69bo21b2o180bo15bo37b2o12b2o$25b2o23b2o121bo44b3o91b2o
287b2o4b2o8b2ob2obo2b3o13b2o34b2o216bobob2o47b2o$39b2o141b2o214b2o117b
ob3o79b8o3b3obo2bo2bo3b2o13bo2bo32bobo13b3o52b3o145b3o3b2o30b3o$39b2o
127b2o12b2o32bo5bo94bo80b2o85bo3b2o24b2ob2o81bob2o7b2o2bo3bo5bo2b3obo
8b2o34bo182b2o33b3obo2bo29b2ob2o47b2o$168b2o28bo17bo5bo41b2o38b2o10bob
o147b2o16bobo2b2o25b3o19b2o62bo12bo4bo6b2o3b2o69b2o6b2o69bo77bobo40bo
3b2ob2o4bo17bobob2o45b2o$49b2o142bo4bo17bo5bo40bo2bo36bo2bo9bobo46bo
16bo82bo2bo15bobo30bo20b2o29b2o44bobo3bo5b2o3bo70b2o6b2o69bo78bo38b3o
12b2o15bo4b2obo$22bo26b2o21b2o24b2o92bobo3bo44b3o17bobo37bo2bo10bo46bo
bo14bobo82b2o17bo32b2o24bo24b2o45b2ob2o8b4o34bo114bo41b2o74bo14b2o14bo
4bobo10b2o$22bo48bo2bo22bo2bo91bobo48b2obo17bo39b2o58bobo15b2o159bobo
70b2o14bo33bobo155b2o79b2o3b3o19bob2ob2o10b2o58b2o$22bo49b2o24b2o93bo
50bo2bo98bo18bo134bo42b2o56b3o12b2ob2o3bo6bobo31bo2bo147b2o37b2o48b2o
3b2ob2o20bo2bo46b2o21bo2bo$116b3o114bo13bo64b2o32bo135bo16bobo115bob2o
3bo40bobo86b3o59b2o37b2o52b2o2b2o21b2o46bo2bo21b2o$24b3o205bobo10b3o
64b2o32bo13b2o7b2o110b3o3b2o9bo2bo99b2o21bo10b2o29bo159b2o81b2ob2o13b
2o56b2o15b2o$232b2o125bo2bo5bo2bo109b3o2b4o9b2o100bo2bo25bo2bo53bo117b
2o18bo2bo6b2o72b2obo14b2o16bo56b2o5b2o$342b3o15b2o7b2o119bo116b2o22bob
o3bo49bo108bo8b2o19b2o7b2o65b2o5bo2bo32bo25b2o35bo2bo$171bo3bo32b3o44b
o229b2o3bo109bo6b2o26b2o6bo21bo21bo57bo49bobo104b2o4bob2o33bo25b2o36b
2o$170bobobobo33bob2o40bobo108bo123bo110b3o41bo19bobo78bo49bobo110bob
2o9b2o33b2o10bo$169bobo3bobo6b2o23bob3o40bo2bo106bobo73b2o26b2o130bo2b
o38b3o19bobo3b2o73bo50bo5bo30bo75bo11b2o24b3o6b2o10bo$26b2o142bo5bo7bo
bo23b4o41b2o107bobo72bo2bo24bo2bo129b2obo8b2o51bo3bo2bo129bo29bobo61b
3o30bo38bo$26b2o86b2o57bo11bo23b2o154bo74b2o26bobo6bo116b3o3bo3b2o6bob
o55b2o130bo29bobo4bo53bo34bobo14bo$85b2o26bobo57bo140b3o152bo7bo21bo
101b2o11b2o217bo4bobo48bo2bobo34b2o14bo72b3o$84bo2bo26bo35b3o20bo324bo
bo101b2obo9bo77bo52b2o56b3o31bobo2b2o4b2o12bo24b2o3bo51bo14b2o$85b2o
92b2o101b2o214bobo103bo20b2o65bobo51b2o18b2o71bo3b2o4b2o11bobo22b2obo
69b2o$148bo5bo24b2o44b2o55b2o59b2o137b3o14bo113b2o10b2o64bo2bo5b2o63bo
2bo14b2o78bo22b2o2b2o86b2o$144bo3bo5bo70b2o115bo2bo13b2o37b3o80b2o110b
o18bo79b2o6b2o63bobo15b2o89bo10b3o2b2o82b2o2b2o$72b2o70bo3bo5bo187bobo
13bo2bo97bo14bo9b2o101b2o3bobo171bo106bobo10b2o3bo22b2o58b2o$71bobo64b
3o3bo72b3o10b2o111bo15b2o34bo6bo25b2o29bo13bobo6bob2o58b2o41b2o2bo2bo
44b2o19b2o211bobo11bo26b2o$72bo45bo31b3o59b2o3bobo9bo2bo13b2o6bo131b2o
7bo6bo25bobo28bo13bobo5b2o2bo11b3o9bo34b2o6b2o38b2o45b2o18bo2bo76bo
114b2o18bo131b3o$85b2o31bo17bo5bo44b2o5b3o14b2o17b2o14b2o4bo2bo6b2o9bo
111bo2bo6bo6bo26bo44bo6bo3bo22bobo21b2o18b2o106b2o76bobo113b2o25bo$25b
2o27b2o29b2o31bo17bo5bo44b2o5b2ob2o19bo2bo15bo13bo4bo3b2ob3o6bobo103b
2o5bobo92b5obo22bo4b2o16b2o100b2o102b2o15b2o124bo14bo83b2o22bo5bo$24bo
2bo25bo2bo79bo5bo51b2ob2o19bo3bo13bo3b3o17bo4bo6bobo103b2o6bo11b3o3b3o
5b2o27bo38bo5bo27b2o118b2o119b2o41bo82bo13bobo42bo39b2o22bo5bo$25b2o
26bo2bo139b2o22bobo15bo11bo2b2o2bob2o3bo8bo16b2o120b2o27bo11b2o26b5o
202b2o7b2o98bobo95b2o42bobo62bo5bo$54b2o82b3o80bo16b2o3bo7b2o2b2o3bo
28bo2bo78b2o29bo5bo32bo11b2o27b3o203b2o7b2o99bo20bo119bobo75b2o$30bo
68b2o9b2o101bo23b2obobo16b2o29b2o79b2o29bo5bo81b2o102b2o37b2o169b2o13b
o120bo65b3o8b2o$29bobo52bo13bo2bo7bo2bo35bo45b3o16bo26bobo16b3o140bo5b
o11b2o63b2o3b2o101bo2bo19b2o15b2o7b2o5b2o42bo110b2o13bo59bo$29bobo51bo
bo13b2o9b2o35bobo63bo25b2o4b2o39bo132bo2bo62b2o107b2o20b2o23bobo5b2o
41bobo102b2o79bobo$30bo52b2o62bobo51b2o6b2o10b2o14bo3bo2b4o6b3o28bobo
90b3o3b3o17b3o13b2o186b3o31bo49bobo101bo2bo48bo11b2o16bobo19bo$148bo
42bo9b2o6b3o9b2o14bo6bo3bo5bobo28bobo72b3o218b2o17b3o90bo20b2o80bobo
48bobo10b2o17bo20bo112b2o$94bo95bobo15bo2bo25bo2bo2bob2obo5bobo29bo95b
o198b2o29bo18bo82b2o81bo13b2o34bobo50bo112b2o$53bo30b2o7bobo93bo2bo16b
obo30b4o2bo3bo129bo229bo17bobo69b3o30b2o27b2o38bo6b2o35bo25b2o7b2o132b
2o$52bobo28bo2bo6bobo28bo65b2o18bo30b2o13bo125bo229bo6b2o8bo2bo102bobo
26b2o22b2o13bobo67bo2bo5bo2bo131b2o$53bo30b2o8bo28bobo50b2o6b2o8bo47bo
5bo4bo2bo129b2o162bo67bo2bo8b2o25bo42bo5bo29bo50bo2bo12bo2bo67b2o7b2o$
49b2o72bo2bo31b2o16b2o6b2o7bobo5b2o38b2o2b5o5b2o128bo2bo18b2o140bobo
52b2o12bobo18b2o16bo42bo5bo69b2o9bobo14b2o143b2o$48bo2bo57bo14b2o32b2o
32bo2bo5b2o6bo23bo6b3o2b2o3bo40b2o93b2o18bo2bo10b3o127bo53bobo12bo18bo
2bo15bo9b2o7b2o16b2o4bo5bo5b2o61bo2bo9bo90bo68bo2bo6b2o$48bobo58bo83b
2o13bobo21bobo6b3o7bo39bobo89bo23bobo176b2o17bo33b2o25bo2bo5bo2bo15b2o
15bo2bo2b2o56bo2bo99bobo68b2o7b2o$49bo59bo63b2o33bobo22b2o8b4o45bo90bo
24bo98b3o3bo72b2o65b3o3b3o5b2o7b2o24b3o7b2o3b2o57b2o100bobo37bo23b2o
22bo3b2o37bo$119b2o52b2o34bo33b2o5bo132bo81b2o45bobo288b2o2b2o58b2o10b
o37bobo4b2o16b2o22bo3b2o36bobo$40b3o45b2o29b2o14bo65b2o42b4o216b2o26b
2o17bobo142bo14bo130b2o2b2o22bo35b2o48bobo4b2o40bo41bobo9bo$2b3o83b2o
44bobo53b2o9b2o43bo246b2o18bo34bo108bo13bobo58b2o19b2o75b4o30bo26bo19b
2o5bo62b3o25bo9bobo$31b2o5bo5bo89bobo53b2o74b2o220bo58bobo47b2o49b3o6b
o13bobo58b2o19b2o74bo3b2o29bo25bobo18b2o106bobo$6bo23bo2bo4bo5bo90bo
130b2o39b2o178bobo58bo27bo10bo9b2o73bo157b2o3bo28bo25bo2bo24bo85b2o7b
2o5bo$6bo24b2o5bo5bo34bo227b2o57b2o90b3o26b2o87bo10bo233b3o7b4o56b2o
24bobo83bo2bo5bo2bo$6bo71bobo36bo69b2o155bo21b2o41bo166bo10bo65b2o154b
o23bo12b3o69b2o78b2o4b2o7b2o$36bo3b3o36b2o5bo30bo68bo2bo153bobo15b3o
44bobo227b2o13b2o84b2o67bobo16b2o17bobo149b2o$2b3o30bobo48bo30bo69b2o
9b2o69b2o73bo63bobo227b2o58b2o39b2o6b2o34b2o22bo2bo14bo2bo2b2o13b3o17b
2o41b2o$35bobo16b2o30bo111b2o27bo40bo2bo40b2o95bo158b3o127b2o47b2o34b
2o14b3o6b2o15b3o2bo2bo18bo12bo2bo40b2o$36bo17b2o149b3o18bobo40b2o41b2o
57b2o185b2o195b3o20b2o18bo3bo24bo2bo2bo17bobo12bobo49b2o$190b2o3b2o30b
2o2b3o137b2o47b2o129b3o4b2o6bo5bo160b2o43b2o22bo13b2o10bob2obo18b2o13b
o$190b2o3b2o34bobob2o26b3o54bo99b2o55bo88bo5bo160b2o61bobo17b2o8b2obo
3bo12b2o74bo2b2o$177bo53bobo2bo18bo5bo4bo53bo92b2o26b2o34bo71bo5bo10bo
5bo36b2o34bo12b2o135b2obo27b4ob2o10b2o2bo73b2o2b2o94b2o$2b2o111b2o9bo
49bobo57b3o15b2o3b2o4bo54bo22b2o68b2o26b2o34bo33bo37bo5bo53b2o11b2o21b
o11bo2bo134b2o38b2o6b4o74bo24b2o73b2o$2b2o28bo82b2o8bobo36b2o11bo59b2o
7b2o6bo88b2o75bo89bo2bo35bo5bo12b3o5b2o44b2o21bo12b2o136bo2bo31bo4bo8b
o99bo2bo$31bobo38b2o52bo37b2o71bo8b2o11bo4bo10bo143bobo53bo34bo2bo61bo
2bo13b2o15b2o185b3o29b2o2bo113b2o50bo$30bo2bo35b2ob2o201bo143bobo52bob
o35bo38b3o21bobo14b2o15b2o72b2o112b2o31b3o128bo12b2o21bobo$31b2o36b2o
3bo152b2o34bo11bo144bo36bo16bobo99bo106b2o147bo127bobo11b2o21b2o$68bo
3b2o53b3o40b2o54bo2bo30bobo185b2o6bobo16bo4bo65b2o61b2o119b2o60b2o6b3o
137b2o18bobo42b2o$69b2ob2o16b2o35b3o19b2o18bo2bo53bob2o30b2o9b3o3b3o
160b3o5bobo5bobo8b2o10bobo50b2o12b2o16b2o42b4o56b2o8bo10b2o38bo2bo59b
2o6bo138b2o20bo42bo2bo$69b2o19bobo35bo20b2o19bobo52b2ob2o114b2o57bo45b
o7bo9b2o11b2o41b2o9bo28bo2bo40b4obo55b2o8bo10b2o39bobo65b2o53bo60bo26b
o63b2o$91bo30bo48bo52bo3bo46bo67bobo56bobo117bo2bo6b2o6b2o22bobo39b2o
3b3o64bo30bo21bo4b2o2b2o18b2o90bobo58bobo82b3o$5bo18b2o95bobo4b2o66bo
28b2ob2o45bo67b2o57bobo21bo12bo57bo25b2o15b2o23bo45bobo94bobo25b2o2b2o
9b2o7b2o36bo2bo51b2o33b2o23bobo39b3o$4bobo16bo2bo42bo52b2o4b2o66bo28b
2ob2o35b2o8bo127bo21bobo11bo31b2o23bobo58b2o25bo21bob7o59b3o3b3o24bo2b
o24b2o6bo7b2o46b3o11bo26b2o45bo2bo23bo11bo10b3o37bo$4bo2bo16b2o42bobo
116b3o6bo30bo37b2o158bo2bo10bo30bo2bo22bo2bo57b2o24b2o21b4o3b4o91b2o
26bo7bo29b2o36bobo24b5o43bobo34b3o9bo40bo10b2o$5b2o48b2o11bobo355b2o
43b2o24b2o84bobo19b2o9b2o60bo57b2ob2ob2o30b2o4b2o4b2o23bo2bo24bo2b2o2b
o7bo33bo34b4o8bo3bo37bo10b2o$55b2o12bo122b3o3b3o147b2o254b2o5b3obo62bo
57b2o3bo16b3o19b3o6bo22b2o21bo2b2obo4b2o6bo67bo13bo2bo$34bo3bo48bo200b
2o58b2o15b2o136b2o17b2o80bo5bobo65bo22b2o76bo2bo3bo2bo44b3o5b2ob2o7bo
68b4ob3o5bo58b2o$33bob5o31bobo11b2ob2o9bo9b2o85bo37bo37bo14bobo75b2o
136bobo16b2o80bo4bo3b2o85bo2bo75bo2bo6bo43b2ob2o4bob2o78bobo2bo7b3o55b
2o$32b2ob5o31bobo14bobo8bo10bo85bo37bo36bobo13b2o102b2o111b2o104bo3b3o
8b2o74b2o11b3o28b2o25b2o6b2o3bo2bo45b3obo3bobo5b3o3b3o20b2o44bob2o9bo
14b3o$35bob3obo29bo27bo20b2o74bo29b3o5bo36b2o50b2o66b2o211b2o7b2obo7b
2ob2o116b2o8bo16b2o13bo47bo3b2ob2o19b3o12bo2bo42b2ob2o16b2o6bobo$32bob
o3bob2o26bo2bo19bo28bobo23bo111b3o61bo2bo246b3o27bobobo7b3o4b2o2bob2o
26bo41bo56bob2o26b3o54b2o11bo24bobo35b2o4b4o17bo2bo4bo2b2o2b2o19b2o$
32bo5b4o29bo14bo3bo21b2o2b3o3bo23bo16b3o64bo5b2o84bobo70b3o20bo31b2o
47bo60b2o41b3o9b2o7bo2bo27bo40bobo57b3o24bobo68bo6bo5bo12bo35bo2bo5bo
19b2o6bo2b2o22b2o36bo$67bobobo15b3o21bo3bo5b2o23bo25bo21b2o34bo5b2o43b
3o39bo24bo57b2o9bobo30b2o3b2o42bo62bo53bo3bo4bo5b2o22bo40bobo56bobobo
4b2o16bobo69bo6bo5bo48bo2bo2b2o4bo24bo4b3o35b2o19bobo$66b2o3b2ob3o35bo
2bo2bo30bo22bo20bo2bo12b2o19bo25b2o89bobo56b2o9bo2bo33bo2bo41bo5bo36b
2o15bo60b2obo2bo4b2o64bo54bobobob2obobobo7b2o7bo2bo24b2o49bo5bo51b2obo
3bo2bo24bo2b3o35bo2bo18bobo$67b2ob2o41b2o33bobo21bo21bobo12b2o45b2o89b
obo68b2o34bobo48bo18bo17b2o16b2o55b2o3bo2bo25b3o3b3o94b2ob2o5b2o6bo2bo
7b2o25b2o107b3o74b2o20bo$33bobo39b2o14bobo38b2o15bo45bo152bo85b2o19bo
39b3o7bo17bobo90bo2bo4bo131b3obob2o8bo2bo134b3o6b2obobobo2bo$32bo2bo
44b3o7b2o2b2o35b3o27bo106b2o134b2o28b2o29b3o55b2o42b2o46bo3bo35bo84b3o
14b2ob2o10bobo5b2o95bo40b2o6bo2bo26b2o43b2o10b2o$33bo2bo42b2ob3o4b3o3b
2o32b3o28bobo100b2o5bo42b2o88bo2bo37b2o121b2o47b2o37bo102b3o11b3o5b2o
72b2o21bo39bo4bo2b2o2bo25bob2o2b2o37bo2bo8bo2bo$33b3o43b2o3bo8bob2o32b
2o18b2o10bo101b2o4bo7b2o34b2o89b2o38b2o80b2o61bo65bo44bo71b2o50b2o27bo
2bo20bo40b3o7bo26bo3bob2o38bobo9b2o$34b2o27b2o15b5o5bo2b3o23b3o27b2o
116bo3bo4b3o71bo20b3o35b2o115b2o56b3o2bo45b2o27bo35bo68bob2o51b2o28b2o
62b3o6bo27b2obo20b2o7b2o12bo$63b2o16bobo6b4o5b3o5b3o8bo3bo46b3o99bo5b
2o70bobo57b2o30b2o17bo122bo5bo45b2o26bobo34bo68bob2o11b3o86b3o3b3o43bo
36bo15bo2bo5bo2bo27bo$37bo2bo40b3o6bo16bo7b2o65b2o34b2o5b2o42bobo29b3o
46bobo88b2o17bo95b2o28bo5bo70bobo38b2o66b2o151bo31b2o4bo15b2o7b2o27bob
o$38b2o2b2o33b2o2b2o10bobo12bo9bo2bo7b2obo40bo8b2o35b2o4b2o68bo4bo3bo
46b2o107bo95b2o24bo3bo5bo17bo32b2o10bo8bo24b2o12bobo112b2o57bo45b2o13b
2o77bobo$39bo4bo33b2ob2o9bo3bo20b2ob2o7bo3bo39bo43b3o75bo4bo3bo13b2o
109bo22bo52b2o74b2o8b2o17bo32b2o3bo5bobo21bo9bo2bo12bo10bo54b5o42bo2bo
56bo27bo53bo2bo21bo9b2o22bo$40b2o2bo33bob2o9bo3bo24b2o8b3o40bo43b2o49b
3o29bo3bo13b2o40bo68bo22bo13b2o37b2o75bob2o61bobo4bobo20bobo9b2o23bobo
26bo27b3o44b2o51bo5bo26bobo52b2o22bobo8b2o$41b2obo33b3o13bo122bo50bobo
30b3o54b4o31b3o33bo22bo12bo2bo9bo104bo9b2o27bo24bo2bo4bo21bobo34bo2bo
24bobo126bo14bo18bo77bobo$40bo3bo33bobo10b3o16b2o91bobob2o57b2o2bo86bo
3bo104b2o9bobo110bo2b2o26bobo24b2o28bo36b2o25bobo26b3o97bo13bobo96bo$
39b6o32bobo29bobo11b2o8b2o66b4ob4obo38bo15b3o87bo4bo115bobo3b2o104b3o
12bo11bo4bobo119bo26bo2bo28b2o81bo2bo44b2o3bo21b2o$40bo36bo2bo28bo10b
2obo9b2o20b2o43b3o9bo33bo3bo18bo87bob4o111bo3bo4b2o8b2o59b2o33b3o13bo
7b2o3bo54b2o7b2o73b2o12b3o18b2o8b2o63b3o16b2o45b2o3b2o20b2o41b2o$25bo
13bob2o35b2o30b2o7bo3bo31b2o43b2o44bo3bo16bo2bo86b3o71b2o41bo18b2o59b
2o47b2obo5bo5bo6b2o45bo2bo5bo2bo49bo21bo2bo32b2o146bo62b2o$24bobo13bo
2bo75bob2o19b2o5b3o51bo5b3o34bo20bo2bo85b3o4bo67bobo40bo93b2o33b2ob2ob
o2b2o10b4o45b2o7b2o49bobo21bobo88bo67b2o20b2o$14b2o7bo2bo13bob2o76bo
20bobo56bo91b2o62bo3bobo69bo118b2o15b2o35bo5b2ob4o5b2ob3o104bobo22bo
69b3o17bo27b2o37bo2bo$14b2o8b2o6bo8b3o2bo94b2o57bo16b2o23b3o3b3o40bobo
27b2o33b3o2bo127b2o59bo2bo49b5obob3o14bo14b3o3b3o15b2o9bo41bo13bo16b2o
95bo26bo2bo37b2o7b2o94b2o$32bo8b3obobo61b3o89bo4b2o8bo2bo35bo19b2o14b
2o27bo2bo105b2o40b2o16b2o60b2o50b2o2b4o2b3o12b3o23b2o11b2o8bobo40bo29b
o2bo122b2o46bo2bo4b2o2b2o13b3o31bo35b2o$32bo12bobo42b2o14b3o65bo27bo2b
o11b2o15b2o10bo7bobo18b2o8b2o34b2o105bo2bo38bo2bo83b2o44b2o8b4o11bo25b
2o21bobo40bo16b2o12b2o91b3o77bobo5b2o2bo2bo45bo30bo$46bo42bo2bo14b2o2b
o62bo58bo2bo9bo7bobo28b2o40bo100bo2bo11b2o26b2o84b2o56b2o30b2o29bo58b
2o58b3o125bo6b2o2bobo46bo30bo$49b2o38bo2bo15b3o63bo59b2o3b2o5bo8bo70bo
bo100b2o11bo2bo171bo29b2o40b2o157bo19b2o13bo24b2o106bo$48bo3bo37b2o5b
2o46b3o79bo11b2o73bo10bo2bo114b2o168b2o73bo2bo156bo19b3o13b2o7bo14b2o$
41b3obo2bo3bo44b2o127bobo21b2o7b2o52bobo10b2o70bo4b3o120bo86bo2b2o70bo
2bo8b2o146bo19b2o15b2o5bobo59b2o$40bobob3o4bo91bo5bo76bobo20bo2bo5bo2b
o33bo17bobo33b2o17b2o13b2o12bobo14b2o15b3o92bo32b2o41b3o3b2o4b3o38bo
33b2o9b2o69b2o66b2o34bo11bo3bo2bo59b2o$38b2ob3ob2ob2o22bo70bo5bo77bo
22b2o7b2o34bo18bo34b2o18b2o12b2o12bobo14b2o110bo32b2o47b2o5bo31b2o6bo
40bo73bo2bo64bo2bo8bo24b2o5b5o5b2o48b2o$40bo7b3o20bobo41b2o26bo5bo145b
o102bo247bo2bo5bo39bobo72bobo66b2o4bo3bo2bo12b2o18bo21b2o22b2o9b2o45b
3o$27bo18bo2bo20bo3bo39bo2bo128b2o7bo49b2o3b2o14b2o318bobo46bobo73bo
35bo36bo4b2obo2b2o7bo2bo39b2o22bo2bobob2obo5bo$26bobo17b2ob2o19bo3bo
40bobo27b3o98b2o6bobo48b2o3b2o13bo2bo63bo254bo48bo31b2o14bo61bobo41bo
3bo9b3o67b3o8b2ob2o37bo25b3ob3o$26bobo17bo2b2o19b2ob2o41bo137bobo61bo
7b2o41bo21bobo4b2o161bo50bo115b2o14bo61bobo7bo26bob6o78bo2bo2bo3bo5b2o
b2o15bo21bo6b2o$27bo19b2o127b2o77bo58bob2obo26bo21bobo20bo2bo3b2o160bo
bo48bobo130bo62bo8bo26bob3obo44b2o10b2o20bo3bo4bo2bo4b2ob2o15bo21bo5bo
2bo$176b2o106b3o25b2obobo2bo24bobo21bo22b2o166bobo9bo13b2o11bo11bobo
23b2o43b2o53b2o51b2o24bo26b2o6bo42b2o10b2o21bo3bo4b2o7bo17bo9bo18b2o$
115b2o27b2o137bo3bo23bo5b2ob2o23bobo78b2o43b2o88bo10bo13b2o10bob2o10bo
24bobo41bo2bo15bo10b2o24b2o51b2o51b2o2bo4bo77b4o41bo$67b2o5b2o38bo2bo
25bo2bo99b2o14b2o19bob2o2bo2bo17bo2b4o3b2o24bo39b2o38b2o43b2o99bo19b3o
2bo5bo34bo43bobo14bobo8bobo130b2o2bo4bo66b2o10bo43bo$67b2o5b2o39bobo
12b2o12b2o10b2o14b2o72b2o14b2o20b2o6bo17bo2b2o5b2o63bo2bo12bo190bobo3b
2o3bo62bo16bo15bobo8b2o57bo7b2o72bo18bo18bo29b2o$70b2o2bobo39bo13b2o
24b2o14b2o112b3o4bo7b2o9bob4o12bo10b2o43b2o13bo27bo50b2o36b2o53bo18b3o
5bo2bo37b2o23bo12b2o19bo68bo7b2o71b3o17bo18bo16b2o29bo8bo$70bo3bobo
208b2ob7o5bo2bo7b2ob2o2bo11bo9bo2bo57bo27bo50b2o36b2o53bo22bo4b2o38b2o
23bo12b2o88bo82b2o16bo18bo16b2o29bo8bo$71b6o91b2o109bo13bo2bo4b2o8bo5b
2o11bo10b2o30b2o54bo143bo21b2o79bo14b2o52b2o105b3ob2o79bo8bo6bo$72b3o
93b2o102b3ob2o3bo11bo17b3o2b3o54b2o115b2o102bo81bo16bo51b2o10b2o6b3o3b
3o81b3o14b3o77bobo$181b2o24bo54b2o2b3o5b3o5bo10bo2bo15bo2b2o41b2o130b
2o77b3o3b3o17b2o79bo14b3o63b2o79b2o16bo95bobo47b2o$171b3o7bobo22bobo
53b2o2bob3o5b2o2b2o3bo8bobo15b5o40bo2bo142b2o91bo172bo68b2o16bo30b2o
64bo48bobo$86b3o36b2o55bo14b2o8bo57b2o17bo27bo2bo41bobo42b2o46bo6b2o
44b2o68bo119bo75bo85b3o23b2o4b2o114b2o$124bo2bo69b2o67b2obo6bo7b3o26b
2o43bo42bobo45bobo5b2o114bo104b2o4b2o4bo3bo74bo85b3o22bo2bo96b2o$125b
2o102b2o35b3obo2bobo14b2o110bo46bobo31bo89bo100bo2bo8bo2bo4bo186b2o7b
2o33b3o51bobo7bo$32b3o194b2o23b2o16b2o16b2o158bo14b3o3b3o9bo189b2o2bo
2bo4bo3bo3b2o77bo116bobo56b2o30bo7bobo20bo$243b2o9b2o12b6o110b3o5b3o
30b2o56bo110bo77b2o3bo2bo3b2o3b2o3bob2o74bo117bo22b2o20b2o11b2o38bobo
19bobo$69b2o17b2o6b2o144bo2bo23bo2bo3bo148b2o42bo122b2obo54bo22bobo2b
3o7bob2ob2ob3o32bo40bo121b2o16bobo19bo2bo51bo19bo2bo$69b2o17b2o6b2o32b
o112b2o19bo5b2o4bo8b2o114b2o66bo9b3o3b3o107bobo51bobo22b2o14bo3bob2o
32bobo57b2o6b2o24b2o63bo4bobo15b3o20b2o64b2o7b2o10b2o$33b3o57bo35bobo
131b2o20b2o113bobo4b2o30b2o28bo38bo22bo66bo51bo37bob5o36b2o27b2o28b2o
6b2o23bobo62bobo4bo16b3o86b2o19b2o$93bo36bo39bo22b3o66bo15b3o120bo5bob
o29b2o42bo23bobo20bobo62bobo48bo41bo5bo24b2o38bo2bo60b2o24bo38bobo23b
2o$22b2o69bo75bobo91b2o10bo3b2o25bo101b2o73bo22bo2bo19bo2bo52b2ob2o6bo
49bo14bo26bob2o2bo24b2o39b2o86b3o38bo22b2o2bo$21bo2bo11bo132bobo92bo2b
2ob2o3bobo2bo24b3o137b2o36bo23b2o21b2o5b2o46b2o3bo20bo34bo13bobo4b3o7b
2o9bo4bo90bo62bo2b2o24bo36bobo$21bobo11bobo12b2o118bo96bo2bo4bo4bo22b
2obobo135bo2bo89bobo44bobo4b5o14bobo47bobo4b3o7b2o9b2o93bobo61b3obo24b
o36b3o32b2o62bo$22bo3b2o6bo2bo12b2o214bo3bo30bobo4bo136b2o21b3o67bo45b
6o3bob2o13bo2bo5b3o39bo8bob2o15bob3o22b2o38bo27b2o59b2obob3o23bo71b2o
62bo$26b2o7b2o45b2o15bo92b2o73bobo6bo2bo29b2o40b2o63bo3bo68b3o61bo30b
4o3bob3o15b2o55b2obob2o18bo22b2o37bobo44b2o40bo2bo151b3o10bo$ob2o21b2o
55b2o15bo64b2o26b2o74bo3b4o2bo27bo4bo3b2o13bo19bo2bo52b2o7bobobobo79b
2o49bobo14b2o21b3o72bo3bobo17b2o62bobo21b2o21bobo38b6ob3o19b3o44b2o10b
3o$3bo19bo2bo72bo64b2o139bobo2b3obobo13b3o17bo2bo51bo2bo6bobobobo79b2o
49bobo13bo2bo21bo74b2ob2o28bo54bo21bo2bo21bo9b2o29bo2bo2bob2o61b2o3bo$
bo2bo3b3o9b2obo2b2o244bo3bo24bo4bo4bo2bobo14b2o18b2o53bobo7bo3bo132bo
13b3ob2o90bo36bobo65b2o9b2o32b2o30b2ob3ob2o75b2o4bo$2b2o4bobo9b2obo4bo
66b3o3b3o15bo153b3o26b2o5b2o6bo5b2o4b4o74bo34bo125b2ob2o53b3o33bobo34b
o3bo12b2o8bo40bo2bo76b6o75bo3bo2bo$8b2o10b2o96bobo135b2o45bo5bo7bo4bob
o3bo2bo46bo62bobo125bob3o18b2o68bobo20bo14bobo13b2o8bo24b2o15bobo47b2o
27bo2bo74bo2b2o$8bo13bo4b2o70bo17bo2bo27bo107b2o57bobo11b3o46bo62bobo
7b2o118b3o18bobo4b2o62bo20bobo14bo24bo23bobo16bo23b2o23b2o28b3o10b3o
60bo3b3o86b3o$7b2o13b2ob2o3b2o67bo18b2o27bobo85bo85bo5b3o48bo63bo8b2o
90b2o27bob2o3bobo11b2o4b2o29bo53bobo63b2o41b2o54bo4b3o67bo5bo5bo$7bo
22b2o67bo47bobo84bobo66b3ob3o12bob3obo84b2o43bo84b2o28b2ob2o3bo48bo34b
2o19bo35b3o3b3o49b3o140b2o4bo4bo2bo$7b2o80b3o56bo61bo11b3o9bobo49b2o
15b3ob3o13bob2obo45b3o3b3o29bo2bo42bo90b2o22b4o28b2o23bo28bo5b2o19bob
2o112b2o113b2o5bo3b2o10b2o$111bo98bo24bo49bo2bo14b2o3b2ob3o99bobo42bo
52b2o36bo22b2o4b2o25b2o51bobo26b2obo35bo75b2o16b2o103b2o4bo3b3o2b2o$
111bo31b2o7b2o23b2o31bo75bobo15b2ob2o28b2o39bo35bo95bo2bo37bo20b2o4bo
21b2o30b3o23bo2bo7bo18bobo35bo93b2o5b2o98bob4o$20b2o59b2o28bo30bo2bo5b
o2bo22b2o51b2o7b2o23b2o21bo48bobo39bo69b2o61b2o37b2o20b2o2b2o22b2o57b
2o7bobo17bo2bo34bo100b2o35bo66b3o18bo68b2o$2b2o16b2o58bo2bo59b2o7b2o
75bo2bo5bo2bo21b5o69bo40bo69b2o118bo4bob3o11bo54bo23bobo17b2o80bob2o
90bo66b3o17bobo46b2o18bobo$3b2o35b2o14b2o23b2o147b2o7b2o22bo4bo59bo3bo
138b2o95bo4b4o12bo54bo24bo12bo2b2o2bo78b2o3bo76b3o11bo12b2o48b2o2b2o
18bobo45bo2bo17b2o$3b2ob2o31bo2bo13b2o90bo106b2o6b3o2bo39b2o5b2o11bo4b
o66b2o69b2o61b2o32bo5bo14bo6bo5bo41bo37b3o5bo25bo17b3o31b2o4b4o95b2o2b
2o47bo4bobo18bo46bobo$3b2obo32bo2bo60b2o42bobo104b2o8bo2b2o38bo2bo4bob
o11bo3bo22bo42bobo132bobo58bobo3bobo78bo7b2o24bo3b2o46b2o4bob2o70bo18b
2o4b2o51bo5b2o14b2o50bo$6bobo31b2o34bo26b2o42bobo104bo10b2o41b2o6bo10b
o5bob2o18bobo42bo29bo34b2o68bo59bobo3bobo36b3o3b3o41b2o24bo3b2o48bo5b
2o14bo8b2o21b2o22bo18b2o57b3o18bo2bo$3b3ob2o66bobo33b2o35bo177bo5bob3o
18bobo71bobo33b2o129bo5bo83b2o4bo82bo2bo13bo7bobo21b2o22bo75b3ob2o3bo
14bobo$34b2o39bobo33b2o176bo15b2o19bob2o3bo22bo71bo2bo17bo194bo41b6o
62bo18bo3b2o13bo8bo122b2o3bo2bo16bo4bo20bo$33bobo40bo38b2o172bo14bo2bo
19b2o3b2o31bo63b2o17bobo193bo43b4o9b3o49bobo18b3obobo131b2o16bo22bobo
18bobo$34bo80b2o105bo40bo25bo14bobo22bo2b2o30bobo13b2o66b2o135b2o57bo
109b2o19bo4b2o61bo68b2o13b3obo22bo18bo2bo$221bobo38bobo40bo58bobo13b2o
143bo58bo2bo32bo31b3o44bo5bo65b2o10bo22bo36bo71b3o2bo6b6o41b2o$107b2o
88bo10b2o11bobo34b2o3b2o100bo20b2o137bo59b2o33bo78bo5bo65b3o9b2o20bobo
31bo67b3o5b2o4bo5b4obo$52b2o52bo2bo86bobo8bo2bo11bo30b2o3b2o22b2o101bo
2bo90bo45bo94bo29bo48bo5bo64bo2bo4bo2b2ob3o18bobo29b2obo66b3o5bo5bo45b
2o31b2o$31b3o17bo2bo51bo2bo86bobo8bobo43b2o25bo4bo17b2o80bo2bo31b3o55b
obo72b2o35bo59bo20b2o99bobobo4bo2b2o20bo80b2ob2o15b2o2b2obobo4bo45b2o
22b3o5bo2bo$52b2o53b2o88bo10bo71bo4bo17b2o81b2o49b2o39bobo40b3o3b3o23b
obo33bobo58bo19bo2bo27b3o68bo2b2o3b2ob2o51bo2b2o46b2ob2o18b2ob2o3bo17b
o63b2o$280bo4bo35b2o95bo18b2o40bo74bo34bobo48bo30b2o73b2o26b3o3b4o53b
2o76bob2o17bo37b2o13bo5bo$246b2o34b6o33b2o95bo22b2o82bo64bo49bo75b3o
26bo2bo33bo69b3o50b2o4b4o2b2o17bo21b3o12bo2bo11bobo3bobo$134bo110bo2bo
35b2o2bo20bo108bo21bo2bo81bo114bo105b2o115b2o39bobo5b2o60b2o12bobo3bob
o$80b2o52bo111b2o36bo3bo18b2o2b3obo125b2o82bo80bo16bo239b2o39bo2bo81bo
5bo$46b2o32b2o37bo14bo149bo2bo20b4obo2bo190b3o95bobo14bobo280b3o8bobo$
45bo2bo69b2o140bo23bo2bo24bo2bo53bo67bo167bobo14bo2bo61b2o201b2o3b2o
10bo9bo58b3o$46b2o69b2ob3o29b2o106bo26bo25b2o53bobo65bobo66bo5bo94bo
16b2o62b2o4bo196b2o3b2o66bo23b3o$119b2o2bo28b2o5bo21b3o37b2o37bo23bobo
81b2o66bobo61b2o3bo5bo181bo179b2o88bo10bo5bo39b2o$60bo59b3o35bobo59bo
2bo14b2o16b2o26b3o150bo62b2o3bo5bo74b2o105bo5bo83bo89b2o46bo5bo25bo9bo
10bo5bo37b3obo$59bobo59bob3o32bobo60b2o15b2o16b2o261b2o65b2o77bo2b3o2b
3o22bobo82bo131bo5bo3b2obo18b2o4bo20bo5bo11b2o23bo4bo$30b2o27bo2bo55b
2o4b2o33bo122bo6b2o20b2ob2o153b2o36b3o9b2o177bobo70b2ob2o7bo130b2o4b2o
b2o3bo18b2o4bo38b2o23bob3o$30b2o28b2o55b3o162bo5bo2bo19bo3bo152bo2bo
14b2o39bo137b2obobo28bo69b4ob2o119b2o16bo9bo2b2o48b3o39b2o$73b2o8b2o
32b3o42b2o27bo90bo5bobo20bo3bo153bobo14b2o38bobo8b2o47b2o5bo75bo99b5o
2bo2b3o3b3o65bo41b2o17bo3bo4b2obo25bo$56b2o15bobo7b2o31bo6b2o23b3o11b
2o26bob2o66b2o27bo22bobo4b3o148bo56b2o8b2o47b2o4bobo67b2o104bo6b2o75bo
bo63b4o30bo$38b3o15b2o16b2o40bo5bob2o63b2ob2o51bo14b2o22b3o26bo151b2o
74b2o50b2o67b3o104b2o3b2o7bo68bo2bo63b3o30bo$68b2o52bo66b2ob2o42bo7bob
o70bo147b2o73bo2bo7b2o121bo44bo49b2o12bo11b2o56b2o18b2o4bo40bo13b2o29b
o$68b2o51b2o36b2o31bo42bobo7b2o17b2o51bo81b2o140b2o8b2o121b2o4b2o36bob
o50b2obo8bo11b2o76b2o3bobo53b2o28bobo19bo$56bo65bob2o33b2o28bobo36b2o
6b2o26b2o51bo81b2o92b2o176bo2b3o3b2o37bo5bo47bo43bo59bo2bo83bobo19bo$
55b3o65b3o13b3o47bobo6b2o27bo2bo262b2o161b2o13b4o49bobo46bo42bobo59b2o
26bo10b2o4b2o4bo35bo20bo6bo$54b2o68bobo59bo3b2o5bo2bo20b2o5b2o149bo46b
2o122bo105b2o42b2o22bo2bo88b2o80b2o5bobo9b2o4b2o3bobo62bo$41b3o10b2o
129bob5o6bobo19b3o155bobo17b2o21b2o3b2o43b2o5b2o28b2o39bobo45b2o101bob
o22b2o170bo2bo5b2o20bobo40bo21bo$62b2o25b3o92b2obobo8bo2b2o15b2ob3o2b
2o25b2o123b2o18b2o21b2o48b2o5b2o28b2o26bo13b2o45b2o71b2o29bo55bo139bo
2bo28bo21b2o17bobo$56bo5b2o121bob2obo7bo3bo14b2o34b2o179b2o68bo31bo
130bobo2bo84bo140b2o51b2o17b2o11b2o$56bo2bo2b3o22bo76bo21bobo9bob2o21b
o2b2o4b3o74bo92b3o20b2o6bo2bo66bobo30bo131bo49b2o37bo225b2o32b3o$55bob
o6bo22bo75bo3bo19bo9bo2b2o20b2o8bo2bo73bo47b2o65bo2bo6b2o68b2o34bo27b
2o85b2o11bo43b2o4b2o256b2o33bo$54b2o5bo2bo22bo76bo2bo28b2o2b3o19bo13bo
72bo3b3o20b2o19b2o13bo27bo24b2o16b2o94bobo26b2o53bo19b3o9b3o4bo8bo10b
2o28b2o39b3o3b3o150b2o62b2o32bobo$14b3o36b2o3b2obobo48bo51bo3b2o27b3ob
o20b2o8bo2bo5b2o93b2o33bobo26bo42b2o93bo2bo50b3o3b3o21bobo29b2o4b4o5b
2o10bo2bo227b2o6b2o60b2o26bobo$25b2o26bobo6bo5b2o41bobo2b2o42bo2bob2ob
ob2o2b2o22b3o31b3o6b2o62b2o6b3o55bobo26bo138b2o82b2o29b2o3bo3bo18b2o
43bo29bo40b2o31b5o48b2o34b2o14b3o43b2o27bo$25b2o25b2o13b2obo40b2o3b2o
47b2o2b2o28bo24bobobo51b2o22bo2bo15bo48bo223bo61bo3bo64bo29bo40b2o5bo
25b2ob2o47bobo$53bo12bobo28b2o61bo4bo2bob2o53b3o51bo2bo20bo5b3o10bobo
271bo39bo4bo15b2o2b5o61bo29bo47bo27b2o2bo7b2o35bobo29bo$68bo28b2o62bo
2bo4b3o48bobo2b3o51bobo21bo6b2o9bo3bo270bo38bobo3bo17b3o3bo41b2o96bo
31b3o5b2o36bo30bo$62b4o96b2o5bo50bobo57bo22bo4b2ob2o9bobo309bo2bo3bo
15bob4o3bo35b2o3b2o2b2o10b3o3b3o99bo5b3o74bo87bo$28bo33bobo2b3o2b2o84b
2o13b2o34bo94bo4bo2b3o8bo299b2o10b2o19b2o2bo3bo16b2o10b2o7b2o7b2o118bo
161b2o6bobo$27bobo31b3o4b2o2bo24bo3bo56b2ob2o11bo34bo8b3o85bo2bobo27b
2o122b2o158bobo30b2obob5o15b2o10b2o32bo91b2o9bob2o67b2o90b2o5bo2bo$8b
2o17bo2bo30b2o7bo25bobobobo55b3o7b3o2bo35bo104bobo19b4o41b2o18bo61b2o
52b2o105bo26b3o5bobo3b2o60bo91b2o35b2o43b2o98b2o$2b2o4b2o18b2o31bo2bo
4b2o3bo21bobobobo56b2obo151bo3bo17b3o42b2o18bo115b2o132b2o3bo2b2o3b3o
60bo103bo2bo21b2o126b2o$bobo58b3o5bo4bo21bo3bo57b4o5bo2b2o12bo64b2o12b
o45bobo3bo2bo8bo7bobo62bo216b2o31b5obo6b2o122b2o42b2o3bobo104b2o38b2o$
2bo68b2o3bo34b2o47bo7b4o12bobo62bo2bo11bo46bo6b2o7b3o97b3o53b2o117b2o
14b2o33bo6bo127b2o50bo103b2o$76b2o10b2o20bo2bo17bo43b3o5bo3bo57b2o3bob
o11bo61b2ob2o66bo50b2o33b2o117b2o51bo5bo174bo$74b3o10bo2bo20b2o17bobo
33b3o15bobo58b2o4bo63b2o9bobobo65bobo49b2o3b3o49bo5b2o23b2o113bo5b2obo
87bo50b2o35bo178b3o$75bo12b2o40bobo52bo30b2o97b2o9bo3bo65bo2bo21bo82bo
bo3bo2bo21bo2bo78b2o31bo7bo12b2o75bo50b2o27b3o6b2o84b3o$b3o127bo84b2o
109bobo67b2o22bo29bo52bobo4b2o23bobo77bobo32b2o18b2o6bo68bo111bo158bo$
328bo86b2o4bo22bo6bo53bo31bo8b2o16b2o56b2o22bo32bo179bob2o156bo$108b3o
15b2o7b2o141bo136b2o26bobo5bo93bo2bo15b2o49bo5bo2bo2bo18bo32bo179bobob
o4b3o117bo30bo$61bo63bo2bo5bo2bo139bo23b2o20b3o58b2o58bo100bo2bo20b2o
9b3o33bobo3b3ob3o17bo51b2o41b2o53b2o62b4o3b4o11bo47b2o55bobo$60bo26bo
38b2o7b2o119bo20b3o24bo18bo2bo56bo2bo117b2o11b2o13b2o12b2o21b2o47bo5b
2o2bo46b3o3b3o14b2o36b2o3b2o53b2o69bo3bo10b3o36b2o7b2o56b2o$60b3o23bob
o167bo32bo9bob2obo2bo15bo2bo57b2o61b2o55bobo10b2o12bo2bo26bo16bo5bo39b
3o109b2o133b2o6b2obo12b3o23b2o77bo$87bo43bo124bo32bo8b2o2bo3b2o131b2o
6b2o56b2o24bo2bo25bobo15bo5bo11bo82bo70b2o119bo7b2o30bo87bobo$32b3o48b
2o45bobo156bo7bob2o6bo7bo10b2o101b2o8b2o15b2o16b2o56b2o26bobo15bo5bo
10bobo81bo69bo2bo112b2o3b3o7bo30bo87bobo$83b2o32b2o11bobo27b3o3b3o128b
ob2o13bo12bo100bo2bo23bo2bo15b2o40b2o43bo33bobo22bo14bo43bo33bo35bo2bo
112b2o3b3o38bo88bo16b2o$30bo5bo20b2o58b2o12bo22bo143b4o12b3o112b2o25b
2o29bo28b2o62b3o13bo22bobo12bobo37b2o38bo35b2o10b2o106b2o101b3o40bo2bo
$30bo5bo19bo2bo38b3o52bobo75b3o44b2o6b3o9b3obo183bobo67b2o7b2o54bo13bo
37bo2bo5b3o27b3o46bo2bo86b2o16bo2bo143bo2bo$30bo5bo20b2o95b2o61b2o59b
2o5bo2b2o9bo4bo180bo2bo66bo2bo5bo2bo49b2o3bobo49b2o86b2o87b2o2b2o9bob
3obo98bo45b2o$208bo8b2o67bo3bo4b4ob3o2bo91bo88b2o68b2o7b2o49bo3bo2bob
2o154b2o72b2o9bob3obo45b3o50bo$32b3o127b3o42bobo77b4o4b2ob2o4b2o90bobo
217b4ob3obo117b3o35b2o6b2o76bo83b3o17bo42bo5bo$61b3o101bo41bobo78b4o4b
o62b2o36b2o118bo43bo53bo2bobo3bo147b2o15b2o223bo5bo$161b2o3bo21bo19bo
82b4o6bo57b2o156bo42bobo10b2o12bo4b2o21bob2o29bo123b2o10b2o228bo5bo$
139b3o20b3obo12bo7b3o103bo7bo9bo205bo42bobo10b2o11bobo5bo20bobo29bobo
5b2o127b2o218b3o$57b2o106bo12bobo4bo3bo101bo18bobo100b2o146bo24bobo3b
3o21bo30bobo4bo2bo82bo141b3o131b3o$6b2o39b2o7bobo128bo73bo29b4o2bo4bo
7bobo79bo20b2o171bo4bob2o42bo10bo5bobo82bobo72b2o116bo28b3o18b2o$b3o2b
2o38bo2bo7bo126b2o74bobo29bo18bo67b2o10bobo159bo32b2obobobo42bobo16bo
84bo20b2o50bo2bo114bobo48b2o$38b2o6bobo211bobo35bo4b2o11b2o15bo44bo2bo
9bobo158bobo31b2obo3bo42bo2bo121b2o19b2o29bo2bo16b3o87bo7bo2bo24bo5bo
49bo$38b2o7bo178bo34bo41bo2bo9b2o14bobo44bobo10bo86b3o45b2o24bobo29bo
4b2o45b2o105bo37b2o30b2o30b2o35bo39bo8b2o8bo16bo5bo48bobo3bo$21b3o77b
2o33bo90bo71bobo4bo21b2o2bobo45bo69b2o52b2o21b2o25b2o30bo2b2o78b2o40b
3o29bobo54b2o29bo5bo8b2o34bobo38bo17bobo15bo5bo48bobo2bobo$100bo2bo26b
o4bobo86bo2b2o8b2o17b2o42b2obo2bo21b2o3bo115bo2bo24bo26b2o80bo2bo78bo
2bo46bo23bo2bo54b2o29bo5bo44bobo20bo20b2o13bobo71bo3bobo$19bo5bo3bo71b
obo26bo4bobo16b2o11b2o14b2o34b3obobob3o7b2o16bo2bo4b2o37b3o38bo106b2o
25bo110bo48bo30bo2bo33b2o10bobo23b2o16b3o67bo5bo45bo20bobo12b3o4b2o14b
o18b3o56bo$19bo5bo3bo32b2o38bo27bo5bo16bo2bo10b2o14b2o12b2o21b2o2bo2b
2o27b2o5b2o38b2o37bobo132bo158bobo23b2o5b2o34b2o10b2o130b2o53bobo80b2o
$19bo5bo3bo32b2o90b2o16b2o3b2o17bobo22bo5bo15bo68b2o28bobo116b2o172bo
26b2o22bo92b2o67bo2bo53bo17bo63bobo$171bobo2bobo18bo24b5o16bo55bobo10b
2o29bo96bo20b2o16b3o33b2o58b2o58bo4bo45bo92b2o68bobo7bo6b3o54bo4bo59bo
$21b3o140bo5b2ob2o48b3o17bo55bo99b2o38bobo72bo2bo56bo2bo108bo65b3o21bo
22b2o49bo8bo63bo3bobo$86bo76bobo5bobo3bo46bo76b2o59b2o34bo2bo37bobo72b
o2bo4b2o50bobo59b2obo136bo21bo2bo57bo4bo5bo35b3o18bobo$39b3o44bo63b2o
11bobo5bo84b2o7b2o35bo34b2o22bo2bo25b2o7b2o39bo74b2o5b2o51bo61bobo110b
o5bo19bo11bo10b2o63bo5bo57bo32b2o$2o84bo63b2o7bo4bo7bo22b2o21bo36bo2bo
6b2o27bo3b2o31b2o3bobo22bo2bo25b2o245b2o65bo13bo31bo5bo30bobo65b3o6bo
5bo89bo2bo$obo154bobo13bo2bo18b2o21bo37bobo35bo3b2o31b2o4bo24b2o53b2o
16b2o7b2o212b2o43bobo11bobo30bo5bo9b2o4b3o3b3o7bo63bo108b2o$bo116b2o
24b3o12bo13bo3bo4bo35bo7bo30bo158bo2bo14bo2bo5bo2bo181bo3bo25b2o43bo2b
o11bo46bobo15b2o66bobo5bo6b3o61b2o52bo$48bo41bo27b2o59bob2o42bobo63b2o
bo52bo68bobo16b2o7b2o93b2o87b2obobo70b2o59b2o9bo5bo2bo26b2o37bobo5bo
17b2o51b2o4b2o45bobo$48bo40bobo57b2ob2o6bo13bobo2bobo32b3o3b3o3bo67b2o
50bobo42b2o21b2obo3bo116bo2bo87b2obobo58b2o39b2o18bo21bo6b2o13bo13b2o
30bo7bo6bo17bobo10b2o44b2o45bobo$48bo40bobo57b4o6bobo126b2o4b2o50bobo
42b2o14b2o4bo2bo3bobo17bo33bo16bo37bo9b2o141b2o8bo2bo37bo2bo17bo21bo
20bobo43bobo32bo11b2o92bo29b2o$bo88bo59b3o6bo2bo55bo17bo41b2o8bo3bob2o
51bo37b2o19bo2bo3bobo3bo2bo16bobo31bobo15bo3bo32bobo99b2obob2o33b2o9bo
2bo8b2o39bobo17bo42bobo43b2o55b3o63bo47bobo$bo75bo82b2o56bo16bobo39bo
2bo7bo4b3o8b3o78b2o19bo2bo4bo3bob2o17bobo18b2o11bobo15b6o31bobo83bo15b
o5bo33b2o10b2o51bo62bo65b2o84b2o13bobo47bo$bo75bo11bo128bo16bobo40b2o
9bo3b2o7b2o15b2o86b2o8bobo20bo19b2o12bo18b5o31bo75b2o6bobo16b4o114b3o
110bo2bo19b3o60bo2bo12b2o$55bo21bo3b3o4bobo34b2o109bo53bo2bo7bo5bo11b
2o95bo2bo72bo5bo101b2o3b2o6bobo16b2o87b2o117bo12b2o9b2o44b3o37b2o42b3o
$40b2o12bobo31bobo33bo2bo163b3o7bo5bo109b2o76bo2b2o100b2o12bo106b2o5b
2o24bo46bo37bobo3bo7b2o$26b2o11bo2bo2b2o7bobo32bo35bobo179bo88b2o11b2o
83bobob3o227b2o24bo46bo37bobo2bobo145bo$26b2o12b2o3b2o8bo70bo72b2o94b
2o3bo5b2o40b3o44bo2bo10b2o45b3o36bo2b2o20bo70b2o161bo46bo38bo3bobo39bo
93b2o2b3o5bo$98b2o35b2o61bo2bo27b2o63bo2b2o5bob2o68b2o18b2o59b3o12b2o
24bo20b2o69bobo252bo39bobo92b2o10bo$98b2o35b2o62b2o28b2o53b2o9bob3o2b
5o69b2o22b2o12b3o55b2o21b3o21b2o70bo240b3o49bo2bo66bo$190b3o90bo2bo9bo
2b3o98b2o87b2ob2ob2o22bo56b2o307b2o67bo10b2o36b3o$188b2o2bo91b2o27bo
14b2o57bo101bo5bo8bo6bo63bobo71b2o280b2o21bo10b2o29bo25bo$97b2o6b2o15b
3o9b2o51bo4bo120b3o12b2o56bobo114b3o4bobo63bo20b3o49b2o8bo107b3o160bo
2bo62bo4bo5bo13bobo$58b2o37b2o5bo2bo26b2o50bo3bo44b2o77bob2o50bo17b2o
5b2o95b2o9bobo2bo3bobo145bobo117b2o83b3o65bobo16b3o43bo4bo5bo14b2o$58b
2o44bo2bo18bo59bo48b2o76b2ob2o29b2o19bo9b2o13b2o95bobo7b3o8bo141bo4bob
o116bo2bo151bo68bo5bo$40bo64b2o19bo60b3o112bo10b2obo3b3o23bo2bo18bo9b
2o32b3o75bob2o97b2o41b2o16bobo4bo118bobo86bo29b2o78b2o$40bo9b2o74bo
174bobo2b2o5bo2bo30b2o80b2o56bo4bo97bo2bo40b2o16bo2bo123bo87bo28bo2bo
39b3o35b2o24b3o$40bo9b2o114bo41b2o9b2o81bo3b2o6b5o5bo30b2o72b2o56b5o
63bo35b2o60b2o19b2o191bo28bo2bo$83bo38b3o3b3o13b2o12b3o5bo24bo16b2o9b
2o8b3o6b3o2bo74bo5bo18bo11b2o131bo21bob2obo38bobo86b2o28bo2bo129bo90b
2o3b2o$78bo4bo59bo2bo19bo14b2o8bo51bo9bo29b2o33bo5bo17bobo25b2o93b2o
42bo3b3o38bo2bo84bobo12b2o15b2o129bobo70b2o7b2o12bo2bo69b2o$2b2o73bobo
3bo42bo17b2o27b2o6b2o8bo34b2o15bo9b2o28b2o57bobo13b3o9b2o24b2o8b2o57b
2o3b2o40b2o41b3o85bo13b2o119b3o4bo19bobo70b2o7b2o13b2o39bo29bo2bo17b2o
20b2o$bo2bo14b2o44bo12bo47bo45bo2bo49bo2bo11b2o4bo11b3o59b3o20bo52b2o
8b2o62b2o39b2o43bo108b2o20b2o34b2o60bo20bo130bo4bobo28bobo18b2o19bo2bo
$bobo15b2o44bo60bo46b2o48b2o15b2o4bo7b2o5b2o99bo111b2o33bo4bo150b2o20b
2o34b2o14b2o44bo146b2o3bo4bo2bo6b2o20bo41b2o$2bo62bo124bo9b3o20b2obobo
11b3o11bo2bobob2o99bo111b2o33bo44bo184b2o11b2o178b2o3bo5b2o7b2o$189bob
o10bo19b2ob3o28bo4b2o49bo49bo42b2o107bo38b3o8bo186bo2bo257bo$14b3o171b
2ob2o6bob2o20b4obo23b2o2bo3bo51b3o36b2o52b2o145bo5b2obob3o136b3o47bobo
256bobo$190b3o6b2o22b2ob4o16b2o4bob4ob2o46bo42bobo5b3o140b2o2b2o3bo42b
2o2b3ob2o82b3o51bo53bo257bobo$73bo17bo99b3o20bo11bo2bo11bobo2b2o5b2o
51b3obo4bo35bo99bo47bo11bo41bo4b2o2bo2b2o77bo3bo50bo6bo305bo$24b2o47bo
17bo66b3o13b2o15b2o20bobo3b2obob2ob2o13bo3b2o57bo3bo4bo135bobo46b2o4bo
47bo11b3o2b2o64b3o54b2o4b2o5bo40bobo83b2o3bo92b2o$23bo2bo46bo17bo98b2o
21bobo2bo6bob2o12b2ob2o46bo13b2o3b3o137b2o46b2ob3o48b2o8bo6bo78bo14bo
27b3o3b2o6bo39bo2bo2bobo78b2o3bo29b3o60b2o$24b2o39bo3bo105bo14bo23bo2b
o3bo3b2obo12bo3bo45bobo13b3obo151bo93b3o4bob5o73b5o13b2o28b2obob3o26b
2o18bo2bo88bo168b2o$59b2o3bob2obo9b2o6b3o3b3o76bo16bo26bo8b4o13bobo46b
obo14bo10bo21b2o41b2o76bobo48b2o41bo3bo4bo79bo16b3o28bo3bo4b3o21b2o21b
obo255b2o$9bo54bob2o11b2o95b2o11bo2bo23bo2bo8b2o11b2ob2o9bobo34bo25bob
o20b2o41b2o36b3o37bobo47bo2bo39bo5bo4bo3bo118b2o6bo49bo2bo120bo27b2o
17b2o25bo51bo$8bobo47bo6b2o24bo26bo54b2o3bo9bo4bo22bo25bobo9b2o2bo60b
2o142bo49b2o40bo4bo5bo4bo42b2o44bo3b2o22bo4bo3b2o48b2o3b2o52bo63bobo
25bo2bo16b2o24bobo50bo$8bobo47bo2bo3bo25bo25bobo55b4obo7bob4o23bo3b2o
20bo11bo3bo160bo5bo71bo56bo3bo7bo2b3o40bo2bo42bo28b3o3b4o107bobo36b2o
24bo2bo25b2o43bo2bo49bo$9bo48b3ob2o2bo2b2o20bo25bo2bo61bo4b2o29bo3bo
88bo108bo5bo70bobo55bo7b2o3bo2b2o41b2o38bo4bo5b2o21bo116bo2bo35b2o25b
2o17b2o53b2o$17bo13bo25bo5bobo2bo8b2o39b2o58bo4bo4bo30b3o34b3o49bob3o
107bo5bo10bo59bobo22bo7bo24bo2bo3bobo6b2o81bo5bo4bobo20b2o11b2o25bo18b
3o56b2o46bo35b2o101b3o3b3o$16bobo10bo3bo22b3o5bo6bob6o58b2o33b2o7b2o
123b3o3b2o123bo60bo22bobo5bobo24b2o4bo2b3o3b2o72b2o13bo2bobob2o26b3o3b
2o25b2o17bobo104bo$15bo2bo9bo26bo4b2o7b2o3b2o60bo2bo32bobo16bobo26b2o
83bo4bo3bo7b2o60bo20bo16b3o12bo46b3o34b2o6bobo30b2ob5obo22b2o49b2o6bob
2o4b5o2bo24b2o2bo29bob2o17b2o104bo142bo$7b2o7b2o11bo2bo2bo18bo3bobo76b
2o24bo9bo18bo26b3o29b3o43bo6bo4bob3o7bo2bo59bo19bobo123bo32bo4b3o22bob
o37bo18b3o2bo8b2o25bo2bo32b2o31b2o119b2o2b3o107bo$7b2o27bo17bo3b2o52b
2o48bobo53b4o14b2o7b2o4b3o3bo38b3o13bo9bobo5b3o51bo19bobo160bo25b2o10b
o17bo8bobo18b2o3bo12b2o21b2o65bobo119b2o112bo$34b2o19bo3b2o10bo40b2o
18b2o28b2o53b2o13bo3b2o8bo6b3o2bo36b2obo6b3o15bo81bo137bo23bo23b2o11bo
bo15bobo7bobo22bo13b2o28b2o38b2o19bo190b3o19bo$60b2o9bo14b2o44b2o84b4o
b2o6bobo9bo2bo9bo3bo29bo4b2obo8bo11b2o13bo97bo109bobo19bo25bobo11bobo
14bo2bo8bo67b2o8b2o16b2o10bobo72b3o155bobo$4b2o40b3o10bo2b2o21bo2bo
130b4o2bo5bo2bo7bo2bo10b2o2bo28bob2o3b2o21b2o7bo4bobo96bo110bo20b3o4b
2o17b2o13bo16b2o86bo2bo27bob2o128b2o76bo5bo16b2o$4b2o52bo3b2o11b3o8b2o
50b2o79bo12b2o7b3o16bo28bo3bo3bo29bobo3bobo79bo16bo56b2o79bo2bo42bo94b
2o28bobo34bo94b2o76bo5bo$50bo8bo2b2o4bo7b2o59bo2bo79b3o3bo14bo2bo8b3o
27b2o6b2o34bo2bo3bo79bobo27bo44b2o80bobo35b2o4bobo119b2ob2obo8b2o24bo
15b2o32bo122bo5bo3bo$44bo5bo9b2o5bobo6b2o59bobo80bo3b2o15bo2bo7bo29bo
2bo3b2obo2bo7bo7b2o15b2o83bo2bo11b3o3b3o7bo127bo35bo2bo4bo9b2o29b2o30b
2o10b3o3b3o26b2o3b2o9b2o24bo14bo2bo31bo132bo40b2o$43b3o4bo15bo2bo68bo
18b2o29b2o30b2o3bo16bobo6bo3bo2b2o5b2o16b2o4b4o10bo6bo2bo2b2o96b2o28bo
72b2o56bo33bobo14b2o29b2o30b2o19b2o25b2o54bobo32bo124b3o5bo39bo2bo$43b
3o7b2o12b2o87bo2bo28b2o2b2o30b3o16bo8bo2bo2b2o4bo2bo25b3o15b2o3b2o167b
2o30b2o55bobo33bo94bo4b2o12b2ob2o6b2o2bo2b2o18bo31bo207b2o$40bo12b2o
79b2o21b2o22b3o8b2o30b3o38b2o58bo159bobo86bobo127b3o3b2o12bo3bo7bo2bob
ob2o17bo19b2o238b2o$39b2o19bo72bo2bo3b3o37bo3bo89bo49bobo28b2o129bo68b
2o18bo19b2o98bo8bo4bo14bob2o9bo3bobo18bo18bo2bo237b2o$21b2o15bob4o15bo
bo71bobo26bo17b2ob2o4bo20b2o37b2o22b3o49b2o28b2o167b2o16bo12b2o38bobo
96bobo8b4o33b2o21b2o15b2o$21b2o14b3o2bob3o12bobo72bo26bobo17bo2bo4bo
20b2o37b2o4b2o15bobobo194b2o9bo41b2o15bobo52b2o96bobo10b2o29b3o2bo21b
2o11b2o84b2o$38bo4b3obo12bo90b2o8bobo13bo4b2o5bo26b2o36bo2bo14bobobo
193bo2bo7bobo21b3o33bobo4b2o80bo7b2o55bo42b2o3bo34b2o30bo52bo2bo$33b2o
4b2o3bo2bo68b2o33b2o3bo5bo13b2o2bo35b2o37b2o13b2ob3ob2o40bo65bo44bo40b
2o8bobo4bo53bo4bo2bo78bobo6b2o5b2o6b2o19b2o66bo28b2o36bobo51bobo$33bob
o5bo3bo69bo2bo37bo18bo2b3o88bob2obob2obo5b2o31bobo64bo37b2o4bobo50bo4b
obo57bo2bo78bobo12bo2bo5b2o19bobo49b3o42b2o36bo2bo36bo4b2o8bo$21b2o11b
o6bobobo70b2o38bo13b2o4b5o3bo83b2obo5bobob2o2bobob2o27bobo64bo37b2o3bo
2bo55bo2bo42bo14b2o80bo14b2o28bo114b2o18b2o36bobo3b2o126bo6bo$21b2o19b
3o125b2o13bo83b2obo3bob5o2bobo31bo70b5o4b2o28b2o32b2o23b2o43bo187bo67b
o2bo55bobo27b3o101bo6bo$43bo63b2o72bo3bo84b3o3b3o3b5o37b2o67bobo66bobo
68bo147bo39bo47bo20b2o44b3o10bo132bo6bo$107b2o72bo3bo97b3o37bo2bo34b3o
26bob2obo2bob2o61bo134bo11b2o54b2o12bobo38bo47bo74b3o126bo$64b2o116b3o
139b2o65bobo3bo4bo24b2o168bobo10b2o54b2o11bo2bo27b2o57bo148b2o52bobo3b
3o3b3o$64b4o19b3o229bo68b2o7bo3b2o3bo19bo2bo167bobo18b2ob2o57b2o27bo2b
o19b2o28bo155b2o52bobo23bo$24bo38bo9b2o12b2ob2o209b2o16bo67bobo3bob2ob
o2bo2b2obo18bo2bo168bo19b2ob2o87b2o20b2o9b2o6b3o2bob4obo12bo161bo34bo
23bobo$24bo10b2o27bo2bo5b2o13bo2bo98b3o108b2o16bo67bo6bobo2bo3b2o2bo
19b2o129b2o183b2o4b2o4bo19bobo160bo43b2o5b2o7b2o$24bo10b2o27b3o22b3o
161b2o133bo5b3o6bo2bo4bo146bobo82b2o38bo36bo8b2o17b3obo3bo5bo12b2o20b
2o10b3o70b2o29b2o23bo12b2o15b2o7b2o3b2o4bo2bo22bo$70bo24bobob2o87bo5bo
58b2o12bo47b3o3b3o3bo68b2o7bo4b3o90b2o54bo32b2o49b2o38bo36bo8b2o6b2o8b
o2bo5bo2b2o36b2o35b2o46bobo27bobo36b2o14bo2bo5bo2bo8bobo12b2o4b2o2bobo
$69bobo3bo3bo2bo16b3ob2o83bo5bo71bobo58bo70b2o3b3o3b2ob2o88bobo3b3o80b
o2bo20b2o66bo36bo16b2o7b3o2bo5bo2bob2o70b2o47bo29bo20b3o3b3o25b2o7b2o
10bo13b2o4b2o2b2o$13bo55bobo3bobo4bo12bo4b6o82bo5bo71b2o51bo7bo71bo8b
3o2b2o88bo88b2o21b2o130bobob3o9bo$13bo56bo6bobo2bo16b2o5bo148b2o62bo
83bobo7b2o64b2o266b2o2b2o8b3o6bo167bo34bo$13bo62b3obo15bo2b2o24bo42bo
21b3o62b2o28b3o31bo16b2o68bo7bo2bo61b2o266bobob3o15bobo166bo33bobo44b
2o$72b3o23b2o6bo17bobo40bobo25b2o87bo3bo5bobo38bo2bo51bo12b2obo116b3o
52bo167b2obo2bo15bo2bo166bo6b2o25bobo43bo2bo$15b3o89bo16bo2bo40b2o25b
2o19b2o65bo3b2o3bo4bo38b2o51bobo13bo8bo3bo56b2o52bo47bo2bo168bo2bo16b
2o135b3o35bobo18bo7bo45b2o$49b2o30b3o3bo16b3o18b2o89b2o65bobo4bo5bo93b
obo9b3ob2o5b2obob2o54bo2bo51bo47bo2bo15b2o37b2o82b2o28bobo193bo18bobo
35b2o$bo47bobo31b2obobo16b2o50b2o78bo13b2o29b2o6bo53b2o45bo10b2o8bob4o
b2o33b2o19b2o52bo28b3o18bo16b2o36bo2bo47b2o17b2o13b2o3bo12b2o225b2o36b
2o$obo47b2o32bo3bo68b2o78bo12bo2bo30bo4bo8bo6bobo36b2o24bo6bo25bo9b9o
32b2o179b2o48b2o17bobo17bo12b2o150b2o$obo53b2o26b6o83b2o29b2o14b2o15bo
13b2o32b2o2b2o7bo5bo2bo62bo5bobo5bo19bo8bo2bob4o58bo147b2o22bo52bobo
16bo8b2o30bo55bo67b2o28b3o$bo54b2o20b2o9b2o81bobo29b2o14b2o63bobobo5b
3o6bob2o62bo5bobo4bobo19bo2bo8b2ob2o57bobo146b2o22bo53bo13b2o10bobo30b
o54bobo$76b2o2bo8b2o37b2o43bo111b3obo2bo84bo5bobo19b2obo8b2o60bobo129b
3o38bo67b2o11bo31bo54bobo94bo5bo53b2o$41bo33bo5bo46b2o160bobo11b2obo
76bo17bo4bo46b2o24bo268b2o70bo95bo5bo53b2o$40bobo32bo2b2o2bo219b4o95bo
15bo6b2o27bo2bo16b2o41b2o91bo5bo29b3o101b2o10b3o3b3o20b2o25b2o98bo5bo$
39bo2bo4b2o10bo15b3ob2ob2o217bo2bo65b2o30bob2o9b2obo4bo2bo27b2o17b2o
13b3o24bo2bo90bo5bo7b2o165b2o25b2o55bo$40b2o4bo2bo8bobo19bo2bo217bo2b
2o64b2o2b3o25bob5o5b2o2bo5b2o90b2o91bo5bo6bo2bo17bo229bobo43b3o$46bobo
10bo20b2obo22b2o183bo8b2ob2o81bo16bo3b3ob2o2bo175b3o28bobo18bo229b2o
104b2o$11b3o33bo33b2o23b2o38b2o136b2o4bobo7b2ob2o80bobo16b2o4bo131b3o
66b3o9bo19bo184b2o149b2o$145bo2bo63b2o70b2o4bobo9bo58bo22bo4b2o9bo4b3o
2b4o79bo334b2o54b2o$57b2o25b2o60b2o3b3o58b2o77bo68bobo22bo4bo8bo2bo4b
3o55b2o25bobo389b2o$23bo32bo2bo5b2o15bo2bo97bo104bo71b2o28bo7bo2bobo
61b2o24bo2bo347bo13b2o5b2o97b3o$23bo32bobo6b2o15bo2bo15b3o79bo104bo27b
o8bo54bobo4b3o14bo47b2o38b2o45b3o175bo23b2o98bobo11bo2bo4b2o41b3o70b2o
$16bo6bo33bo23bo2bo19bo78bo104bo26bobo7bo54bobo16b2obobob3o42bobo73bo
169bo19bo22bo2bo97b2o13b2o120bo2bo$16bo52b3o8b2ob2o7bo7bo2b2o210bobo7b
o54bobo18b2ob3obo43bo74bo61b2o105bobo18bo23b2o3b2o17b2o41b2o169b2o$16b
o63bo4bo5b3o5b3o3bo12b2o26b2o31b3o3b3o19b2o44b2o61bo59bo4bo24b3o28b2o
88bo60bo2bo90b2o12bobo47b2o12b2o2bo2bo39bo2bo137b3o$81bo3b2o3b2o2bo4bo
2bob2o11bo2bo24bo2bo57bo2bo42bo2bo65b3o3b3o35b3o7bob3o2bo31b2o21bobo
149b2o33b2o56b2o13bo62b2o3b2o33b2o5bobo108b2o17b2o17b2o$2o10b3o3b3o61b
2obo5bobo5b6o13b2o25bo2bo34bo23b2o26b2o16b2o49b3o27b2o39bo3bo34b2o22bo
bo54b2o76b2o49b2o173bo2bo5bo108bo2bo16b2o16bo2bo$2o70b2o17b2o7b4o42b2o
35bo36bo13bo2bo27b2o58bo7bobo41bo49b2o10bo55b2o76bobo110b2o112b2o115bo
2bo35bobo$16bo55b2o15bob4o47bo25bo14bo36bo14b2o28b2o58bo8bo42bo3bo45b
2o33b2o110bo111b2o230b2o37bo$16bo71b2o3bob2o36bo8bo25bo9bo41bo104bo52b
o3bo79b2o134bo147b2o43b2o41bo$16bo29b2o30bo8bobo3bob2o36bo8bo16b2o7bo
9bo61b2o141bo30bo92b2o80b2o6bobo122b2o22b2o3bo38bo2bo40bo69b2o36b2o$
46b2o31bo31b2o20bo24bobo17bo61b2o44b2o92bobo30bobo11b2o29b3o46b2o79bo
2bo5bobo109b2o10bo2bo25bobo37bo2bo40bo19b3o28bo18b2o35bo2bo61bo7bo$3b
2o72bobo11bo3bo15b2o46bo108b2o15bo2bo7bo5bo32b2o44bo31bo2bo10b2o70b2o
87bo2bo6bo19b2o37bo51b2o11bobo16b2o8bo39b2o91bobo55b2o49b2o10bobo5bobo
$3b2o73bo189b2o16b2o8bo5bo32b2o77b3o7bo74b2o21b3o64b2o27b2o37bo65bo16b
o2bo108bo5bo24bo2bo105bo2bo9bobo5bobo$91b3o202bo5bo24b2o86bobo6bo20bo
127b2o82bo83bobo108bo5bo25b2o107bobo10bo7bo$327b2o49b2o44bo20bo74bo5bo
46b2o167bo109bo5bo135bo$80b4o214b3o76bo39bobo25bo74bo5bo51b3o381b2o$8b
2o70b2o36bo258bo54b2o42bo43bo5bo267b2o58b3o25bo73bo4bobo13b3o31b2o$8b
2o68bo6bo32bo23bo55b2o177bo39b2ob2o9bo2bo41bo30b2o67bo104b2o24bo86b2o
72b2o2b2o7bobo71bobo4bo48b2o9b2o$17b2o60b2obo4b2o29bo22bobo53bo2bo163b
2o11bo35b2o17b2o42bo8bo21b2o4b3o6b3o51bo104b2o23bobo113bo45b2o2b2o7bob
o71bobo64b2o$16bo2bo58bo4b3ob2o46b2o4bobo53bo2bo162bo2bo10b3o33b2o69bo
bo89bo130b2o112bobo58bo35b2o36bo42b3o6b2o$8bo8b2o48bo11b2o33b3o3b3o11b
o2bo4bo53bo3bo163b2o13bo22bo4bo6bo57b3o3b3o3bobo310bo22bo2bo54b2o37bob
o88b2o$7bobo56bobo66b2o59bo2bo177b2o23bo2b2ob2o24b2o49bo310bobo22b2o
35b2o11bo6b2o37b2o$7bo2bo54bo58b3o70b2o129bo58b2o16b2ob2o24b2o40bo319b
2o30b2o28b2o11bo87bo17bo$8b2o55b2o3bo130b2o34bo89bobo57b2o4bo5bo3b3o3b
o66bo12b2o147bo9b2o156bo21b2o41bo87bo16bobo27b2o$65b2o4bo56bo29b2o43bo
16bo15bobo88bobo62bobo3b2o3b2obob2o66bo11bo2bo145bobo6bo2bo155bobo25b
3o81bo3b2o11b2o23bo17b2o27b2o$68bo2bo56bo28bobo39b2obo16bobo14bobo89bo
39b3o21bobo2b2o5bobob2o10b3o66b2o32bo59b2o51b2o9b2o119b2o35bobo11bo96b
obo2b2o10bobo55bo$67bo5b2o6b3o39bo4bo29bo39bobo19bo16bo155bo4bob2o3bob
o2b3o2bo3bo2bo32b2o9bo40b2o13bobo6b3o3b3o43b2o50bo6bo125b2o36bo12bo11b
o5bo33b2o3b2o39b2o13bobo56bo$47bo20b3ob3o48bo74bo143b2o3b2o3b2o12bo32b
o2bo5b3o7bo2b2o32b2o9b2o26b2o11b2o13bobo110b2o82b2o98bo11bo5bo33b2o2bo
2bo54bo57bo$2bo44bo21b2o2b2o48bo75bo64b2o58b2o15bo3bobobo2b2o12bo36b2o
3bo2b2obo5bo45b2o26b2o27bo11bo50b2o5bo40b2o5bob2o73bo2bo54bo54bo5bo38b
2o39b2o$bobo8b2o33bo21b2o181b2o10b2o57bo2bo14b3obobo18bo34b3o7bo3bo3bo
47bo31b2o34bo49bo2bo4bo27b2o13b3o3bob2o10bo61bobo54bobo89bo34b2o13b2o
20bo$bo2bo7b2o40b2o13b2o180bo2bo69b2o7b2o9b2o49b2o9b2o2bo6b2o79bobo18b
2o6bo7bo50b2o5bo27b2o13b2o17bobo33b3o25bo54bo2bo55b3o31bo34b2o35bo$2b
2o39b3o3b3o2b2o14b2o75b2o102bo2bo6b2o69bo2bo9b2o21b3o24b2o9bob2o43bo
45bo18bo2bo5bo75b2o37bob2o9bobo117b2o75bo14bo71bo79b3o$71bo75b2o17bo
10b2o73b2o7b2o70bobo52bo17bo13b3o30bo15bo49b2o6bo34bo39bo2bo36b3o11bo
11b2o81bo68b2o30bo$47bo79b2o36bobo9b2o155bo53bo13b2ob2o46bo14bobo74bo
15bobo39bobo62b2o81bo67bo2bo29bo159bo$40bo6bo55b2o21bo2bo34bo2bo220bo
13b2ob2o52bo9bobo27b2o43bobo14bobo31b3o6bo146bo67bobo17b2o170bobo$39bo
bo5bo55b2o22bobo35b2o26b3o5b2o105b3o93bo53bobo9bo28b2o3b2o38bobo15bo
194b3o60bo17bo2bo169bo2bo$39bobo86bo64b3o5b2o13b3o174b2o3b2o58bo2bo42b
2o39bo104b2o155bo31b2o51b2o77bo40b2o$40bo153bo69b2o28b2o8bo76b3o9b2o2b
o2bo58b2o189b2o59bo11b2o30bo5bo45bo84b2o54b2o21bo$153bo40bo68bo2bo27b
2o7bobo92b2o40b2o69bo50b2o64b2ob2o77bobo3bo6b2o30bo5bo45bo108b2o29bo2b
o20bo$152bo41bo42bo26bobo36bo2b3o76bo54bobo67bobo36b2o9bo2bo24bo20bo
18b2ob2o62bo15bo3bobo37bo5bo35bo117bo2bo28bo2bo$152b3o38bobo40bobo26bo
38b2o5bo73bo55b2o67bobo35bo2bo8bo2bo23b3obo16bobo8b2o33b2o38bobo18bo2b
o77bobo117b2o30b2o17b3o3b3o$37bo191b3o3bobo67bo5bo73bo125bo29b2o6bobo
8bo2bo22b2obo18bobo7bo2bo32b2o39bo20b2o16b2o21b3o36bobo40bo160b2o$36bo
bo155b3o38b2o9bo55b2o2bo5b4o224bo2bo6bo12b2o20b4o6bo13bo9b2o49b2o62b2o
61bo41bo33bo5bo91bo28b2o11b2o$37b2o156bo50bo38b2o14bob2o5bobobobo224b
2o19b2o21b3ob2o5bo43b2o28bobo166bo33bo5bo91bo10b2o29b2o$8b2o101b2o24b
2o107bo37bo2bo6bo6bo8bob2o2bo268b2ob5o3bo7b2o7b2o25b2o3b2o24bo201bo5bo
19b2o70bo10b2o$8b2o40b3o12b2o44b2o23bo2bo18b2o27bo5b2o89bo2bo5bo2b3ob
2o9bo73b3o2b3o171b5o16b3o6b3o6bo2bo5bo2bo29bobo127b2o58b3o3b3o54bobo$
65bobo69b2o19b2o29bo2b2o91b2o6b2o2b6o86bo3bo124b2o38bo5b2o3bo16bob2o
14b2o7b2o31bo127bo2bo97b3o21bo13b2o14b2o$48bo5bo11bo119bo2bob4o2bo95b
2o4bo3bo29b2o58bo22b3o99b2o37b2o5b5o18bob4o182b2o62bo73b2o13bobo58bo5b
o$48bo5bo89b3o39bo2bo4bo6b3o76b2o11b2o3b4obo29b2o53bo3b3o98b3o60b2o29b
2obo8b2o8bo100bo45b3o55b2o23bo89bo59b2ob2obo$48bo5bo63b2o8bo58bobobo5b
o3bo2bo74bo2bo10b2o3bo89b2o4b2o24bo136b2o2b2o24b4o8b2o7bobo22b2o74bobo
102b2o23bo151b2o2b2o11bo$87b2o28bo2bo7bo70b2o3bo51b2o22b2o11bobo7bo60b
o29b2o24bo98b2o37b3obo25bo19bobo22b2o74bobo22bo18b3o108bo124b2obo14bob
o$50b3o34b2o28bobo8bo55bo8b3o3b2obo2b4o47b2o29b2o5b2ob2o3bo60bobo54bo
39bo58b2o38b3o26b3o18bo100bo23bo18b3o3b2o102bobo91b2o29b3o16bobo$101b
2o15bo65bo14b2o51b2o17b2o11b4obo5bo3b3o61bobo47b2o44bobo50b2o46bo28bo
2b2o5b2o87b2o44bo15bo2bo4bobo28b2o72bobo24bo30bo34bo2bo26b2ob2o17bo$
101b2o74bo23bo50b2o17b2o10b3o2b4o14bo57bo48b2o44bobo49bobo76b3o6b2o34b
2o51b2o15b2o7b2o33bobo2b2o3bo29b2o73bo12b2o10bobo28bobo34b2o29bo$138b
3o35bobo22bo4bob2o24b3o46bo2b2o2bo14bobo79b3o40b2o28bo51bo72b2o4bo32b
2o9b2o67bo2bo5bo2bo13b3o3b3o10bobo2b3o66b2o52b2o10bobo28bobo6b3o55bo2b
o5b2o$16b2o87b4o16bob2o47bobo3b2o107bo13bobo80b2o40b2o152bo2bo26bo9bob
o78b2o7b2o34bo72b2o34b2o29bo30bo65b2obo5b2o$15bo2bo52b2o33bobo15bo2bo
49bo4b2o19b2obo84b2o13bo15bo54b2o9b4o2bo82b2o106b2o26bobo9bo108bo123bo
2bo67bobo54bo22b2o$15bo2bo52b2o31bob2o2bo14bobo2bo53bo17bo119bo22bo31b
2o12bo2bo82bobo134b2o94bo23bo24bobo25b2o70b2o24b2o7b2o20b2o6b2o4bo29bo
26bo3bo17b2o$16b2o87bo21b2o40b2o11b2o14bo6bo23bo59b5o7b2o7b2o10bo22bo
45bo2bo25b2o56b2o118b2o109bobo22bo23b2ob2o23bo2bo17b2o75bo2bo5bo2bo18b
o2bo4bo2bo5b3o24bo2bo28bo$99b3o3bobo11b3o3bobo2bo38b2o11b2o8b2o3bob3o
3bo22bobo53bo4bo2bo3b2o2bo2bo5bo2bo4b3o25bo13bo59bobo52bo42bo79bo2bo
73b2o33bobo74bo2bo17b2ob2o52bo12b3o5b2o7b2o20b2o6b2o5b3obo20bo2bo28b3o
$106b2o10bo5bo2bo64b2o2bo3bo3bo23bobo53bo4bo8bo2b2o7b2o46bobo59bo18b2o
33bo41bobo78bobo35b2o36bobo34bo76b2o60bo13bobo43b2o19b2o3bo15b2ob2obo
20b3o$107bobo8b2obob3ob2o68bobo2b2o25bo54bo13bo42b3o3b3o8bobo77bo2bo
32bo41bobo79bo35bo2bo36bo48b3o81b2o2bo36bobo12bobo24bo18b2o10bo9b2ob2o
14bo2bo4bo3bo$108bo9bo5bo76b2o51b2o30bo3b2obo3bo8bo52bo79b2o14b3o59bo
116bobo95b2o30b2o30bo9bo2b5o34bobo13bo24bobo28bobo28bo3bo2bo2bo12bo42b
o$109b2o8b2ob2o77b2o51b2o30bo6b3o9bobo37bo130b3o29b2o125bo10b2o84b2o
29bo2bo16b2o10bobo9b2o3bobo34bo39bobo28bobo11b3o14bo5bo2bo12bobo41bo$
119bo3bo138bo21b2o2bo16bobo6bo13b2o15bo22b2o56b2o31bo48b2o130bo5b2o16b
o15b3o81b2o17b2o10bobo13bo2bo75bo30bo12b3o19b2obo13bobo41bo$68b2o50b3o
138bobo42bo6bobo11bo2bo14bo22b2o21b2o33b2o31bo96b2o82bo22bobo130bo15b
2o57b2o23b2o35b2ob2o14b2o20bo$5b2o51b3o7b2o12b2o26b2o24bo9bo114bobo19b
o11b2o15bo2bo12b2o60bo2bo65bo64bo27b2o2b2o82bo23bo141b2o63b2o23b2o37bo
17bo4b3o$5b2o75b2o25bob3o22bo9bo115bo20bo10bo2bo15b2o76b2o43b3o85bo27b
2o251b4o16b2o28b2o97bo4bobo29b2o$14bo94bo3b2o21bo9bo137bo9bo2bo150b3o
4b3o13bo52bo117b3o157b4o19b2o28b2o51b3o48bob2o28b2o$13bobo94b3obo77b3o
28b2o59bo2bo7b2o173bobo211bo117b2o156bob3o$12bo2bo18b3o73b3o110b2o245b
2o109b3o56bo29bo12bobo44b2o69b2o39b2o119b2o$13b2o120b2o172b2o98bo48b2o
180bo28bobo12b2o44b2o23b3o52b2o30b2o46bo50bo57b2o$81b2o51bo41b2o37bo
93b2o98bo48b2o180bo28bobo125b2o2bo3bo15bo7b2o31b2o26bo34b2o13b2o57b2o$
47b2o32b2o20b2o29bobo39b2o36bobo192bo143bo20b3o75bo17bo36bo89b2ob2o3bo
2b2o11bo7b2o31b2o26bo33bo2bo12bobo50b3o$47b2o5b2o46bo2bo28bo78bo2bo
336bo97bobo53bo88b2o11b2o10bo103bobo$54b2o47bobo27b3o78b2o189b3o3b3o
47b3o21b2o4b2o60bo97bobo53bo89bo2bo5bo2b2o26b3o46b3o3b3o31bo$104bo23bo
95b2o168b2o89b2o4b2o159bo29b2o39b2o73b3o5b2o4b2o37bo23b2o$72b2o24bo28b
obo29b3o62b2o168b2o13bo7b2o107b3o106b2o45b2o19b3o3b3o11b2o47bo40bo37bo
23b2o4bo8bo16b3o$71bob2o22bobo21bo4bo3bo104b2o11bo54b2o7b2o35b2o57bobo
6b2o180bo34bo2bo9bo105b2o16bobo38bo38bo16b2o11bo8bo36b2o$70b2o25bobo
20bobo4bobo33bo71b2o10bobo52bo2bo5bo2bo34b2o57bobo187bobo34bobo9bo9bo
49bo44bo2bo15bobo57b2o35b2o11bo8bo36b2o82b2o$48bo21b2obo24bo21bobo6bo
33bo64b2o17b2o25b2o8bo18b2o7b2o95bo27b2o6b2o18b2o131bobo35bo10bo9bo49b
o16b2o27b2o3bo13bo34b2o22b2o5bo171bo2bo$21bo25bobo21b2o48bo5b3o33bo63b
o2bo42bo2bo6bobo150bo2bo5b2o17bo2bo131bo57bo49bo16b2o8bo22bobo46bobo
29bo171bobo$21bo25bobo20bo2bo53bo26b2o72b2o20b2o22b2o8bo22b3o127b2o25b
obo95bo170bobo21bobo7b2o7b2o23bob5o30bo134b3o20b2o13bo10b2o$21bo8bo17b
o23bo27b3o25b2o10bo7bo4bo2bo92bo2bo25bo122b2o62bo95bobo169bobo22bo7bo
2bo5bo2bo23b3o191b2o24b2o$30bo37bo2bobo65bobo5bobo4b2o94b2o25bobo39b2o
80bobo157bobo108b2o48bo11bo13bo18b2o7b2o24b3o$30bo41b2o24bo5bo34bobo5b
obo127bobo39b2o81bo31bo29bo25b2o65bo4bo3bo104bobo22b2o23bobo24bo4b2o7b
2o87bo62bo99bo$98bo5bo35bo7bo129bo154bobo27bobo23bo2bo64bo7bobo77b2o
24b2o22bo2bo21bo2bo5b2o7b2o8bo3bo2bo5bo2bo56b3o26bobo7bo52bobo97bobo$
98bo5bo270bo4bo41bo10bobo27bo2bo23b2o27b2o36bo7bobo77b2o22b2o19b3o3b2o
23b2o5bo2bo5bo2bo12b2o7b2o86bobo7bo4b3o35bo9bobo97bobo$150bo161bo61bob
o3bo28b3o9bobo5b2o3bo29b2o53b2o32b2o11bo101bobo5b2o51b2o7b2o111bo8bo
42bo10bo48bo50bo$66b2o3b2o27b3o46bobo10b2o148bo61bobo3bo40bobo5b2o121b
obo113b2o5bobo80bo43b3o98bo58bobo$60b3o9bo2b2o9b2o62b2o10b2o118bo29bo
62bo46bo129bo122b2o32bo24bo22bobo29b2o36b2o132bo2bo$12b3o34b3o14bobo3b
o4bo7bo2bo38b2o152bobo187bo52bo26b2o86b2o32b2o34bo23bobo21bobo28bo2bo
35b2o133b2o$4b3o42bo15bo2b4o13bobo39b2o152bobo91bo41b2o7b2o43bo9b3o31b
o5b3ob2o24bo2bo28b2o18b2o34b2o31bobo8b2o24bo23bobo22bo30b2o25bo$50bo
13b3o2b3o14bo195bo79b2o10bobo39bo2bo5bo2bo6bo35bo18b2o22bo5b3ob3o3b2o
20b2o28bo2bo17b2o67b2o9b2o49bo80bobo194b2o$66bo295b2o11b2o40b2o7b2o6bo
bo37bo14bo2bo21bo4bo2bo2bo3bob2o50b2o209bo20bobo194b2o$66b2o2bo5b2o23b
2o65b2o75b2o103b2o82bobo30b3o3bobo14b2o23b3o3bo7bob2ob3o108b2o96bo49bo
bo20bo192bo$67bo2bo5b3o10b2o10b2o64bo2bo23b2o48bobo102bo2bo45b3o21bo
12bo37bobo43bob2o2bob3ob2ob2o108bo2bo94bobo48bobo45b2o150b2o13bobo$69b
3o4b2ob2o7bo2bo52bo23b2o20b2o2b2o49bo13b2o61b2o26b2o69bobo50bo42bob2ob
ob3obob6o55b2o52b2o94bo2bo49bo45bo2bo149b2o5b2o6b2o$77bo2bo2b2o3bo2bo
51bobo43bobo67b2o60bo2bo31b2o63bobo94bo5b3o6bo27b2o28b2o149b2o96bobo
49b2o106b2o$77b2o6bo4bo53b2o16b2o26bo131b2o8b2o21bobo64bo48bo5bo82bo2b
o117b2o14b2o136b2o4bo13bo35bo2bo23b2o$22b2o57bo6bo73b2o167bo2bo19b4o
113bo5bo13b2o33bo33bobo118b2o14b2o21b2o113b2o18bo11b3o22b2o24b2o$22b2o
54bo10bo208bo32bo2bo19b2obo113bo5bo13b2o21b2o10bo34bo50b2o106b2o126bo
6bo$4b2o72bo2bo5b2o209bo26b2o5b2o20bob2o3b2o95b2o53bo2bo9bo84bo2bo232b
obo28bo$3bo2bo2b2o31b2o35bobo39bo113b2o61bo26b2o23bo4b2o6bo94b2o53bobo
14b3o79b2o177bo56bo28bobo97b2o4b2o$4b2o2bo2bo29bobo37b2o31bo5bobo112b
2o111bo3bo2b2o3b3o151bo275bobo83bo2bo53b2o42b2o3bo2bo$9bobo30bo18b2o
17b2obo30bo5bobo65b2o110b3o26b2o17bo10b3o6b2o250b3o167bobo73bo10b2o54b
2o48b2o$10bo49bo2bo17bobo30bo6bo66b2o139b2o19bo2b2o4b2o7b2o421bo30bo
42bobo89bo4b2o$60bo2bo287bob2o17b2o101b2o198bo145bobo41bobo88bobo3b2o$
61b2o18bobo94b2o170b2obo17bo2bo35bo24bo34b2o3b2o21b2o174bobo78b2o64bob
o42bo35b2o53bobo$81b3o27bo9b2o55b2o170b2obo18b2o36bo24bo34b2o22bo3b2o
13b3o63b2o92bo2bo13bo31b3o8bo20bo2bo64bo78bo2bo53b2o$95b2o14bo9bobo42b
2o141b2o41bo5b2o29b3o18bo24bo57bobo83b2o16b2o75b2o14bo42bo20bo2bo7b3o
57b2o42b2o31b2o73bo5bo$102b3o5bo11b2o42b2o141b2o18b2o26b3o82b2o50b2o
81b2o18b2o91bo42bo21b2o67bo2bo41b2o24b2o80bo5bo$11b2o78bo8bo5bo4b2obo
9b2o142b2o59b2o22bo4b2o81bobo133b2o127b2o117b2o68b2o63b2o15bo5bo$11b2o
68b2o8bobo7bo4bo4b2obo2b2o5bobo93b2o25b2o19b2o15b2o65bob2o3b3o5b2o59b
2o12bo91b4o63b2o43b2o38b3o3b3o11b2o21b3o3b3o221bo2bo43b2o$54b2o25b2o8b
2o8bo4b2o5b2o2bobo5b2o6b2o22b2o21b3o37b2o24bo2bo35b2o64bo3bo4b2o4bo2bo
25bo31bo2bo100bobo5bo60bo2bo42b2o24b2o192bo54bo38b2o17b3o24b2o$54b2o
47b2ob2o10b2o12bo2bo21b2o73b2o12bo2bo49b2o52bobo5bo5b2o25bobo30bo2bo
100bo8bo60b2o68bo2bo15bo42bo99b2o22bo7bobo52bobo$103b2ob2o12b2o9bo16bo
15b3o17b2o46bobo12b2o4b3o43b2o49b3o3bo37bobo31b2o74bo29bo6bo119b2o9b2o
16bo35bo6bo33b2o53b2o9b2o21bobo6bobo52bobo77bo$106b2o12bobo25bo35b2o
47bo60b2o41b2o12bo3b3o30b2o5bo41b2o64bobo25b2ob2ob2o26bo95b2o27bo35bo
6bo32bo2bo51bo2bo31bobo7bo19b3o32bo6b2o69bobo$109bo11b2o25bo69bo9bo15b
o12bo36b2o10b2o10b2o17b2o16b3o30b2o47b2o65b2o27b3o3bo25bo18bo56b2o83bo
30b2o8b2o53b2o33bo70b2o17bo51b2o$30b2o35b2o38b2o21b2o85bobo7bobo14bo
12bo48b2o9bo2bo35b2o93b2o77b2obo2bo2bo15b2ob2o5bo17bobo49b2o3bo2bo113b
2o188bo22b2o$30b2o6bo4b2o21bo2bo59b2o86bo2bo6bobo14bo12bo60b2o33b2ob3o
67bo24b2o78b3ob2o2bo2b3o10b2ob2o23bobo49b2o4b2o79b3o3b3o49b2o165bo22b
2o$38bo3bo8b3o13b2o20bo31b2o4b2o4bo84b2o8bo57b2o34b2o13b2o15b2o2bo66bo
bo112bo3bo39bo187b2o5bo2bo56b2o$38bo6bo43bo30bo4b2o3b3o113b3o4b3o30b2o
8bo25b2o12b4o19bo64bo2bo113b3o24bo77bo79bo45b2o6bobo55bo2bo32b2o15b2o
50b3o3b3o26b3o$43b2o4bo5bo33bo30bo4b2o4bo65b2o24b2o71bo38b2o2b2o14bo3b
o65b2o115bo24bobo75bobo78bo6b2o46bo56bobo5bo26bo2bo14b2o28bo$12b2o35bo
5bo64bo3bobobo2bo64bo2bo22bo2bo70bo37b3ob2o20bo206bobo75bobo4bo50bo22b
o5bobo41b2o61bo5bobo26b2o44bobo24bo$12bobo34bo5bo63bo7bobo67b2o24b2o5b
2o25b3o75b5o15bo3bo208bo77bo5bo49bobo28bo42b2o46b2o19bobo75bo23bo$8b2o
3bo105bo4bobo103b2o18b3o82b2obo16b4o155b2o5bo33b3o94bo12b2o35bobo119b
2o20bo73b2o2bob2o19bo67b2o$8b2o34bo6b3o71bo9b2o24b2o5b2o6b2o71bo3bo7bo
74b2o5b2o11bo108b2o46bo2bo3bobo40b2o99bo2bo35bo158bo42b2o11bo7b2o5bo
35bo44bo2bo$43bobo43b2o29bo3bo10b2o24b2o5bobo3bo2bo71bo3bo7bo80bobo2b
3o30b2o79b2o2b2o47bobo3bobo39bo2bo99bobo180b2o11bobo26b2o12bo2bo9bobo
2bo5bo2b2ob2o32bobo31b2o11b2o$15b2o25bo2bo43b2o30b3o44b3ob2o75bo3bo7bo
81bo2bo3bo29b2o79b2o52bo5bo41b2o37bo63bo146bo34b2o11b2o22b2o3b2o12bobo
10bo2bo3bo3bo4bo34bobo31b2o$15b2o26b2o123bo2b2o77b3o22bo69bo5bo42b2o
19b2o7b2o22bo146b2o4bobo5b2o107b2o92bobo70b2o18bo12bobo4b2obo40bo$11bo
47b2o108b2o103bobo57b2o9bo5bo42b2o19b2o7b2o22bo127b2o17b2o4bobo5b2o44b
3o34b2o24b2o93b2o103b3o$10bobo46b2o213bobo57b2o9bo5bo96bo45bo77b2o28bo
57b3o28bobo6b2o34bo205b2o20b2o7b2o$10bobo6b2o254bo70bo3bo143bo76bobo
118bo7b2o34bo199b3o3b2o19bo2bo5bo2bo$11bo6bo2bo148b2o52b2o5b3o113b3o
94b3o3b3o41bo76b3obo160bo6bo220b2o7b2o$19b2o127b2o20b2o52b2o62b3o24b2o
81b2o175bo17b2o4b2o142bo65bo212b2o$148b2o125b2o4b3o4b2o25b2o80bo2bo47b
o126bo17b2o3bo2bo141bo64bobo76b2o8b3o69bo52b2o$8bo83b2o98bo81b2obo3b3o
bo4b2o3bo102b2o48bo28bo121bobo58b2o47b2o80b2o15b2o77b2o60bo18bobo$7bob
o82b2o97bobo27b2o52bob2o6b2o92b2o67bo27bobo104b3o14bo59b2o46bobo34b3o
43b2o155bobo17bobo12b3o19b2o$7bobo136bo45bo28b2o53b2o8b2o8bo24bo42bo
14b2o45b2o48bobo185bo42bobo238bobo18bo5b2o27bo2bo$8bo60b2o74bobo82b3o
61bo2bo23bo28bo12bobo60b2o49bo109bo19bo55bobo41b2o6b3o64bo67bo98bo25b
2o28bobo2b2o$69b2o13bo60bobo47b3o31b2obo61b3o24bo27bobo11b2o19b2o9b2o
162b2o6bo19bo19bo55bobo75b2o39bo66bobo62b2ob2o87bo3bobo$13bo69b4o34bo
24bo23b2o57bo52b2o5b3o3b2o52bobo31bobo9b2o58bo82b2o19b2o5b3o11bo6bo19b
o42b3o11bo45bo30b2o39bo8bo57b2o24b2o39b3o92bo$13bo66b2o2bobobo31bobo
26bo19bobo17bo41bo50bo2b4o2bob3o54bo33bo69bobo81b2o26bo2bo9bobo128bo
79bobo82b2o72b2o9bo7b2o$13bo64bobo2b2o4b2o20b2o7bobo2b2o22bobo17bo2bo
15bobo36bobo3bo47bo3b4obobob2o158bobo110b3o9b2o2b3o99b2o23bo67b3o3b3o
2bo2bo12bo90b2o51b2o8bobo6b2o13b2o$76b2o4b2o2bobo21bo2bo7bo3bobo8bo12b
2o19b2o16bobo36bob2o3bo47b3o5b2o2bo4b2o41b2o111bo31bo80bo115bo2bo66bo
35b2o13bo56b2o15b3o13bo2bo61bo22b2o37b2o$43b3o32bobobo2b2o24b2o13b2o7b
obo5b2o26bo17bo32b2o3bob3obo19b2o36b3o7bo14b2o23bo2bo18b3o24b2o94bobo
79bo116b2o25b3o38bobo9b2o15bo22bo55bo2bo31b2o31b2o91b2o$80b4o51b2o5bo
2bo75bobo4b2obo20bob2o36bo2bo4bo15b2o24bobo45b2o94bo2bo73b3o3bo160b2o
22bobo8b2o15bo79bobo64b2o54bo14b2o$63b2o17bo60b2o86bo20bobo45bo42bo3b
2o138b2o73b4o3bo139bo20b2o23b2o25bo24bo55bo28b3o4b3o58bo24b2o13b2o$19b
2o19b2o21b2o144b2o15b3obo20b2ob2o38bo52b2o212bo5bo140bobo95bobo151bo
23bobo$18bobo19b2o54b2o50bo60b2o10bob2obobo26bo38bo3bo52b2o3b2o4b2o5b
3o79b3o108bobo6bo136bobo96b2o46bo34bo69bo9b2o24b2o$19bo76b2o49bobo73b
2ob2o20bo43bo7bo50b2o3b2o4b2o199b3o3b2ob2o135bo4b2o76b2o60bobo33bo12b
2o20b3o42bobo23b2o$147bobo73b2ob2o19bobo3bob2o33b2o4bo4b2o104b2o155bob
2ob2obo26b2o34bo78b2o76b2o60bobo33bo12b2o66bo15b3o$76b2ob2o67bo75b3o
20bobo3b3o34bo4bobo109b2o10b2o106b2o36b4o29bo2bo32bobo218bo$77bobobo
102bo40bo22bo41bo3bo3bo16b3o101b2o78b3o24bo2bo36bo2b2o3bo24b2o33bobo
255b3o4b3o22bo60bo5bo$74b2o5b2o100bobo85b3o17b2obo3bo113b3o112bobo44bo
60bo59b2o25b2o19b2o178bobo59bo5bo6b2o14b2o$75bo7bo99bobo107bo5bo4bo91b
o100bo5bo24bo41bob2o121b2o25b2o19b2o94b2o82bobo59bo5bo6b2o14b2o$58b2o
15bo4b4o81b2o17bo55b2o59bo2bo49b2o39bobo25b2o72bo5bo8bo59b2o174b3o63b
2o23bobo82bo$57bo2bo15b4o4bo80b2o73b2o60b2o49bo2bo4bo33b2o20b2o4b2o72b
o5bo8bo27b3o15bo90b3o81b3o57bo20b2o24b2o145b3o$58b2o22bo191b2o78b2o3bo
2bo13b2o39bobo38b2o52bo44bobo29b3o63b2o135bobo47b2o52b2o$29b2o51bo9bo
133b3o44bobo62bo20bo2bo13b2o40b2o23b2o13b2o39b3o34b2o6bo12bobo87bo5b4o
74bo60b2o41b2o5bobo18b2o31b2o25b2o8b2o$28bo2bo59bobo88bo91bo62bobo20bo
82b2o63b3o3b3o18bo2bo5bo13bo39b3o22b2o22bo5bo77bo74bo13b2o13bobo5b2o
18b2o58b2o8b2o$29b2o15bo44bo2bo86bobo37b2o113b2obo195bo2bo5bo78b2o22bo
8bo74bo73bobo11bo2bo13b2o42bo83b2o18b2o$46bo45b2o28b2o25b2o29bo2bo36bo
bo96b2o15b2o7b4o25b2o46bo44b2o43bo23b2o58bo5bo26bo26bo21b3o103bo20b2o
13b2o16b2o39bobo82b2o18bobo$46bo74bo2bo24b2o30b2o28b2o8bo39b2o56b2o15b
2o5bo6bo23b2o46bo44b2o43bo27b3o53bo5bo25bobo18b3o81b3o48b2o52bobo20b2o
16bobo97b2o4bo$122b2o11bo27b2o46b2o48b2o39b2o33bo5bo6bo71bo89bo83bo5bo
25bobo117bo34bobo39bo13b2o9b2o9b2o17bo97bo2bo$77b2o8b2o45bobo26b2o4b2o
21b2o62b2o43bo2bo37bo7bo23b2o27b3o168b2o3b2o48bo94b2o22bo43b2o31bo24b
2o127b2o$77b2o7bo2bo45b2o31bo2bo19bo2bo60bo2bo20bo22bobo38b2obo3bo23b
2o40bo68b2o87b2o3b2o17b3o6b2o115b2o22bo4b2o37b2o31bo157b2o16b3o$22b2o
62bobo80b2o21b2o62b2o21bo23bo39bo5bo65bobo49b2o15bo2bo15bo79bo22bo2bo
142bobo228b2o37b2o$22b2o63bo36b2o153bo7bo56bobo68bobo26b2o21b2o15bo2bo
15bo25b2o16bo34bobo22b2o4b2o50b2o17bo48bo20bo193bo28b2o43b2o$17b2o58bo
46b2o160bobo55b2o65b2o3bo27b2o12bo26b2o16bo17b2o6b2o10bo4bobo30bo3b2o
28b2o49b3o16bobo46bobo213bo28b3o32b3o$bo15b2o57bobo207bobo42b2o24b2o
52b2o44bobo61b2o18bo4bobo30bo82b2ob2o3bo12b2o47bobo78b2o4b2o127bo29b2o
b2o$obo73b2o209bo43b2o23bo2bo21bo75bobo17b3o19b3o3b3o29bo3bo5bo31bo82b
o6bobo61bo31b3o11bo21b3o9b2o5b2o2b3o143bo4bobobob2o$o2bo90b2o116b3o56b
2o11bo72b2o21bobo25b2o48bo65b3o9bobo115b2o10b3obobo38bo52bo3bo9bobo37b
o4b3obo46bo95bo8bob2o5b2o$b2o91b2o106bo24b2o41bo2bo8bob2o95bobo25bo65b
o5bo21bo32bobo127b2o3b2obo36bo51bo3b2o9bobo37bo3b3o3bo45bo16b2o95b2o$
166bo34bobo6bo16bobo41b2o9bob2o96b2o25bobo63bo5bo21bo33bo114b4o10bobo
6bo35bo54b3o10bo38bo55bo16b2o42bo5b2o33bo$166bo11bo23b2o6bo17bo54b3o
52b2o70b2o63bo5bo21bo4b3o140bo14bobo3b2ob2o71b3o11bo2bo3b2o47bo2bo4bob
o78bo27bo6b2o$133bo32bo10bobo30bo72b3o52b2o192b2o7b2o107bobo14b2o79b3o
15b2o2b2o41b2o3b3o8bo40b3o33bobo26bo19b2o$48bo83bobo43b2o297b3o51bo2bo
5bo2bo7b3o4bo91bo5b2o5bo8bobo86bo3bob2obo13b2o27bo4b2o6bo2bo76bobo45bo
2bo$18b2o21b3o3bobo48b2o32bo2bo26b3o3b3o361b2o7b2o14bobo89b2o4bo2bo5b
3o6bo3bo77bo4bo7bo2bo12b2o26b2o5b2o5bo80bo47bobob2o52b2o$18b2o27bobo
48b2o33b2o17b3o176b2o223bo2bo60b2o27bo2bo12b2o6bob2obo75bobo3b2ob2o6b
2o15b2o29bo65bo63b4ob3o3b2o51b2o$48bo117bo164b2o165b2o23b2o12bo19b2o
24bo36b2o28b2o6bo7bo9bobo75bobo3bo2b2o6b2o14bo2bo24bo68bobo62bo3bobobo
b2o13b2o$166bo331b2o23b2o11bobo44bo8b2o57bo4bobo18bo63b3o11bo5bo3b2o
20bo2bo24bo3bo65bo50b2o11b2o4b8o11bobo$38b2o126bo225b3o141bobo44bo8b2o
45b2o15b2o68bo34bo3b2o21b2o30bo115bob2o6bo7b5o3bo12b2o$38b2o61b2o214b
2o100b2o116bo101b2o84bobo35b3o51b2o10bo5bo102b2o4bobo6bo8bo$74b3o24b2o
49bo73b2o49bobo37b2o46bo52bo2bo17bo139b3o7b2o133bobo5bo82bobo9b2obo2bo
2bo100bo2bo3b3o$18b2o131bobo72b2o44b2ob2obo6bobo7b2o67bobo29b2o21b2o
18bo149b2o74bo58b2o6bo83bo65bo54bo79bo$18b2o87b2o42bobo118bo9b3o2bo7b
2o67bobo29b2o41bo213b2o11b2o24b2o38bo7bo4b2o56bo23bo3b2ob2o17b2o27bo
54b2obo76b2o$37bo69b2o43bo96b2o32b2o43b2o35bo69b2o11bo204b2o10b2o25b2o
45bobo3b2o15b3o37bobo13b3o5b2ob5o19b2o27bo56bo77b2o$36bobo87b2o121b2o
23b2o5b3ob2obo39b2o20b2o10bo72b2o10bobo211bo8b2o63b2o2b2o20b3obo36bobo
13b3o6b3o80bo5bo8b2o80bo10bo$36bobo86bobo151bobobo3b2o61b2o10bo84bobo
40b2o168b3o6bo2bo62b2o23bo3b2o37bo15bo7b2o80bobo4bo8b2o80bo$37bo88bo
50b2o101b2ob3obo74bo35b2o48bo19bo20bo2bo50b2o64b2o48bobobo6b2o88bob3o
12bo53b2o77b2o4bo90bo$18b2o12bo114bo29b2o63b2o14b2o5b2o13bo6bo28bo80bo
2bo66bobo19bo2bo46b2o2b2o63bo2bo49bobo97b3o11b2o64bo62b2o$18b2o11bobo
27bo33bo50bobo92bo2bo13b2o4bo2bo13bo2bo3bo31bo71bo5b2o43b2o7b2o13bobo
20b2o47b2o7b2o37b2o19bo2bo46b7o97bo12b3o53bobo6bobo60bobo64b2o31b3o3b
3o$31bobo26bobo12b2o17bobo49bobo35bo56bobo21bobo13bo3b4o25b3o3b2o69bo
35bo14bo2bo5bo2bo13bo79b2o36bo2bo19b2o48bo3bo157b2o9b2o6bobo61bo65b2o$
32bo27bobo12b2o16bo2bo25b2o23bo35bobo31bo8b3o13bo23bo16b3obo11b3o13b2o
3b2o64bo3b2o29b3o2bobo14b2o7b2o132bobo72b2o4b2o21b2o65bo22b2o39b2o18bo
165bo10bo$61bo3bo18b2o8b2o26b2o59bobo30b2o82b3o13bo68bo2b2o26b2o8b2o
42bo27b2o87bo73bo2b3obo21b2o64bobo20b2obo12bo211bo9bobo$64bobo17b2o98b
o12b2o16b3o66bobo102bo26b2o30bo20bobo25bo2bo161b7o87bobo19b3obo11bobo
210bo9bobo$23b3o38bobo130b2o15bo20bo36bo11b2o34bo17bo51bo56bobo19bobo
26bobo3b2ob2o146b5o4bo33bo58bo23bo12bobo221bo$65bo153b3o12bobo35bo47bo
16bobo32b2o73bobo20bo28bo4b2ob2o20b2o76bo47bo4bo36bobo63bo5b3o6b3o14bo
41bobo84bo97b2o$21bo5bo72b3o13b2o40b2o13bo38bobo19b2o36bo63bo2bo32b2o
74bo60b2o12b2o4b2o45bo5bo23bobo9b2o36bo3bo36bo2bo61bo2bo4bobo5b2o51b2o
4bo2bo82bobo50b2o44b2o$15b2o4bo5bo19bo68b2o39bo2bo12bo38bobo122b2o113b
3o54b2o12b2o35bo15bo5bo23bobo9b2o39bo38b2o60b3o4b2o2b3o3b3o43b2o8bo3bo
b2o82bobo50b2o$15b2o4bo5bo18bobo109b2o13bo15b2o20bo3b2o62b2o25bo178b2o
9b2o62bo15bo5bo24bo49bo28b2o71b2o3b2o2b2obo5bo20bo23bobo5bo10b2o81bo3b
3o57bo$46bobo140b2o21b2o2bo61bo2bo2bo5b2o4b3o7bo17b2o124bo5bo28b2o8bo
2bo61bo95b3o27b2o70b2o3b2o6b2o11bo10b4o24bo7bob2o2bobob2o98b2o45bo$20b
o2b3o21bo167bo62bob4obo3bo2bo13bo17b2o47bo76bo5bo39b2o80b3o21b2o7b2o
42b5o8bo90bo23bobo8b3obo34bo2b2ob2o18b2o79bo2bo44bo$20bo21bo229bo5bobo
2bo2bo3b2o46b2o33b2o6b2o6b3o2b2o16bo37bo5bo88bo16b3o36bo2bo5bo2bo40b2o
3b2o6bobo90b4o19bobo7b2o2b2o36bo2bo3bobo14b2o32b2o45bobo$20bo16b2o2bob
o227b2o4b3o3b2o53b2o31bo3b2o3bo2bo5bo2b4o15bobo131bo56b2o7b2o42b2o2b2o
2b2o3b2o92bo8bobo10bo8b2o2b2o35bo10bo30b2o14bo2bo45bo42b3o3b3o$37b2o2b
obo30b2o95b2o97bo13b4o84bo2b2o3bo2bo5b4o3bo14bobo38b3o90bo110b5o2bobo
53b2o51bo22b2o27b2o49bo2bo14bobo31b2o24b3o$4b2o36bo31b2o95b2o35b2ob2o
58b2o12bobo43b3o37bo3b2o4b2o8bo4bo2b3o10bo145b2o47bo48b2ob2o58b2o103b
2o36bo13b2o16bo31bo2bo24b2o8bobo3b2o16bo$3bo2bo85b2o114bo3bo59bo25bo
40b2o31b3o18bobo3bo2bo129b2o24b2o16bo4bo24bobo44b2o3b2o33bo19bo148bo
64b2o19b2o5bo7bo2bo3b2o16bo$4b2o86b2o115b3o85bobo39b2o31bo8b2o11bo2bo
53bo80b2o18bo23bo3bobo23bobo37bobo3bo2bo3b2o2bobo26bo20bo148bo22b2o32b
2o27b2o2b5o7bobo21bo$33b2o174b3o36bo26bo22b2o44b2o35b2o9bo4bo5bo46bobo
8b3o88bo23bo3b2o25bo38bo2bo42b3o18bo171bobo30bobo28bo3b2ob2o$33b2o68b
2o142bobo23b2ob2o66b2o44bo3bo2bo4bo48b2o53b2o44bo89b2obo2bo7bo35b3o24b
2o35bo101b3o3b3o19bo31b2o29bo2b3ob3o19b2o$103b2o142bobo12b2o9b2ob2o39b
o72bo9bo3b3o82b3o3bo10b2o134bo2bo7bo3b2obo31b2o25b2o27b2o6bo4bo87b2o
73bo23bo2b2o3b3o19b2o$20b2o226bo13b2o8b2obobo39bo56bo14bo5bo98bobo51b
3o3b3o46b2o38b2o8bo3bo2b3o85b2o5bo5bo86bo2bo10bo9b2o49bobo22b4o6b2o$4b
2o14b2o182bo67bobobo16b2o22bo14b3o39bo19b2o99b2o105bo2bo37b2o9bob3ob4o
91bobobob2o4bo81b2o11bo8bo2bo19bo29bo25b2o6b2o8bo$4b2o197bobo66bob2obo
15b2o79bo135b2o40bo10bo8b2o29b2o49b2obo5bo8bo89b2o2bobo93bo9bobo2b2o
14bobo63bo7bobo21b2o$65bo137bobo36bo28b2o3b3o19b2o9bo18b2o180b2o40bo
10bo8bobo77bobo6b3o7bobo82b2ob4o3bo2bo103bo3b2o15b2o55b2o14b2o22b2o$
64bobo62bo16b2o56bo36bobo28bo5b2o17bobo9bo18b2o40b3o102bo76bo10bo9bo
34bo43bo2bo5b2o8bobo45b2o37b4o4bo2bo157bo24bo6b2o$64bobo61b2o15bo2bo
16bo75bobo18b2o8b2o24bo10bo44b2o36bo24bo56bobo78bo51bobo43b2o17bo46b2o
37b2o6b2obo156bobo20b2o6b2o$65bo62bobo15b2o16bobo75bo10b2o7b2o90b2o36b
o16bo6bobo54bo2bo78bo43bo7bobo19b2o4b3o86b2o40b2o23bo135b2o19bobo5b4o
61b2o$164b2o87b2o19b3o88bo25bo16bobo5bobo55b2o79bo20b2o20bobo7bo19bo2b
o2bo3bo40b3o42b2o26b2o12bo23bobo8bo146bo7bo2bo61b2o$53b2o220b2o6b2o80b
3o41bo7bo74bo83b2o20bo2bo27bobo59b2o59b2o10bobob2o20b2o8b3o49bo79bo$
53b2o85bo134bo8bo79bo3bo122bobo93b2o10b2o29bo3bo2bo53b2o71bo4bo12bo16b
o2b2o48bo78bobo22bo3bo10bo$91b2o47bo83b3o51b2obo29b2o52bobobo16bobo
102b2o51bo42b2o46bo19b3o46bo59bo4bo12bo19b2o48bo78bobo21b2obobo4bo5bo$
32b2o57bobo46bo137b2ob2o28bobo50b2obobo16bob3o5b2o145bobo78b2o68b2o7bo
bo59bo2bo13bo149bo22b2o3b2o10bo$12b3o17b2o58bo219bo46bo5bob2o18bo3b2o
3b2o145b2o79b2o67b3o8b2o54b2o40bo6b3o20b2o123b4o2b3o2b2o$352b2o3b2ob2o
4b2o20b2o2bo38bo259b2ob2o38b2o23bo2bo21b3o15b3o3bo3bo19b2o44bo11b2o4b
2o61bo2b3o3bo2b2o35b2o$20b2o29bo299bo2bo3bob2o4b2o21b3o38bobo51b2o3bo
151bo3bo37b2o6b2ob2o4b2o32b2o24bobo39b3o3bo3bo64bobo9bo2bo3b2o21bo42bo
bo2b2o2b2obo33b2o$20b2o28bobo73b2o24b2o197bo2bo4b2obo3b3o11b2ob2o45bob
o50bo2bo2bo151b5o37b2o7bo2bo4b2o59bo46bo3bo64bobo9bobo27bo47b2o2bob2o$
3bo46bobo72bo2bo23b2o65b2o48b2o7b2o35bo36b2o6bobo4b2o7b3o52bo51bobo3bo
150bo52bobo113b3o66bo11bo28bo39bo2bo4b2ob4o48b2o$2bobo22bo17b2o4bo74b
2o90bo2bo3bo43b2o6bo2bo33bobo18b2o22b2o3bo11bobo89bo15bo155bo3b2o42b3o
177b2o89bo2bo4bo2bobo49b2o$2bobo22bo17b2o150bo21bobo2bobo51b2o34b2o19b
2o21b2ob2o2bo9bo2bo24b2o62bobo169b2o99b2o59b2o65b2o89b3o6b3o$3bo23bo
73b2o93bobo21bo3bobo59b2o65b2o2bob2o15b2o16b2o7b2o62bobo113b2o40b2o12b
o3b2o95b2o59b3obo72bo39bo13b2o$100bo2bo92bo2bo25bo59bo2bo64b2ob2o2bo2b
o29b3o31b2o39bo85b3o26b2o40b2o16bo157bob4o69b2ob2o37bo13b2o43b2o6b2o$
101b2o71b3o20b2o71b2o14b2o69b2o3bo30b2o2bo29b2o214b2obo160bo49b2o18bob
o38bo57bo2bo4bo2bo$44b2o46b2o176b2o19bo15bo50bo3bo17bo11bo4bo72bo15b3o
123b3o185bo4b2o50bobo18bo97bo2bo4bo2bo2b2o$23b2o19b2o46b2o78bo5bo72b2o
37bo17bo50b4o4b3o8b2obo8b2ob2o61bo12bobo32b2o12bo5bo117bo3bo7bobo81b2o
61b2ob2o52b2o21b2o94b2o6b2o3b2o9b2o$23b2o147bo5bo72b2o53bobo51b3o4bo3b
o4bob2ob2o7b2obo62bo11bo2bo32b2o5b2o5bo5bo27b2o87b2ob2o4b2o7b3o18b3o
54bo2bo19bo40b2obo75bo119bobo$167bo4bo5bo67b2o42bo16bo53bo4bo5b2obo5b
2o9b2o62bo12b2o39bo2bo4bo5bo26bo2bo86bo8bobo4b2o2bo76b2o20bo44bo4bo70b
2o72bo13b3o29bo$97b2o67bobo76bo2bo42b3o28b2o42b3obob2obo2bo3bo128b2o
39b2o101b4ob2o98bo43bo5bo59b2o82bobo9b3obo$97b2o67bobo76bobo44bobo18b
3o5bo2bo3b2o36b2ob2o10bo66bo9b3o33bo10b2o13b3o134b3o37b3o104bo5bo58bo
2bo81bobo10b2ob2o$14bo5b2o141bo3bo78bo35b2o9b3o26b2o3bobo40bob2obob2ob
o23b2o41bobo44bo6b2o2b2o4b2o20bo53bo27bo9bo130b3o3b3o105b2o83bo11b2ob
2o$14bo5b2o141bo118b2o14b2ob2o25bo40b3ob2o29b2o34b2o6bo18b2o25bo6b2o7b
o2bo18bobo52bo26bobo7bobo17bo19b2o109b2o17b3o65b2o54b2o49b2o3b2o36b2o$
14bo56b2o40b2o48bo130b2o5bo5bo60bob2o2b2o6bo3bo53b2o23b2ob3o39bo2bo18b
obo52bo26bobo7bobo18bo17bobo94bo14b2o16bob3o5b2ob2o53bo2bo25bo26bo2bo
50bo2b2o36b2o4bo$71b2o39bo2bo133b2o27bo18bo3bo4b3o59bo3bobo2b2o3b2ob2o
78b2obob2o18b3o3b3o12b2o20bo7b3o71bo9bo17bobo5b2o12bo94bo32b3o2bo4bo
43b3o12b2o26bo27b2o48bo3bo45bo$10b3o3b3o94bobo132bo2bo25bobo17bo2bo4b
2ob2o15b3o39b2o3bo10bobo86bo42b2o29b2o35b3o3b3o53bo5b2o107bo17b2o12bob
4o5bo4bo81bo76bo5bo44bo$45bo58b2o8bo134bobo26bo18bo2bo5b3o48b2o110bo3b
o41b2o29b2o93bo2bo30b3o100b2o7b3ob6o7b2o2bo97bo59bo3bo3bo$44bobo57b2o
144bo45b5o6bo49b2o63b3o44bo6b3o59b2o47bo56bo140b2obobob2o10bo3b2o16b2o
78bo5b2o8b2o42bo2bobo2bo$13b2o30bobo39bo208b2ob2o172bo25b2o37b2o47bo
53b2o54b2o89bob2o11bo2bo19b2o78bo4bobo7bo2bo41bo3bo3bo$12bo2bo30b2o39b
o47b2o160b3o62b2o37b2o57b2o11bo25b2o86bo33b2o74b2o85bo19bobo105bo9b2o
43bo5bo$13bobo71bo18bo27bo2bo224b2o37b2o57b2o158bo2bo12b2o3b3o105b3o
32bo2bo59bo10b2o108bo3bo28b2o$14bo42b2o47bo27bobo358b2o124b2o12bo2b2o
2b2o148b2o9bo3bo38bobo9b2o109b3o18bo9bo2bo$44b2o11b2o47bo28bo59b2o297b
o2bo137b2obo3b2o103bo5bo31b3o16b3o39bobo140bobo9bobo$6bo37bobo82b2o64b
2o285b3o9bobo139bobob3o3bo100bo5bo37bo55bo141bobo10bo$6bo38b2o55b3o3b
3o18b2o172b2o177b2o11bo13bo127b2o2bo3bob2o98bo5bo37b2o109b2o35bo50bo$
6bo295bo2bo42b3o133bo23bobo127b4o5b2o93b2o46bob2o108b2o35bo34b2o44b2o$
b2o103bo150b2o20bo23b2o60b2o92b2o8b3o20b2o14bobo16bo86b3o22b3obo98b2o
5b3o38b2o147bo15b2o17b2o40bo2bo2bo$obo103bo103b3o15b3o26b2o19bobo71bo
12b2o91bobo8b3o20b2o15bo16bobo32b2o77b5ob3o41bo46b3o51bo163b2o60b2ob2o
$bo37b2o65bo5bo36bo129bo72bo27b2o77bo11bo54bobo5bo26b2o71bo4b3obobo2bo
40bobo100bo179bo44b2o$38bo2bo18b3o49bo22b2o11bobo57bo97b2o44bo5bo21b2o
86b3o56bo6bo49b2o49bob2o5b4o27b2o12bobo52bo124bo88bo12bobo41bo2bo$3bo
35b2o71bo22b2o10bo2bo57bo97b2o28bo20bobo108b3o63bo49b2o49b4o6bo28bo2bo
12bo52bobo123bo88bo12bobo$2bobo143b2o33b2o23bo126bobo19bobo7b2o99bo
121bo5bo39bobobo22b2o9bobo66bobo51b2o50b2o18bo88bo13bo42bobo$3bo31bo
55bo35bo54bo152bobo20bo8b2o47b2o51b2o119bo5bo41b3o22b2o10bo68bo30b3o
19b2o50b2o159b3o$35bo43bo10bobo33bobo26bo26b3o25b3o123bo78bo2bo92bo78b
o5bo25bo16bo40bo13b2o2b2o123b2o129b3o3b3o46bo2b2o$35bo38b2o3bo10bobo
29b2o3b2o3b2o20bobo17b2o7bo128b2o39b2o7b2o19bo32b2o30bo61bobo100b2o6bo
bo55bobo12b2o2b2o73bo5bo43b2o68b2o93bo21bob2o$74b2o3bo11bo30b2o7bo2bo
19bobo16bo3bo2bobo128bobo38bo2bo5bo2bo18bo64bo43bo17bobo79b3o17bo2bo5b
obo55bobo91bo5bo38bo74b2o63bo28bobo21bo5b3o$31b3o3b3o92b2o21bo16bo4bo
2b3o86b2o41bo40b2o7b2o19bo64bo8bo33bobo17bo22b2o17b2o52b3o3b2o7bo57bo
92bo5bo38bo108bo10b2o18bo29bo17b2o9b2o$18b2o61b3o88bo2b2ob4o87b2o186bo
32bo2bo39bo2bo16b2o99b3o11b2o36bo111bo43b2o26b2o35bo9bo2bo17bo47b2o10b
ob2o$18b3obobo10bo136b2o4bo160b2o17b2o19b3o75bo33b2o13b2o7b2o17b2o69bo
50bo11b2o35bobo41bo25b3o84b2o26b2o35bo10b2o43b2o32b2obo$21b2ob2o9bo34b
2o7bo78bo18b2o58b3o72bo25bo2bo16b2o145bo2bo5bo2bo87bo4bo10b2o6b2o24bo
43bo6bo42bo204b2o27b2o33b2o$18bobo2bo3bo7bo33bo2bo6bo78bo15b2o101b2o
33bo26b2o42bo122b2o7b2o88bo3bobo9b2o5bobo68bo35bo13bo32bo97b3o71b2o$
18bobo6bo41bobo7bo78bo21bo60bo34bo2bo32bo70bo226bo17b2o27bo41bo34bobo
44bobo36b2o39b2o6bo$20b3obo24b2o19bo96b3o9b3o59bo35bobo75b2o26bo127bo
64bo36b3o41bo76bobo44bo2bo34bo2bo33b2o3b2o5bobo37bo28b3o$11bo11b3o12bo
9bo2bo12b2o42b2o68b2ob2o58bo36bo26bo24b2o23b2o153bobo45bo16bobo50b2o
27bo77bo46b2o36b2o34bobo10bo37bobo48b3o$10bobo24bobo9b2o12bobo24b2o15b
o2bo54bo13b3o50b2o24bo45bobo23b2o64b2o54bo10b2o45bobo5b2o37bobo15bobo
43b2o5bobo79bo30b2o114bo49bobo60b3o$10bobo24bo2bo23bo25b2o16b2o55bo14b
o50bo2bo22bobo44bobo89b2o19b2o32bobo9b2o46bo6b2o37bobo16bo44b2o6b2o79b
o30b2o11bo44bo108bo$11bo26b2o32b2o91bo65bo2bo22b2o30b2o14bo111b2o10bo
22b2o7b2o6b2o87bo94b2o55bo43bo43bobo165bo$72b2o25b2o26b2o5bo23b2o72b2o
54bo2bo113b2o24bo29b2o6b2o5b2o93b2o7b2o70b3o31bo67bo43bobo51bo50b2o60b
obo52b2o$98bo2bo24bo2bo4bo23b2o7b3o119b2o9b2o7b2o73bo20b2o20b2o47b2o
92bo2bo5bo2bo39bo29b4o22b2o5bobo23bo87bo50b2o50bo2bo39b2o18bobo33b3o
16b2o$98bobo6bo19b2o5bo164bo2bo5bo2bo8b2o6bo54bobo41bo3bo139b2o7b2o39b
obo26bo4b2o21b2o5bo2bo3bo18bo49b3o86b2obo49b2o40b2o19bo$32b2o65bo6bobo
191b2o7b2o8bo2bo4bobo53bobo39bobob2o123b2o65bobo25b3o5bo28b2o3bobo7b2o
8bo116b2o23b2o$32b2o72b2o212b2o5bo2bo53bo39bo19bo94bo13bo2bo19bo45bo
26bo3bo3bo32bo2bo7b2o31b2o92b2o17b5o3bo126b2o$305bo22b2o95b3o15b3o14b
2o23bo53bo14b2o19bobo72bo6bo12bo12b2o6b2o40bo2bo37bo72b4o2bo47bo45b2o
32bo2bo37b2o$109b2o15bo177bobo79b3o19bo33bo3bo13b2o22bobo26b2o24bo35bo
bo73bo4b2o12bo12b2o49bobo37bo71bo2bo6bo19bo23bobo43bo2bo32bobo13bo23b
2o$44b3o61bo2bo13bobo137b2o37bobo100bo2bo31b2ob2o36bo2bo26b2o61bo75bo
4bo12bo64bo38bo33b2o43bo2bo19bo23bobo3b2o23b2o14b2o34bo13bobo15b3o$
109b2o13bo2bo104b2o31b2o2b2o34bo69b2o30bo2bo8b3o62b2o168b3o139b2o10b2o
28b3o12b2obo19bo24bo3bo2bo2b2o18b2o64bobo$114bo10b2o18bo85bo2bo34b2o
63b2o38bo2bo31bo10b2o37b2o253bo81b2o55bo16b2o34b2o3b2o85bo9bo$26b3o72b
o11bobo28bobo85b2o40b2o46b3o4bo3bobo39b2o39b2o41b2o253bo27b2o109bo3b5o
7bo2bo20b2o32b2o19b2o57bobo$100bobo10bobo28bobo22bo104b2o52bobo3bo81b
2ob2o3b3o39bo38b2o14bo11bo180bo27b2o61b2o46bo4b2o2bo7b2o21b2o31bo2bo
17bo2bo43b2o10bo2bo5b3o$65b2o33bobo7bo3bo30bo22bobo86bo70bobo85b2ob2o
4b2o7bo30bobo26b3o8b2o13bobo10bo47b2o4b2o83bo131bo2bo46bo6bo65b2o18bo
2bo5b2o36b2o11b2o13b2o$42bo22b2o34bo7bobo56bo2bo84bobo6b2o29b2o31bo88b
o3b3o9bo31b2o47b2o3bobo10bo46bo2bo3b2o52bo29bo62bo15b2o53bobo36b2o13b
3o86b2o6b2o64b2o$41bobo66b2o57b2o85bobo5bo2bo28b2o9bo114b2o10bo79bo2bo
3bo20b3o36b2o58bobo8b2o14bo3bo32bo27bo2bo13b2o54bo36bob2o142bo$41bo2bo
212bo7b2o39bobo32b2o31bo47b2o91b2o18b3o67b2o34b2o9b2o13b2o35bobo16b2o
8bo2bo14bo90bo2bo142b3o$24b2o16b2o34b3o15bo48b2o29b3o127b2o16bo15bobo
31bo199bo29bo2bo58bo2bo34bo2bo14bo2bo9bo15b2o89bob2o31b3o66b2o27b2o10b
5o$23bo2bo68bobo47b2o20b2o83b2o69bobo15bo32bo51bo147bo30b2o59b5o8b2o
24b2o16b2o26bobo89b2o100bo2bo21b3o2b2o10b2o2b2o5b3o$22b3o70bobo30b3o
36b2o21b2o36b2o24bo68bobo99bobo146bo92bo3bob2o4b2o64bo5bo186b3o5b2o40b
o2bo6bo2bo$22b3o71bo92bo2bo35b2o18bo4bo47b3o20bo100bo119b2o20b3o33bo
63b2o2bobobo3bo63b2obo68b2o80b2o89bo8bo3bo$23b2o57b2o42bo5bo57bobo54bo
5bo12b2o158bo2bo44b2o25bo9bo33b2o37b2o16bobo63bob2obobobob2o62bo3bo66b
o2bob2o76b2o6b2o29bo5bo47bo6b2o$b2o25b2o52b2o42bo5bo20bo37bo59b2o13b2o
159bob2o43b2o24bobo7bobo52bo5bo12b2o16bobo67bo21b2o48b3o75bo5b3o73bo2b
o28bo5bo55bobo$b2o123bo5bo14bo4bobo92bobo12bo66b2o15bo54b2o97b2o8bobo
52bo5bo31bo21b2o24b2o19b4o5bo11bo2bo49b4o62bo2bo89b2o29bo5bo56b2ob2o$
146bobo3bobo92bo14bo55bo10b2o15bo54b2o23bo58bo5b2o18bo36b2o8b2o5bo5bo
7bo44bo2bo23b2o20bo2b2o3bo12b2o52b4o60b2o186bo2bo$42b2o27b2o55b3o15bob
o4bo29b2o16b2o6b3o36b2o12bo54bobo26bo79bo18b2o37bobo4b2o54bo2bo7b2o19b
o44bobo46b2ob2o2bo22bo43bo4bo59bobo2b2o2b2o85b2o28b3o60b2o$41bo2bo26b
2o74bo34bo2bo14bo2bo43b2o68bobo106bo18b2o37bobo2b2o37b2o18b2o17b3o9bo
45bo46bo29bobo43bo3bo60b2o44b2o47b2o21bo12b3o$42b2o138bobo15bobo115bo
83b2o81bo3b2o25b2o10b2o43bo99bo27bo2bo43b4o61b2o4b2o38b2o70bo$75b3o81b
3o21bo17bo79b2o118bobo111bo2bo53bobo96b2o29b2o45bo72b2o51b2o54bo16bo$
99bo180bo2bo118bo113b2o54bobo6b3o88bo4b2o53b3o67b2o18b2o51b2o71bo$79b
2o17bobo180b2o178b3o73b2o34bo80b2o15b2o3bobo52b2ob2o11bo54b2o9bo102b2o
21bo8bo$73b2o4bobo17b2o86b2o57b2o289b2o30bo84b2o20bobo55bo12bo64b2o38b
2o61bo2bo19bobo25b3o$12bo59bo2bo4bo59b2o9b2o34b2o35b2o19bo2bo3bo46bo
18b2o158b2o47b2o39bobo91bo38b2o26b2o2b2o12bo65b2o33b2o2b2o61bo2bo19bob
o3b3o47bo$12bo5b2o7b2o44b2o65b2o9b2o70bo2bo17b2o6bo11bo34bo17bo2bo156b
o2bo45bobo39bobo91bo38b2o19b2o5b2ob2o114b2o54bo11b2o21bo16b3o5bo5bo23b
o$12bo5b2o7b2o24b2o169b2o19bobo4bo11bo34bo18b2o5bo56b3o11bo49b2o30b2o
26bo12bo7bo5b2o34bo152b2o6b3o171bo21bo37bo5bo23bo$52bo2bo106b3o21b2o
57bobo16bo59bobo69bo49b2o57bobo10b3o12b2o115b3o78bo172bo21bo37bo5bo$8b
3o41bo2bo130b2o22b2o33b3o77bo54bo5bo9bo108bobo9b2o2bo76b2o3b2o321bo75b
3o$53b2o26b2o77bo24bo2bo20bo2bo30b2obo30b2o101bo5bo119bo15bo74bo2bobo
2bo42bo5bo7bo150b4o13b2o53b2o79b3o$12bo6bo60bo2bo76bo23bob2o22b2o30bo
33bobo101bo5bo33b2o95bob3o76b2o3b2o43bo5bo7bo22bo126bobobo12bobo28b2o
17bo4bo2bo$12bo6bo4b2o55b2o43b2o15b2o15bo23bob2o10b2o60b2o9b2o4bo90bo
51b2o58b3o18b2o7b2o136bo5bo7bo10b2o9bobo123bob2ob2o11bobo29b2o17bo5b2o
60b2o$2bo3b2o4bo6bo3bobo100b2o15b2o2b2o33b2o2bo11b2o45bo14b2o8bobo54b
3o38bo13b3o78bo36bo2bo5bo2bo4bo154bobo10b2o124bo8bo8bo49bo66bo2bo$bobo
2b2o16bo84b3o8b2o25b2o13b3o5b2o12bo47b2obo4bobo2bo25bo96bo93bobo36b2o
7b2o5b4o129b3o20bo146bo126b2o$bobo58b2o55bo2bo47b2o9bobo2b2o6bo36b2o2b
obob2obo3b2o77bo5bo56b2o29b2o42bo51b3o4bo297bo54b3o3b3o32bo$2bo59b2o
56bobo16bo25b2o3bo9b2ob5o5bo2bo12b2o19bo8b3obo9b2o70bo5bo32b3o3b3o15b
2o29b2o85bo8bo2b2o2bo111b2o279bobo3bo89b3o$121bo16bobo24b2o13b3o2b3o5b
2obo12b2o20bob4obo7bo8bo69bo5bo63bo109bobo7b4o115b2o61b2o117b3o97bo3bo
bo15bo45b2o36b2o$138b2o46b2o3b3o38b2ob3o9bo4b3o32b2o79bo25bobo108bobo
9b3ob2o174b2o29bo11bo9b2o4bo163bobo15bo26bo18b2o36b2o$166bo4b2o10b2obo
4b2o6b2o15b3o23b2o5bob3o22b2o3b2o4b2o79bo24bo2bo22bo59bo15b2o9bo12bob
2o16b2o45b2o17bo15b3o102b2o11bobo8b2o4bo148b2o4b2o8bo16bo25bobo$165b2o
4b2o10b2o14b2o44bob6o23b2o2bo2bo65b2o17bo25b2o22bobo43bo13bobo14b2o17b
o4bo2bo16b2o17bo26bo2bo15bobo29b2o89b2o10bo2bo13bo148b2o4b2o51bobo$
164bo5b2o11bo58b3o3b3o30bobo65b2o52bobo12bobo42bobo13bo33bobo4b2o35bob
o25bobo16bobo28bo2bo101b2o192b3o3b3o22bo$164b2o18bobo41b2o32b2o18bo
120b2o14bo43bobo42bo48bobo26bo18bo30b2o102bo$165bobo15bo2bo4bo24b3o9b
2o31bo2bo11b2o83b2o42bo58bo43bo4b3o18bo23bo180b2o197bo$165bo2bo14bo2bo
2b2ob2o55bo11bobo12b2o46b3o11b3o20b2o5b2o34b2o103bo23bobo68bo8b2o55b2o
49b2o15bo6b3o99b2o89bo$166b2o15b2o2b2o2bo56bobo11bo105b2o34bobo21bo85b
o17bo2bo67bobo7b2o54bo2bo48b2o16b2o3bo3bo26bo37bo33b2o89bo$13b2o46b2o
31b2o46bo41b4o60b2o108b2o44bo23bo84bob2o2bo13b2o67bo2bo26bo8b3o25bobo
66bobo8bo24bobo36bo173bo$12bo2bo45b2o30bobo45bobo28b2o11b2o34b2o27bo2b
o103bo2bo67bo83b2ob5o24b3o56b2o26bobo19b2o15bo37bo4b2o23b2o9bo11b2o11b
2o37bo7b3o163bo$13b2o78b2o4b2o40bobo28b2o47b2o28bo43bo61b2obo135b2o21b
o111bobo11bo6bobo53bo4b2o14bo7b2o3bo6b4o8b2o224bo$99b2o41bo58b3o45bo3b
o41bo62bob2o62b3o3b3o62bo2bo17b2o18bo95bo12bo6b2o54bo19b2o8b2o2bobo3bo
2b2o66b2obo$31b3o121b2o90b2ob3o42bo11bo54bo133b2o18bo18bobo20b2o85bo4b
2o75bo2b2obo9bo2b2o71b3o42b2o127bo$81bo15bo32b2o78bo55b2o19b3o17bo30b
2o16bo3b2o5b2o26b3o30bo23b2o80bo2bo20b2o76bo12bobo21b2ob2o51b6o28b2o
58bo40b2o127bo$80bobo14bo31bo2bo8b2o10bobo2b2o49bobo35bo2bo14bo2bo38bo
30b2o10b2o4bo10b2o59bo23b2o20b2o48b2o9b2o93bo5bo12b2o22b2ob2o46b3o3bo
4b2o25bo2bo15bo40bobo124bo43bo$80bobo14bo32b2o3bo5b2o10bo4b3o48bobo35b
o18b2o17bo5bo4b3o51b2o5bobo49b2o17bo44bo2bo46b3o48bo55bo5bo32bo55b2o2b
5ob2o26b2o15bobo10b3o25b2ob2o123bo72b2o$81bo34bo18bo13b2o2bo2bob2o50bo
37b3o34bo5bo65b3o30b2o16b2o13b2o49b2o47bob2o47bo36b2o17bo38b2o58b2obo
2b2o2b3o51b3o2b2o22bobo70b2o33b3o16bo72b2o$115bobo17bo14b2o2bo3bo91bo
34bo5bo98b2o18bo9b4obo96b3ob2o46bo36b2o51b4o2bo57b2o3b2o44b2ob2o14b2o
23bo70bo2bo31bo2bo$4bo110b2o31bobo4b3o261b2o4bo90bobo7b3o62bo30b2o39bo
4b2o45b2o62b5o42b2o67b2o25b2o5bo3bo30b2o$3bobo37bo54b3o30b3o3b3o8b2o
137b3o128bo5bo4b2o29b2o54bo2bo2b2o2b3o17b2o43bo30b2o38b7o34b2o10b2o
109b2o93bo2bo3b2obobo30b2o$2bo2bo37bo374b4o2bo3bo2bo28b2o54bobo4bo22b
2o43bo111b2o112b2o101b3ob2o2b2ob2o21b2o21bo$3b2o10b2o26bo27b2ob2o59bo
24b2o6b2o185bo6bo4bo51b4o6b2o39bo52bo4b2o96b2o158b2o29b2o102b2ob2o3b3o
22b2o20bobo$14bo2bo32b2o19b2ob2o59bo23bo2bo5b2o152b2o30b3o4bob2obobo
68bo22b2o7bobo52b3o2bo32bo63bobo128bo14b3o11b2o45bo88bob3o50b2o$15b2o
32bo2bo82bo24bobo14b2o6b2o135b2obo28bo2bo3bobo2bobo68bo22b2o7b2o42b2o
10b2o2bo32bo32b2o30b2o83b2o6bobo34bo44b2o28bobo88b2obo10bo12b2o$50b2o
57b2o7b2o28b2o11bo15b2o6b2o134bo33bo2bo3bo4bo11bo45bo11bo72bo16b2o33bo
32b2o32b2o83bo5bobo34bo23bobo18b2o28bobo36bo51b2obo11bo11bobo$109b2o7b
2o28b2o131bo39bo2bobo28bo2bo19b4o42bo71bo12bobo5b2o56bo46b2o5bobo9b3o
75bo2bo13b3o42bobo15bo11bo21bo36bobo51b2o11b2o12b2o$75bo205bo39bo5bo
28bo2bo17bo3bo40b2obo70bo12bo6bo2bo38b3o3b3o8bo46bobo5b2o80bo6b3o2b2o
56bo15bobo8b2ob2o57bo59bobo$64b2o9bo62b2o42b3o96bo40b2o2bo30b2o17b2ob
3o41b2o71bo13b2o6bo12b2o42bo47b2o45b3o37bo9bo5bo7bo5bo56bo3bo8bo2bo
118b2o67b2o$31b2o30bo2bo8bo62b2o150b3o32b2o49bob2o131b2o17bo2bo28bo62b
2o37bo45bo3b2obobo4b2o8bo5bo57bobo10b2o96b2o22bo66bo2bo$31b2o31b2o133b
o177b2o9bo5bo103b3o13bobo14b2o29bo62bobo36bo45bo5bob2ob4o9bo5bo39b2o
17bo109b2o19b3o6bobo12b3o9bo7bo25bo2bo$94b2o13b2o88bo2b2o165bo7bo2bo7b
o6bo119bo41b2o3bo63b2o36bo44b2obo9bo21b2o8bo24bo2bo85b2o60b3o6b3o10bo
12bobo6bo26b2o$48bo45b2o13b2o87bo5bo30bo131bo2bo5bo4bo6bo2b3o88b2o43bo
29b2o150b3obo2b2o4bo13b3o4bo2bo6bobo23bobo85bo2bo58bo8bo2bo10bo12bobo
6bo$2bo44bobo97bo51bobo2b2o11b2o16bo6b3o33bo87bo3bo9bo10b3o3bo83bo2bo
41bobo131b3o3b3o39bo2bo2b2o2bo24bobo8bo25bo86bobo68bobo5bo5bo13bo$bobo
43bobo51bo45bo42b2o7bo3b2o12b2o16bo18bo22bobo55bo30bo3bo5b3o5b3o10bo
83bo2bo41bobo180b2o5b2o13bo12bo123bo5bo63bobo4bo6b2o56bo$bobo44bo51b2o
12bo32bo42b2o9b3o50bo22b2o56bo30bobo9bo18bo65b2o8bo8b2o43bo21b2o113bo
44bo7bo12bobo140bobo62b2o5bo7bo56bo$2bo96bo2bo11bo139bo53bo26bo31bo2b
2o5bob2o82b2o7bobo73bo2bo112bo64bo2bo18b2o120bo2bo39b3o17b7o2bo7bo56bo
$99bo14bo192b3o32b2o22bobobo6bobo25b2o50bo14bobo33b2o39b2o16b2o95bo65b
2o19b2o60b2o59b2o60b2o2b3o3bo12b3o$85b2o10b2o2b2o3b2o60b3o88bo46b2o2bo
3b2o26b2o23b3o7b3o15b4o5bo2bo49bo15bo30bo3b2o57b2o47b2o149b2o34b2o7bo
2bo3bo8b2o19bo31b2o67bo34bo20b3o3b3o$84bo2bo8bo4b2o2bo2bo18b2o55b2o48b
o23bobo46b2ob2o2b2o52bo20b2o5b2obo4bobo50bo46bo111b2o148bo2bo33b3o7b2o
4bo8b2o18bobo8bo18bob4o100bobo$64bo25bo4b3o2bobo3b2o18bob2o36bo5bo5b3o
3b2o47bobo22bobo48bo78b2obo4bo2bo5bo98bo89bo127b2o43b2o33bo2bo13bo29bo
5b2o2bo17b2obo3b2o98bobo23bo6bo$64bo18bo5b2o5bo4bo23b3o38bo5bo60b2o24b
o137b3o193bobo107b2o17b2o78bob2o49b2o11b2o8bo2b2ob2o99bo24bo5bobo$64bo
18bo2bob2o7b2o25b3o39bo5bo18bo285b2o9b2o10b3o3b3o13b3o67b2obo107b2o97b
obo54b3o6b2o9b6o3b2o120bo5b2o$83bo4b2o9bo24b3o54b3o6bobo122b2o30bo3bo
67b2o13b2o41b2o9b2o102bo109bo22bo77bo55b3o18bo7b2o74bo$61b2o20bo3b2o
10bobobo21b2o41b3o19bobo118b2ob2obo29bo3bo67b2o13b2o31bo36bo13bo71b3o
3b3o104b2o5b2o12bobo75bob2o53b2o102bobo$60bo2bo36b3o21b3o64bo15b2o31bo
56bo13b2o4bo29b2o2bo114bobo35bo13b2o78bo35b2o4b2o5b2o54b2o3bo4bo10b2o
50b2o23bo3bo147b3o7bo2bo40b2o$7b3o51b2o21bo16bo22b2o81b2o31bo56bo10b2o
3b5o148bobo35bo12bobo74bob2o35bo2bo2bo2bo4b2o56bobo5bo24b2o22bo12bo2bo
22bob2o51bo50b2o55b2o41b2o$67b2o16bo3bo2bo32b2o113bo56bo9b3o3bo2bo12b
2o96b3o37bo18bo87b2o17b3o38b2o4b2o37b2o24b2o7bob2o20b2o22bo13b2o25bo
52bo49bo2bo61b2o5b3o$67b2o22b3ob2o29b4o35b2o141bo4b3o6b2o5bobo76bo77bo
87b2o14b2o87bobo22bo2b12o43bo38bobo10b2o38b2o50bo2bo3b2o21bo34b2o$87bo
5b2obo29b4o3b2o30b2o86b2o36b3o15bo3b2o6b3o6bo76bobo15bo5bo54bo102bobo
3bo13b2o57bo11b2o23b2o4b2ob3ob2o81bobo10bobo19b2o15b2o52b2o4bobo19bobo
38bo5bo$88bo8bo30bo4b2o118b2o65b3o64bobo5b2o10bobo15bo5bo90bo31bo34bo
5bo3b3o7b2o8b2o47bo49b3o58b3o2b3o14bobo11bo20b2o15b2o2b2o55bo20b2o39bo
5bo$89bo2bo2b2o173bo118b3o3b2o11bo16bo5bo90bo31bo34bo4bo6bo2b3o2b2o8b
2o47bo41bo6b3o82b2o12bo40b2o117bo5bo$91bo3bo173bobo48bo65bo4bo26b2o
102bo31bo35bo2bo9bob2o2b2o66bo30b2ob2o2b2obo203b3o$114bo154bobo46b3o
66b2o2bo26b2o7b3o161bo10b2ob2o2b2o59b3o3bobo8b2o19b2ob2o3b2o44bo159b2o
54b3o19b2o$114b2o154bo49bo284b3o28b2o24bo12bo2bo8b2o18bo3b2o49bo31bo
205b2o$73bo42bo12b2o256bo2bo192b5o7bob2o5b4ob2o24bob2o22bobo12b2o29bo
3bo50bo18b2o11bo127bo2bo96b2o$72bobo34b2o5b2o11b3o28b3o3b3o23b3o73bo
118b2obo191bo5bo6b3o41bo13bo7bobo21bo21bo29b2o7b2o33b2o18bo111b2o6bo2b
o6b2o37bo51b2o$72bobo33bo3b2o2b3o10b2o136bobo34b2o81bo2bo18b3o56bo22b
2o89bo3bobo3b2obo8bo29b6o12bobo7bo21bobo10bo9bo12bo16b2o7bobo11bo41bo
103bo5bo2bo4b2ob2o6b2o36bobo$73bo34bo3bo4bo21b2o23bo25bo76bobo34b2o81b
ob2o45b2o13b2o14bobo21b2o90bo3bo4b2obo4bo3bo33bo12bobo30bobo9bobo8bob
2o8bobo25bo12bo34bo109bobo5b2o6bobo46b2o4bo$108bo3bo2b2o22b2o23bo25bo
77bo51b2o66b2o17bo27bo2bo12b2o13bo2bo124bo9bo27bo3b2o13b2o4b2o14bo11bo
10bobo8bobo8bo2bo38bo23b3o10b5o71bo31bobo14bo52bobo$91b2o16bobo3bo48bo
25bo129b2o85bo28b2o22b3o4b2o28b2o2b2o98b2obo27bo4bo18bo2bo11b2o2bob3o
17bo10bo10b2o7b3o71bo70bo4b3o25bo68b2o$91b2o17bo101b2o10bo124b2o56bo
89b6o6bo95bo6bo44b2o17bobobo19b2o80bo5bo36b2o46bo$57b2o81b2o26b2o42b2o
10bo116b2o5bo2bo6b2o28bo69bo5bo32b2o2b2o5bobo100bobo20bobo38b3o2bo18bo
2bo79bo5bo35bo2bo73b2o7b2o29bo$57b2o57b2o22b2o14b2o10bobo53bo30bo85b2o
5bobo7b2o28bo20b3o39b2o5bo5bo14b3o24bo2bo66bo25b4o5bo2bo20bo63bobo80bo
5bo36b2o73bo2bo5bo2bo27bobo$70b2o8b2o34b2o38b2o11b2o84bo12b2o79bo25b2o
11bo62b2o5bo5bo40bobob3o63bo26b3o7b2o36b2o48bo4b2o109b3o82b2o7b2o28bob
o68b3o$70b2o8b2o36bo83b2o16b3o3b3o26bo11bo2bo12b2o89bo2bo48b3o82bo63b
3o26bo44bo2bo19b2o31b2o77b3o29bobo122bo$143bo58b2o64b2o13b2o44bo44bobo
83b3o41bobo18bo110bo2bo10b2o19bo2bo144b2o64b2o51bo$104b2o10bo26bo40bo
39bo26b3o3b3o47b3o19bo45bo126bobobo18bo109bo3bo16bo15b2o34b2o104b7o64b
2o50bobo$70bo10bo22b2o10bo11b2o13bo39bobo38bo82bobo19bo79b3o67b3o19bo
2bo20bo46b2o61b2obobo15bo51b2o7b3o93bo2bob3o26b2o88bobo$69bobo8bobo28b
2ob3o10bo2bo47b2o3bobo38bo30bo244b2ob5o4b2o57bo2bo12b2o67bo156b2o2bob
2o26b2o40b2o47bo3bo$22bo28b2ob2o3b2o9b2o8bobo27b3o2b2o11b2o48b2o4bo70b
o69b3o3b3o61b2o31bo20b2o26bo20b2o3bo2b2o4b2o58bobo11bo2bo50b2o175bob2o
68b2o19b2o29bobo$21bobo27b2ob2o3b2o20bo27bo3b2o10bo12b3o114bo52bo2bo
83b2o31bo20b2o26bo16b2o2b4o9b3o59bo13b2o50bobo10b3o3b3o38b2o4b2o97bo
10bo3b2o89b2o8b2o19bobo$21bobo89bobo10bo115b3o63b2obo17bo31b2o44bo20bo
14b3o12bo18bo16b2obo3bo4b3o2b2o92b2o21b2o118bo55bo10bo104b2o20bo54b2o$
2o20bo92bo5bo3b2o15bo39b2o52b2o12bo34b2o22bobo17bo31b2o43bobo49bo47b3o
46b2o48bobo20b2o5bo2bo17bo90bobo43b3o8bo4b2o7bo177bo2bo4b2o$2o55b2o13b
2o36bo5bo4b2o19bo39b2o23b2o26bo2bo11bo33bo2bo22bo6b3o9bo77b2o15b3o31bo
33b2ob4o7b3o20b2o23bo2bo48bo28bo3b2o15bo35b2o53bobo58bo2bo3b2obo178b2o
5b2o$57b2o13b2o37bo3bo6bo19bo63bobo27b2o12bo34b2o111b3o36b2o53b2obobo
10b2o19b2o24b2o78bo4b3o13bo35b2o54bo59bobo6bo$112b3o48b2o42bo38b2o119b
2o20b2o37bo8b2o7b3o43b2o15bo23b2o106b2o7b3o156bo198b2o$137bo24bo2bo80b
obo97bo20b2o19bo2bo4bo5bo25bo84b2o18b2o106bob5ob2o2bo72bo16b2o72b2o95b
2o92b2o$11b3o122bobo24bobo58bo22bo54bo42bobo41b2o5bo5bo25bo48b2o34b2o
86bobo38b2o2bobobo3bo71b3o13bo2bo27bo43b2o15bo40b2o37b2o38b3o$107b3o
27b2o25bo58bobo75bobo41bo2bo47bo5bo74b2o121bo3bo38b3o2bo4bo75bo13b2o
27bobo41bob2o14bo40bobo19b2o$203b3o17bobo16bo58bobo42b2o252bo3bo43bo2b
o76b2o41bobo40b2o2bo4b2o9bo29bo11b2o19b2o53bo$3b2o42bo176bo8b2o6bobo
58bo95b3o199bob2o45b3o42b2o25b2o10b3o35b2o42b3o5b2o39bo57b2o28bo$3b2o
41bobo5bo152bo25bobo5bo2bo405bo43b2o25b2o29b2o62bo47bo17b2o38b2o20b3o
5bo$33b2o11bo2bo3bobo49b3o99bo26bo7b2o30bo343b2o95b2o35b2o128b2o20bo$
7b2o19b2o3b2o12b2o4bobo83bo67bo59b2o4bobo173b2o30b4o133b2o95b2o41b2o
100b3o3b3o34bobo28b3o17b3o26b2o$7b2o18bo2bo23bo48bo5bo8bo19bobo9b2o
114bo2bo2bo2bo26b2o145b2o30bo2b2o272b2o143bobo76bo2bo$11bo15bobo73bo5b
o7bobo17bobo10bobo15b2o33b3o61bobo3b2o27b2o71b2o3bo30bo69b3o2b2o133b2o
38bo62bo48b2o17bo21bo49bo39bo78bobo$10bobo15bo74bo5bo7bobo17b2o12bo16b
2o22bo75bo70bo9b2o28bob2o28bo55b2o14bob3o133b2o38bo61bobo47b2o16bobo
20bo49bo18b2o92bo6bo$10bobo50b3o52bo73bo83b2o61bo9b2o15bo7bo7bo14bo13b
o34b2o19b2o15bo3bo78bo28b2o63bo61bobo10b2o53bobo20bo49bo18b2o66b2o23bo
bo19b2o$11bo93b3o20b2o16b2o44bo83b2o50b3o8bo26bo4b4obo5bo13bobo46bo2bo
35b4o79bo29bo126bo11b2o27b2o25bo158b2o24b2o19b2o$61bo5bo11b2o39b2o6b2o
15bo2bo104b2o111bo4b2ob8o14bo2bo46b2o30bo6b3o8b2o69bo197b2o43b3o9b2o$
61bo5bo10bo2bo38b2o23bobo40b3o3b3o56b2o71bo5bo36b2o6b3o6b2o9b2o78bobo
15bo2bo47b3o45b2o27b2o75b2o120b2o$61bo5bo10bobo20b2o43bo147bo31bo5bo
21bo14b2obo2bo10b2o88bo2bo16b2o95bo2bo26b2o74bo2bo98bo12bo47b2o37b2o
58b2o$75bo3bo21b2o79b2o8bo7b2o92bo31bo5bo20bobo13b5obo10b2o89b2o117bo
102bobo53b2o43bobo11bo47b2o28b2o6bo2bo57bobo53b3o$63b3o8bobo105b2o8bo
7b2o46b2o44bo59b2o18bo11b2o212b3o97bo54b2o44bo12bo77b2o7b2o59bo$74bobo
85b2o28bo55b2o78b3o54bo39bo20b2o146b2obo3b2o28b2o23bo348b2o$b3o71bo27b
2o56bo2bo43bo175bo2b2o9b2o24bobo18bo2bo146b3obob2o6b2o19bobo23bo63bo
185bo98b2o$35b2o66b2o57b2o38bo4bobo174b2o11bo2bo22bo2bo3b2o14b2o54b3o
93bobo7bo2bo19bo24bo23b2o9bo11b2o14bobo183bobo45bo$14bo20b2o143bo21bo
4bo2bo89b2o38b2o34b2o20b2o24b2o3bo2bo68bo3bo73b2o16b2o2bo7b2o68bo2bo7b
obo9bo2bo13bo2bo133b3o46bobo44bobo28b2o$13bobo163bobo20bo5b2o90b2o38b
2o34b2o51bobo146bo2bo15b2o20b2o59bobo8b2o10b2o15b2o57b2o88b2o16b2o17bo
45bobo28b2o$14b2o133b2o29b2o136bo111bo54b3o16b2o73b2o16bobo19b2o60bo
96bo2bo72bo5bo8b2o15bo2bo63bo$149b2o167bo181bobo39bo50bo3b3o63b2o83bo
29bobo73bo5bo26b2o103b2o$18b2o3b2o4b2o123b3o34b2o125bo126bo95bobo48bob
o68b2o83bo30bo69bo4bo5bo47b3o81bobo3b2o2b2o$18b2o3b2o4b2o160b2o252bo
67b2o26bobo35bo11bo2bo153bo74b2o23bobo142bo4b2o2b2o$46b2o187b3o76b3o
128bo8b2o57b2o27bo36bo12b2o40bo187bo2bo22bobo5b3o$38bo7b2o405bobo97b2o
24bo53bobo187b2o9b2o13bo$13b2o22b2o107bo62bo29bo164b2o47b2o82b2o7b2o4b
o2bo77bobo178b3o17b2o126bo$5bo7b2o22b2o107bo61b3o27bobo81b3o79b2o88b2o
40bo2bo5bo2bo3bobo7b2o70bo327bo$4b2o31bo35b3o70bo60b5o26b2o6bo59b2o
185bo2bo40b2o7b2o5bo7bo2bo104b3o187b2o18bo82bo55b2o$4b2o197b2ob2o3b2o
33bo59b2o140bo45b2o66b2o31b2o66bo195b2o18bo48bo88bo2bo$4bo41b2o133b2o
19b6o3b3o32bo42b3o10b2o22bo29bo53b2o12b2o21b3o92bo51bo2bo17b3o44b2o88b
2o5bo119bo48bo35b3o51b2o$46b2o133b2o18b4o2b2o2b2o89b2o21bobo27bobo33bo
18b2o12b2o19b2o2bo91bobo9bo26b3o12bobo64bobo87b2o4bobo28bo48b2o36bo51b
o$13b2o126bo45b3o12b2ob3o3bo6bobo47bo21bo4b2o28bobo27bobo30bo2bo2bo50b
3o59bo33bobo8bobo41bo42b2o117bobo27bobo46bo2bo34bobo3b3o95b2o6b2o$6bo
6b2o126bo44b5ob2o9bo6bo7bo2bo46bo19bo2bo3b2o29bo29bo31b7o51bo59bobo33b
o9bo2bo74b2o7b2o80b2o36bo28bobo47bobo34bo2bo100b2o5bo2bo$5bobo100b2o
31bo43bo4b2ob2o8bo13bo170bo5bo33b2o15bo60bo2bo43b2o47b2o26b2o62b3o4b2o
18b2o66bo49bo36b2o109b2o$5bobo100b2o34bo40bob3ob2o15bo6b3o2bobo65bo3bo
58b2o7b2o27bo3bo34b2o14b3ob2o11bo45b2o38b2o21b3o29b2o33bo32b3o28bobo
125b2o61bo22b2o$6bo19b2o61b2o52bobo40b2ob2o14b3o8bob2ob4obo42bo19bob2o
57bo2bo5bo2bo26bo3bo50bo3bo10bo2bo84b2o87bobo28bo4bo19bo5bo3bo49b2o71b
2o2b2o3b2o56bo21bo2bo32b2o$13b2o10bobo61b2o52bobo42b2obo25b2o2b2ob5o4b
o35bo21b2o58b2o7b2o83b3o14bo173bo2bo27bo5bo18bo5bo53b2o71b2o7b2o56bo
22bobo32b2o$13b2o9bobo117bo34bo9b3o26bo6b5o3bo57b2o153bo7bo5b2o152b2o
9b2o10b2o34bo18bo5bo111b2o17b2o39b2o44bo$25bo4bo87b3o58bo9bo2bo17b2o
17b2o2bo57bo53b2o9bo46b2o10bo38b3o157b2o9b2o40b2o19bo101b3o16bo2bo16b
2o38bo2bo95bo$29bobo147bo10b2o10b2o2b2o2b2o15bobo73b2o40b2o8bobo45b2o
9bobo38bo209bo3bo17bobo4b3o15b3o94bo2bo57b2o96bo42b2o$28bo2bo136bo32b
2o4b2o13bo4b2o73bo2bo49bobo55bobo40bo208bob2o2bo15b2o38b2o23b2o56b2o
87b2o67bo41bo2bo$29b2o137bo12bo20b2o3b2o13b2o18bo59bo2bo50bo56b2o133b
2o115bo3bo57b2o23b2o144bo2bo83bo24bobo$143bo20bo3bo11bobo19b2o3b3o31bo
bo54b7o243b2o22b2o54bo29b2o7bobo48b2o3b2o174b2o54b2o27bobo24bo$142bobo
19bo9bo6bobo24b2o12bobo6b2o7bo2bo26b3o24bo3b2o70bo90b2o106b2o54bo29b2o
7b3o11b2o34bo2bo2b2o145b2o77bo5b2o27bobo$38b2o102bobo19bo8bobo6bo19bo
2b4o13bobo5bo2bo7b2o26b2obo4bo19b2ob2o27b2o41bobo11b2o75bo2bo121b2o38b
o51bo2bo34b2o150b2o49bo26bobo34bo$37bobo103bo23b2o5bo26bo3b3o23b2o37bo
7bo18bo4bo21b3o2b2o40bo2bo11b2o76b2o76bo45b2o13b3o75b2o238bo14bo11bo2b
o22b2o$38bo35b2o90bo2bo32bo67b2o4bobo19b2ob2o41bo27b2o12b2o153bobo87bo
214b2o40b2o31bo14bo12b2o23b2o13b2o$74b2o91b2o34bo16b2ob2o37bo9bo2bo2bo
8b2o9bo3bo41bo41bo81bo9b2o61bobo87bo19bo119b2o73b2o39bo2bo45bo51bo2bo$
207b2o11bo3bo15b2o18b2o4bo5bo3bo10b2o10b3o41bobo39bobo79bobo8b2o49b2o
11bo29b2o57bo18bobo117bo2bo114b2o27b3o3b3o63b2o$85b2o32b2o100b3o15bo2b
o18bo4b3o40b2o33bo41b2o79bobo59b2o40bo2bo76b2o118bobo$85b2o32b2o85bobo
13bo16bobo19bo4b2ob3o9bo11b3o12bo2bo23b2o7bo72b2o49bo68b2o7b2o24b2o
125bo67b2o3bo111bo16b2o18bo99b3o$144bo95bo21b2o2b5o9bobo9b2o2bo12b2o
24b2o199bo2bo5bo2bo149bobo66b2o114bobo15b2o18bo61bo$143bobo55bo69bo8bo
bo8b2o4bo74b3o42b4o116b2o7b2o19b2o85bo5bo38b2o93b2o87bobo35bo61bo$104b
o38bobo55bo2bo76bo4b2o4bo2b2o124bo134bo10b2o13b2o57b2o10bobo3bobo59b2o
71b2o88bo67bo6b3o21bo$104bo39bo55b2o3bobo11b2o50bo14b2o8bo4b3o3b3o48b
2o10bo5bo43bobo119bo13bo25b2o57b2o10bobo3bobo2b3o54b2o228bobo43bo$104b
o99bo14b2o50bobo22bob6o3b4o46bo2bo9bo5bo38b2o5bo118bobo7bo4bo97bo5bo
47bo214b2o26bobo43bo$201bob2o2bo41b2o22bo25b3o5bo3bo46b2o10bo5bo37bo2b
o4b2o117bobo6bobo154bobo213b2o8b2o17bo44bo$100b3o57b3o39bo46b2o22b3o
13b2o6bob2o5b4o2bo104bo2bo2bo75b2o12b2o27bo6bo2bo5b3o95b3o48bobo223b2o
27b3o$24bo100b2o5bo5b2o30b2o30bobob2o4bo75bo2bo5bob3o4b2o3bo60b3o41b2o
3b2o76b2o12b2o35b2o156bo105b3o63b2o$23bobo99b2o5bo4bo2bo12bo16b2o31b3o
5bobo54bo22bo2bo2bob2obo3bo2b2o104b2o4bo225bo232b2o67bo3b2o61b2o$23b2o
107bo5b2o12bobo49bo6bo2bo7bo44bobo3bo12bo4b2o2bo2bob4ob5o336bobo145bo
117b2o34bobo2b2o9bo50bo2bo$32b2o74b2o25bo16bo2bo56b2o7bobo43bobob2o11b
o5b2o4bo3b4ob3o75bo24b6obo2bo104b2o41b2o78bobo52b3o89bobo116bobo32bo2b
o13bo26b2o23b2o$32b2o75bo24bobo16b2o66bobo44bo3b2o10bo5b5o3b3o35bo46bo
24b4o2bo2b2o6b2o62b2o31bobo5b3o32bo2bo19b2o57bo145b2o35b2o81bo34b2o14b
o26b2o$106bo27bobo85bo61bo6b3o42bo4bo41bo27bo3bobo7b2o57b3o2b2o31b2o
35b2o5b2o5b2o13b2o109bo5bo124b2o$106b2o27bo80bo46b3o20b2obob2o23b2o18b
o3bobo69b2ob2o142b2o12b2o23b2o99bo5bo77bo$215bobo69bobob2o23b2o22bobo
72b2o181b2o99bo5bo32b2o10b2o31bo29bo48bo127bo$158b2o25b2o27bo2bo43bo5b
o20b2o51bo33b2o5bo185b2o167bo2bo9b2o31bo28bobo47bo82b2o43bo$58b2o98b2o
25b2o28b2o44bo5bo19bo3b2o82b2o5bo62b2o20b2o21bo76bo2bo130b3o34bo73bo2b
o46bo81bo2bo42bo$58b2o88b2o3b2o81b2o23bo5bo18bob4o90bo62b2o20b2o21bo
77b2o170bo72b2o129bo2bo74b2o$8b3o73b3o37b2o21bobo2bobo72b3o5bo2bo45bo
3bo2bo104bo76bo16bo40bo206b3o204b2o32b3o41bo$39bo84b2o12b3o7bo4bo82b2o
8b3o35bo3bobo72b2o30bobo23bo51bo38b2o16bobo15bo113bo358bobo$38bobo38b
2o93b2o108bo3b2o73b2o30bo2bo22bo38b2o11bo29b2o7b2o16bobo9b2o3bobo111bo
bo78bo172bo48b2o11bo5bo37b2o$39bo38bobo93b2o110b2o2bo88b2o15b2o23bo38b
2o41b2o26bo10b2o3bobo9b2o100bo2bo249bobo46bo2bo10bo5bo$67b2o8bobo65b2o
49bo64bo5bo19bo2bo30b2o56b2o29b2o136bo9bo2bo28bo24b3o31b2o11b2o11b3o3b
2o55bo2bo4bo85bo80bo2bo30b3o14b2o11bo5bo$67b2o9bo66b2o13b2o33bobo63bo
5bo20bobo30b2o81b2o3bo2bo86b2o58b2o17b2o9bobo57b2o30b2o18b3o34bo2b2o2b
obo18b3o63bo49bo31b2o85b3o$160b2o33bobo63bo5bo21bo113bobo3bo2bo85bo2bo
4b2o32b3o34bo2bo8bo2bo80bo63bo7bob2o14b3o2bobo61bo49bo91b2o3b3o$196bo
22b3o154b2o26bo5b2o87b2o4bo2bo11b3o15bo4bo34b2o10b2o16bo31bo32bo50b2o
5bo5b2ob2o4bo11bo4b3o2b2ob2o15b2o16bo75bo38bo23b2o26bo2bo28bo$22bo240b
3o49bo60b2o15b2o111b2o96b2obobo29bobo31bo50b2o4b2o5b2obo15bo2bo4bo4b3o
15bo2bo14bobo113bo23b2o27b2o29bo12b3o$22bo65b3o137b2o3b2o55b3o21bobo
31bo44b2o20b2o120bo4b2o60b2obobo29bobo39b2o41b3o2bobo7b3o6bo5bobo3bo4b
3o20b2o15bobo7b3o52bo50bo83bo8b2o$22bo145b2o3b2o37b2o13bo2bo2b2o79bobo
31bo39b2o24bo2bo118bo3b2o66bo31bo34b3o3b2o27b2o9bo4b2o4b3o12bo6b2o3bo
4bo41bo63bo143b2o6bo$86bo5bo75b2o2bo2bo9bo26b2o14b2o85bo8b2o22bo39b2o
25b2o120b2o84b2o62b2o21b2o9bo2b2o8b2o14bo3bo2b2o7b2o102bo46b3o3b3o43bo
52bo$9b2o15bo6b2o18b2o31bo5bo22b2o56b2o9bobo137b2o98b2o100b3o8b2o5b2o
7b2ob2o33b3o10bo17bo2bo60bo2bo31bo5b5o4b2o4bo3b2o220bobo51bo$8bo2bo14b
o6b2o17bo2bo20bo9bo5bo22b2o67bobo6bo150b3o3b3o40b2o16bo11bo2bo116bo2bo
56bobo17b2o24b2o36b2o34bo3bo2b2ob2o7b6o17bo100b3o3b3o46bo46bobo$9b2o
15bo26b2o20bobo107bo6bobo171bo25bo2bo14bobo11b2o98bo19b2o43bo5bo7bo2bo
36b2o4b2o72bo2bo7b2o2bo4bo2bo5bo12bo155bo47bo$29b2o44bobo10b3o54bo46bo
2bo152bo5b2o9bobo24bobo15bobo111bo10bo15bo37bo5bo8b2o37bobo77b2obo11bo
3bo3bo5b2o6b3o2bo104bo50bo2b3o58b3o$29b2o45bo43bo23bobo46b2o53bo99bo5b
2o9bo2bo24bo17bo22b3o87bo10bo15bo6bo6bo23bo5bo48bo22b2o56b2o2b2o6bo3bo
3bo124bo110b2o$119bobo12bo13bo18b2o30b2o32b2o12bobo98bo17b2o62bo103bob
o14bo12b2o101b2o57b2obo11bo82b3o43bo105b2o2bo2bo$119bobo12bo7b3o3bo7bo
bo9b2o9b2o18b2o31bo2bo11bobo47b2o58bo71bobo11bo82b3o15b2o8bo2b2o4bo3bo
23b3o29bo8b2o93bo15b2o137b2o92b2o3b2o$7b2o111bo13bo7bo5bo6bo3bo18bo2bo
40bo10b2o13bo48b2o57bobo70bobo10bobo88b2ob2o6b2o3b2obobo2bo6bob2obo53b
o8b2o98bobo146bo2bo66b2o32bo$7b2o138bo4b2o2bo2bo19b2o40bobo131bo2bo71b
o11bobo13b3o72bo3bo19b2o9bo54bo107bo3bo145bobo67b2o31bobo$71b2o42b2o7b
2o4b3o3b3o3b2o3b3o4bo3bo63bobo25b2o104b2o85bo79b3o6b4o13b2o4bobo12bo
29bo131bo3bo145bo101bobo$71b2o41bo2bo5bo2bo15bo2bo2b3ob2o13bo15b3o37bo
25bo2bo280bob2obo17bo4bobo4b2o2bo27bo42b2o91bo25b2o165b3o53bo$15b2o90b
o7b2o7b2o8bo13bob2o14bobo6b2o73b2o284b4o6b3o13bo2b2o2bo2bo27bo41bo2bo
86bo3bo25b2o100b2o8b3o$14bo2bo89bo26bo22b3o7bo366bo3bo5b2o21bo75b2o87b
o2bo128b2o23b2o$14bobo90bo12bo13bo17b2o115b2o263b2ob2o5b2ob2o3b2o14bo
2bo56b2o103bo123bo14bo5bo10b2o$12b2obo64b2o37bobo29b3o115b2o272bo8b2o
14bo2bob3o3b2o47b2o148b2o31b2o44bo14bo5bo$11bo2bo28b2o34bo2bo36bobo5bo
21b3o3bo253b3o123bobo6b2o24bob2obo2b3o5b2o176bo12bo2bo30b2o44bo14bo5bo
$11bobo29b2o34bobo38bo5bobo18b4o4bo35bo264b2o78bo7b2o27bo3b2o7b2o35b2o
138bobo12bobo217b2o$12bo40b2o20b2o3bo45bobo7b2o9b3o5bo34bobo112b2o45bo
103b2o27bo18b2o30bo38bobo4b2o39b2o138bobo13bo94b3o65bo6b2o46bobo$52bo
2bo19b2o50bo8b2o53bo112bo2bo44bo67b2o19b2o42bo18b2o48bo20b3o186bo177bo
6bobo38b2o6bo$53b2o110b2o138b2o45bo67b2o19b2o42bo67b3o126bo159b2o9bo
27b2o43b2o14bo7bo39b2o$165b2o58bo326b2obo52bo20b2o50bobo157bobo9bo26bo
2bo25bo15bo2bo4b2o42b3o$5b2o106bo85b3o22bobo140b2o182b2o2b2o51bo20b2o
51b2o104b2o17bo34bo10bo27b2o26bo16b2o5b2o$5b2o106bo110b2o141b2o186b2o
51bo157bo21b2o16bobo60b2o38bo$113bo53b2o191b2o193b3o86b2o119bobo38bo2b
o59b2o89b2o$84bo81bo2bo7bo51b2o108bo20b2o105bo87b3o21bo51bo11bo2bo117b
o3bo38b2o20b2o74b3o3b3o33b2o6b3o2b2o$83bobo23b3o3b3o28bo20bobo7bo12b4o
5bo28bo2bo106bobo125bobo34b2o35bo11bob2o22bobo22b2o9bo15bobo11b2o13b2o
9b2o75b2o15bo2b2o6bobo51b2o19b2o49b2o44b2o70bo$83bobo60bo21bo8bo11bo2b
2o5b2o2b3o23b2o107b2o127b2o34b2o34b2obo3bo3bo2b3o22bobo21bo2bo8bo15bob
o26b2o9b2o73b4o15b2o2b3ob2o76b2o33b3o13b2o6bo77b2o9b2o18bobo$84bo28bo
32bo42bo8bo7bo80b2o148bo102bo2bo4b4ob2o24bo22bobo9bo16bo112bo2b2o19b2o
3b2o4bo10b2o117bo33b3o40bo2bo7bo2bo16bo2bo$20bo92bo76bo13bo2bo79b2o
148bo104b2o4bo2bo51bo98bo41b2o23bob4o5bo9b2o117bo77b2o9b2o18b2o$19bobo
51b2o2b2o34bo86bo2bo2bo24b2o160b2o31b3o8bo51b2o45b3o3bob4o2b2o149bobo
45b2o25bo2bo125b2o31bo36b2o$18bo2bo51b2o2b2o106b2o13b2obo27b2o159bo2bo
93b2o49bobo7b2o30bo108b2o8bobo35bobo2b3ob3o14b3ob2o7bo125bo2bo15b2o13b
o8b2o26b2o$19b2o163bo2bo12b2o2bo65b2o25bo46bo47bo2bo37b3o103bo10b2ob2o
26bobo98bo7bo2bo8bo36bo2bob3ob2o15b3ob2obo2b3o127b2o16bobo12bo8b2o$
114b2o4b2o50b2o11b2o15b2o66b2o24bobo45bo48b2o109bo34bo2bo9bo28bobo12bo
19bo40bo23bobo7b2o46bo2bo22b2o157b2o81b3o5bo5bo$83b2o29b2o4b2o50b2o90b
o31bo2bo44bo9b2o147bobo33bo2bo39bo12bobo18bo36bo2b3o22bobo13b2o7b2o33b
2o23bo107bo17bo33b2o24b2o61bo5bo$83b2o178bobo31b2o32b2o21bo147bo2bo34b
2o53bobo18bo34bobo3b2o23bo13bo2bo5bo2bo9b2o25b2o2b2o115b3o4b3o15bobo
25b2o5bobo23b2o29b2o30bo5bo$69b2o92b3o34bo63bo66bobo19bo16bobo4bo125b
2o91bo7bo46bobo43b2o7b2o10b2o25b2o4bo119b2o2bo16b2o4bo20bobo5b2o54b2o
7bo$42b2o24bo2bo71bo55bobo45b2o83bo20bobo13bo2bo5bo69bo155b2o44b2obobo
93b2o18bo86b3o16bo2b3o17bo21b2o70bo$21b2o19b2o25b2o18bo52bobo54bo2bo
43bobo104bo2bo2b2o8bo7b4o29b2o35bobo89bo5bo31b3o26bo44bo3b2o45bo64b2ob
2obo101bo5bo16bo23b2o68bo$21b2o32bo32bobo35b3o13bobo15b2o33b2o3b2o44b
2o107b5o2bo7bob2obob2ob2o27bo2bo35b2o89bo5bo54b3o2b2o5b2o38bo4b2o42bob
o61bo3b2o3bo37b3o56bo9bo40bobo9bo50bo$55bo32bo2bo39b2o10bo16b2o32bo2bo
27b2o50b3o9b2o62bo3bo16b2ob3o2bo27b2o127bo5bo55b2o8b3o87bobo61bo7bo15b
o82b2o6b2o41b2o8bobo49bo$46b2o7bo33b2o31b3o5bo2bo60bo2bo27b2o62b2o62bo
bo2bo4b2obo11b3o2bo134bo83bo8bo2bo43bo8b2o33bo63bo21bobo25bo55b2o60bob
o43b2o3bo$31bo13bo2bo30b2o50b2o5b2o7b2o46b2o157bo3bo6bobo12bo2bo48b3o
59b2o21bobo21b3o6b3o49b2o3bo49bo9b2o28b2o89bobo25bo54b4o4bo55b2o43b2o$
30bobo13b2o31b2o39bo5bo10bo2bo5bo2bo18bo20b2o105b2o32b3o25bo5b2obo14bo
111b2o21bobo77b2o2b3o2b3o2bobo2b3o33bo43bo2bo66bo22bo26bo27bo25b2ob2ob
2o38b2o70b2o$30bobo87bo5bo11b2o7b2o18bobo18b4o8b2o94b2o60bobobob3o151b
o78b2o2bo5b2o2bo3bob2o34bo3bo38bobo66bo4bo11bo60bobo69bo2bo65b2o2b2o$
31bo62b3o23bo5bo26b2o12bo2bo17bo3bo6bo2bo158bo12bobo66b3o154b2o4bo9bo
41b2o37bo67bo4bo10bobo28b3o27bo2bo27b3o13b2o25b2o6b2o58b2o$143bo8bo2bo
12b2o12b2ob2ob4o8b2o155b4o14bo39b3o95b2o7b2o63bo13bobo3bo47b2ob2o2b2o
101b5o11bobo59b2o20b2o3b2o2b2o13b2o33b2o$142bobo8bobo26bo2b3o171bo103b
o17bo30bo2bo5bo2bo61bobo13b2o3bo10bo37bobobo2bo92b2o7b3o14bo84b2o2b4o
85b2o57b2o$39b2o6b2o70b2o21bobo9bo30b2obo7bo180b2o83bobo15bobo30b2o7b
2o62b2o15bo8b2o3bobo37b2o4bo80b2o10bobo7bob2o98bo4b2o85b2o57b2o$7b3o
29b2o5bo2bo36b2o30bo2bo21bo15b2o26bo7bobo175b2o2b2o83bobo15bobo50bo77b
o2bo2bob2o24b2o9b4o2bo81b2o11bo8b4o100b3o45b2o30b2o$17b2o28b2o4bo31bob
o31b2o37bo2bo25bo7bobo176b2ob3o26b3o54bo17bo34b2o14bobo75b6o2bo26b2o
12b3o35bo69bo26b2o74b3o35b3o6bo2bo9b2o17bo2bo$17b2o34bo30bobo64b2o6b2o
35bo123bo58bo25bo3bobo74bo29b2o14bobo76bo2bo9b2o70bobo39b2o54b2o19bo
102b2o9bo2bo10b2o5b2o$53bo31bo65bobo46b2o10b2o15b3o8b2o77bobo4bo53b2o
23bo2bobobo72bobo45bo35bo42b2o9bo2bo69bobo15bo23b2o75bo3b2o30b2o53bo
23b2o10bo2bo$146b2o4bo47b2o10b2o26b2o18bo59bo4bobo51b2o25b2ob2o27b2o8b
o36bobo80bobo53b2o71bo15bobo17b3o37b2o40bo3b2o30b2o13bo39bo28b2o5bo2bo
$89b2o8b2o5bo39b2o79bo5bo26bo30bo33b2o74b4o5bo2bo23bo2bo6bobo36bo81bo
2bo141bobo35b2o113bo35bo3bo3bo24b2o6b2o46b3o$89b2o8b2o4bobo119bo5bo26b
o29bobo7bo99b2o2bo7b2o24b2o6bo2bo119b2o17b2o124bo35bo2bo7b2o103bo34bob
o6bo106bo$105bo2bo78b2o33bo4bo5bo57bo7bobo73b3o21b2o2bo7bo35b2o139b2o
19b2o5bo134b2o8b2o138bobo6bo47bo44b2o12bo$26bo79b2o79b2o32bobo32b3o3b
3o34bobo98bo2bo204bobo4bobo46b2o10b2o94b2o128bo54bobo14b2o27bobo11bo$
26bo29b3o151b2o9b2o6b3o68bo72bo5bo21b2o205b2o5bobo40bo4bo2bo9b2o48b3o
42bo2bo182bobo14b2o28bo$26bo183b2o48bo84b2o26bo5bo64b3o47b3o44b2o45bo
12b2o13bo41bo5b2o15b3o3b3o82b2o184bo53b2o$17b2o34b2o75b2o32b2o39b2o53b
o7b2o68b2o5b2o26bo5bo34b2o71b3o51b2o37b2o5bo2bo9bo2bo54bo65bo5bo7b2o7b
o28b2o22bo211b2o$16bo2bo8b3o22b2o75b2o32b2o39b2o31b2o20bo7b2o68b2o73bo
2bo146bo15bo2bo4bo2bo10b2o16b2o64bo5b3o30bo5bo7b2o6bobo27b2o22bo59b2o
29b2o60b2o7b2o$17b2o219b2o74b2o98b2o147bo15bobo7bo29b2o10b2o21b3o3b3o
22bo38bo5bo14bo2bo3b2o46bo59b2o28bo2bo58bo2bo5bo2bo$32b2o141b2o137b2o
35b3o50bo158bo16bo50b2o52bo60b2o3bo2bo41b2o51bo40bobo60b2o7b2o$4bo26bo
2bo97b2o37bo2bo2bo225bob2o251bo67b3o22bobo42bobo21b2o26bobo40bo9b2o80b
o5bo$4bo27b2o23b2o73b2o37bo3b2o8b2o53b2o18b3o105bo29bo7b2o250bo93bo44b
o22b2o2b3o17bo3bobo49bo2bo26b2o26bo24bo5bo$4bo52b2o105b2o5bo13b2o52bo
2bo124bobo27bobobo5bo207b2o36b2o3bo4b2o69b2o4b2o101bobo3bo51b2o27b2o
25bobo23bo5bo$96b2o66b2o21bo15b2o34bobo107b2o16bobo27b2o150b3o63b2o36b
2o8b2o69b2o4b2o57b3o28b2o12bo17b2o82b2o3bo5bobo$61b2o33b2o87b2o15bo2bo
34bo107bobo17bo33b2ob2o123b2o115b2o181b2o30b2o19b3o60b2o2bobo5bo26b3o$
46b2o13b2o122b2o16b2o51bo91b2o53b2o54bo70b2o22b2o4b2o3b2o9b2o68bo2bo
19b2o23b2o25b2o228b2o37bo$45bo2bo99b2o106bo78b3o65b2o18bo28bo5bobo93b
2o4b2o3b2o8bo2bo30b2o36b2o19bo2bo4b3o15b2o25b2o158bo5bo31bo70bo31bo$
46b2o18bo32b2o6bo39bo2bo59b3o43bo42bo64bo57bobo26bobo4bo2bo114b2o31b2o
58b2o210bo5bo30bobo56bo12bo30bobo$65bobo2b2o27b2o6bo14b2o24bobo148bo
33bo5bo22b2ob2o54bo2bo26bobo5b2o30b2o21b2o100b2o56bo206bo5bo30bo2bo55b
o33bo10b2o$65bobo2b2o35bo14b2o25bo17b2o86bo43bo33bo5bo22b3ob2o43b3o8b
2o21b3o4bo37bo2bo20b2o8b3o89b2o56bo4b3o37b2o198b2o56bo5b2o25bobo$66bo
45b3o21bo30bobo84bobo76bo5bo23b5o43bobo77b2o181bo43bobo162b3o49b2o46bo
bo24bobo$104b2o30bo31bo85bobo107b3o36bo7bo2bo28bo5bo89b3o141bo34b2o
215b2o47bo26bo4b3o$55b2o47b2o30bo118bo79b3o15b2o10bo15bo20b3o6b2obo28b
o5bo69b2o155b3o3bobo40b3o138bo155b2o$55b2o296b2o16bo7b2o20bo2bo7bo30bo
5bo69b2o160bo2bo181bo155b2o$132b3o3b3o8b2o219bobo29b2o8bobo117bo149b2o
4b2o23b2o121b3o27bo$11bo113bo23b2o68bo128b2o20bo2bo39b2o30b3o83bobo65b
o10bo77b2o22bo2bo91b2o117b2o41bo$11bo29b2o82bo10bo81bobo127b2o20bo125b
o21bo12bobo64bobo8bobo91b2o8b2o92b2o98b2o16bo2bo39bobo28b2o$11bo9b3o6b
2o8bo2bo43bo37bo10bo81bobo150bo27b2o87b2o5bobo19bobo12bo65bo2bo6b2ob2o
6bobo59bo20bo2bo82bo118b2o17b2o40b2o29b2o$30bobo8b2o43bobo47bo82bo178b
o2bo63b2o21b2o5b2o20bobo79b2o6b4o7b2ob2o57bobo20b2o82b3o97b3o$31bobo
52bobo221b2o59b2o25bobo64bobo50bo88b2o9b2o2b2o4b3o49bobo102bo3bo66b3o
23b2o3b3o$32bo54bo221bobo12b2o45b3o25bo10b2o54b2o99bo39b2obo7b2ob2o5bo
2bo49bo89bo13b4o6b3o35b2o45bo2bo2bo2b2o5bo33b2o26bo$64bo149b2o94bo13bo
bo45bob3o33b2o155bo40bob2ob3o2b2ob2o9b4o29bo18b2o27bo56bobo11bo47bo2bo
43bo3b2o6bo3bobo32b2o26bo25b2o$64bo48bo100b2o109bo44bobo194bo41b3o4bo
2bo2b2o4bo2bo17b2o14bo18b2o26bobo56bo12b3o45bobo44bo7bo3bo48b2o16bo25b
2o$64bo48bo85b2o67b3o85b2o11bo4bo239bobo2b5o4b3o14b2o2b2o14bo46b2o16b
3o52b2o46bo47bobobobo7b2obo10bo30b2o37bo$113bo38b2o45b2o6b2o45bo100bo
2bo11bo2bo52b2o70bo28bo86bo2b3obo2bo20b2o41bo173b2o19bobo3b2o5bobo10bo
44b3o3b3o15bobo$67bo83bobo53b2o44bobo47bo52b2o13b3o52b2o70bo28bo78b2o
9bobo5bo41b3o17bobo38bo5bo127b2o22bobo7bo2bo9bo18b2o48bo2bo13b2o$66bob
o83bo35b2o5b2o56bo2bo6bo38b3o193bo28bo78b2o4b3ob2obo2bo2b2o61b2o38bo5b
o139b2o19bo3b2o26bo2bo27bo20b2o14b2o17b2o$2b2o63b2o119b2o5b2o57b2o7bo
37b2o2bo233bo39b2o30bo3bobo2bo3b2o102bo5bo68b2o20b2o25b2o20b2o20bo2bob
2o25b2o4bo23bo54bo2bo$bobo67b2o190bo37b2obo125b3o90b3o3b3o6bobo30bo7b
2o4bo25bo3bo6b3o177bo2bo19b2o25b2o43b2o3b2o16b2o12bo7b2o2b2o10bo36b2o
17b2o$2bo68b2o174b2o27bo22bo2bo199b2o10b2o22bo2bo28bobo11bobo25b3o8bo
31bo74b3o70b2o36b2o59b2o17bo12bo7b2o2b2o47bobo$153b3o91b2o27bo22bob3ob
2o121bo5bo61b2o3bo2bo9b2o23b2o17b3o9bo2bo9bo2bo68bo185b2o153bo$13bo
262bo22bob2ob3o87b2o32bo5bo61b2o4b2o67b2o5b2o4b2o69bo132b2o18b2o54bo$
12bobo63bo222bo2b2o21b2o64bo2bo14b2o15bo5bo121bo5bo15b2o100b3o83b2o19b
o2bo17b2o53bobo51bo5bo$12bobo12bo49bobo78b2o26b2o112bo26b2o45bo19bobo
14b2o112bo21bo8bo5bo40b2o126b2o33b2o20b2o27bo45bobo13b2o35b2o5b3o33bo$
13bo13bo48bobo78bo2bo24bo2bo72bo38bo2b2o68bobo19bo58b3o67bob5o15b3o7bo
5bo4b2o33bobo79bo45bo2bo66b2o14bobo45bo8bo5b2o34bo2bo2bo3bo32bobo$2o
25bo11b3o33bobo80b2o26b2o72bobo37b2ob2o68bo2bo146bo6bo14bob2o18b2o34bo
80bo45bo2bo66b2o15bo55bo41bo4bo3b2o32b2o39bo$2o74bo183bobo14bo23b5o68b
2o44b2o101bo3bob2o5b2o7bo7bo4b3o123bo5b3o38b2o140bo42bo3bo77bobo$10b2o
11b3o83b2o150bo14bobo24bob2o18b3o28b3o60bo2bo5bo5bo88bo12b2o5b3o5bobo
77bo176b2o111bo16bo60b2o$10b2o86bo10b2o145bo19b2o26bo115b2o6bo5bo89bo
2b2o13bobo4b2o2bo77bo104bo71bobo65b2o52bo7bo$97bobo37b2o116bobo46bo2bo
69b2o25b2o22bo5bo90b2o2b2o10b3o73b2o12bo103bobo71bo42bo22bobo52bo7bo
39bo$41b2o54bobo37b2o117b2o41b2o4b4o68b2o24bobo123b2o7b3o2bo48b2o23b2o
116bobo86b2o25bobo22bo53bo46bobo$40bo2bo13b2o39bo199bobo3b2o3b2o35b2o
36b2o18bo25b3o96b2ob4o7bo37b2o9b2o79bo62bo87b2o24bo2bo123bobo$27b2o12b
2o14b2o42b3o68bo100b2o23bo5b3o38bo2bo35b2o145b2o2bo8b2o2b2o30bobo90bo
177b2o52b2o71bo$27b2o4bo137bobo99b2o23b2o3bo41bo2bo17bo54b2o34b2o69bo
3b4o12b2o26b2o4bo90bo30b2o198bo2bo19b2o$32bobo64bo5bo65bobo130bo2bo38b
2o9bo7bobo53b2o34b2o44bo24bo20bo25bobo121b2o3b2o199b2o20b2o$31bo2bo64b
o5bo66bo130bo2bo50bo6bo2bo34b3o85bo12bo24bo20b2obo21b2obo120bo2bo229b
2o6bo75bo$32b2o65bo5bo197b2o52bo7b2o46bo75bobo11bo46b2o10b2o10b3obo
120bobo229b2o5bobo74bo$69b2o90b2o24bo91b2o20b2o97bo5bo5bobo46b2o26bobo
69bo2bo11b3o55b2o9bo54bob2o77b2o89b2o64bo2bo73bo$69b2o90b2o24bo44bo46b
2o21b3obo17bo75bo5bo4bo2bo27b2o17b2o27bo71b2o18b2o50b2o9bo55bo2bo29b3o
43bo2bo87bo2bo39b2o23b2o62b3o$20b3o164bo23bo14bo4bobo53bo15b3o17bobo
74bo5bo5b2o27bo2bo137b2o61bo6b2o48bobo76b2o18bo70b2o39bo2bo$35b3o25b3o
143bobob2o10bobo3bo2bo52bo35bobo116b2o4bo15b2o19b2o7b2o156b2o49bo13b3o
12bo5bo61bobo111b2o63b2o$18bo5bo183bo4b2o10bobo4b2o53bo7bo28bo77b3o42b
obo14b2o18bo2bo5bo2bo11b2o63bo10bo147bo5bo61bobo151b2o22bo2bo$18bo5bo
20b3o13bo74b2o71bobobo12bo68bo11b2o11b2o37b2o86b2o10b2o24b2o7b2o12b2o
62b2o9bo2bo128bo16bo5bo30bo31bo56bo47b2o6b2o39b2o22b2o$18bo5bo36bo74b
2o35bo12bo24b2o82bo11b2o11b2o37b2o97bo2bo111b2o7bo25bo106bo52bobo86bob
o54b2o38bo$43bo5bo11bo86b2o23bo11bobo271bobo28bo79bo2b3o6bo3bobo18bobo
5b2o57b2o17b2o20bo18b3o31bobo87b2o$20b3o20bo5bo97b2o24bo11bobo6b2o44bo
219bo28bobo78bobo2b3o4bobo3b2o16bo2bo4bobo28b2o27b2o17b2o74bo92b2o$43b
o5bo13b3o82bobo15b2o18bo7b2o44bo99b2o92bo54bobo79bo3b3o7bo2bo18b2o6bo
28bo2bo213bobo$37bo48bo63b2o14b2o72bo38b2o58bo2bo90bobo21b2o31bo91b5ob
o27b4o25b2o151bo63bo$37bo7b3o37bobo55bobo3bobo29b2o7b2o87b2o27b3o7b2o
20b2o91bobo21b2o7b2o76bo37bo3bob2o26b2o2bo41b2o99b2o33bo102b4o$19b2o
16bo47bo2bo54bo2bo2bobo28bo2bo5bo2bo18b3o22b3o3b3o73b2o114bo31b2o76bo
31bo5bo6bo25bo4bo32bo8bobo32b2o64b2o33bo101bo4bo112bo$18bobo65b2o52b2o
4bo34b2o7b2o16bobob3o91bo5bo49b2o180bo6b2o23bo4b2obo33bo33bobo8bo32bo
2bo201bo18b2o95bobo$19bo9b3o108b2o2bobo4bob2o52bo5bo26bo65bo5bo49b2o
65b2o7b2o111b2o29b2o68bobo42b2o95b3o3b3o43bo54b2o2bobo12b2o95b2o$2o
139bo12b2o18bo32bo2b4o2bobo12bo8bo65bo5bo115bo2bo5bo2bo121b2o19bo26b2o
41bo101b2o88bobo57bobo100bo$2o21bo54b2o62b5o3bobobo19bo10b3o21bo8bo12b
o8bo77b3o18bo15b2o72b2o7b2o121bobo53bo137b2o41bo47b2o20b2o19b2o15b2o
99bobo$23bo35b2o17b2o55b4o4b5o4bobo19bo8b2o4bo20bo8bo11bo106bobo14b2o
152b2o49bobo53bobo51bo127bo22bo8bo37b2o19b2o23b2o18bo72bobo$23bo35b2o
73bo4bo4bob2o4b2o29bo5bo20bo6b2o36bo82bobo126bo40bo2bo49bo27b2o22bo2b
2o27b2o22bobo126bo21bobo6bobo57b2o23b2o9b3o5b3o72bo$17b2o92bo21b2o4b2o
10bo18b3o3b3o4bo5bo22bob2ob2o8b3o109bo126bobo40b2o22bo55b2o23b3o27b2ob
o20bobo47b2o99bo2bo6bobo57b2o4b2o35bo2b2o3b2o37b2o$17b2o91bobo20b2o4bo
44bo4b2o208b3o64bobo63bobo80bo3b2o27bo20bo48b2o28bo71b2o8bo56bo2bo4b2o
35b2obo4b2o36bo2bo$26bo84bo20b6o3b2o42bo3b2o19b2o181b2o72bo31b2o31bobo
36b3o44bo2bo21b2o3bo98bobo136bo3b2o87b2o$25bobo106bo2bo3bo7bo37b3o19bo
2bo44b3o64b2o59b2o6b2o54b2o48b2o19bo5b2o5bo32b3o2bobo11b3o30bobo21bo3b
2o39b2o40b2o4b2o10bobo74bo62bo3bo42b3o$26b2o110b2o7b2obo37bo21bobo44b
2o14b2o48bo2bo19b3o36b2o33bo27bo2bo3bo63bobo4b2o38b6obo45bo18b2ob2o4bo
30b2o6bo2bo39b2o4b2o11bo27bo47bo62bob2o45bo$17b3o120bo5bo2b3o59bo45bo
15b2o49b2o93bobo27bobo2bobo63bo9b2o32b3obobo2bo9bo5bo39b2o7b6o3b3o28b
2o7b2o86bobo34bo11bo31b2o5b3o22b2o42bo3b2o68b2o$125b2o16bo2bob4o36b3o
228bobo28bo4bo40b2o32bobo36bob2o10bo5bo15bo22bo2bo8b3o3bo3bo106b2o16bo
2bo32bobo4bo37b2o72b2o4b2o67bo2bo$21bo103b2o15bobobo9b2o29bo3bo81b2o
119bo25bo49b3o22bo2bo32bo33bobo7b3o5bo5bo15bo23b2o9bo5bo3bo105bo2bo16b
2o33bobo4bo69b2o2b2o36b2o2b3o69b2o$21bo25bo19b2o72b2obobob2o5bo2bo28bo
3bo15b2o64b2o44bo74bo19bo45bo35bobo67bo8b2ob2o25bo28b4obo6bo3bo22b2o
71b2o9b2o53bo5bo70bo2b2o11b2o23b2o2bo47b2o$21bo24bobo17bo2bo39b2o17b3o
11bob2o12bo28bo3bo14bo2bo108bobo73bo18bobo43bobo35bo13b2o53bo5bo3bo2bo
5b3o48b4o7b3o22bo2bo69bo2bo140bob3o11b2o75b2o$46bobo18bobo39b2o32bo6bo
4b2o31b3o16b2o109bobo36b2o55b2o32b2o8bo2bo48bo2bo45b2o11b2o3b3o55bo2b
2o32bobo71b2o66b3o5b3o40b2o3b3obo37b2o48b2o$47bo20bo74b2o4bobobo105bo
49b2o8bo5bo31bobo30b3o3b3o38bo10b2o9b2o50b2o59bo47b2o15bo35bo194bo2bo
3bo36b2o10b3o35b2o36b2o$90b2o50b3o5bo3bo103bobo3bo43bo2bo13bo3b2o27bo
78bo163bo18b2o80bo28bo131bo3b6o11bo2bo10bo101b2o$90b2o50b3o5bo107bob4o
bo31b2o10b2o13bobo2b2o63bo28b2o12bo123bo38bobo98bobo27bo131bo3b2o3bo2b
o11bo8b4o$143bobo6b2ob2o102bo2b2ob2o7b2o16b2o3b2o95bo28b2o135b4o21bo
14bobo22b2o21b2o24b2o25bobo27bo111bo27b2o10bobobo12bo$8b2o96b2o36bo10b
o3bo26bo18b3o16bo37bo2bo7bo2bo15b2o100bo38b3o3b3o21b2o94bobo2bo20bo15b
o23b2o21b2o23bo2bo25bo140bo21bo2bo3b2o8b4obo10bo$8b2o95bo2bo45b2obo2bo
24bobo16bo3b2o13bobo37bo10b2o45b3o138bobo93b3o2b2o20bo87bo2bo166bo21bo
2bo12b2o5bo6b2ob2o26b2o94b2o$106b2o52bo24bobo16bo3b4o11bobo14b2o18bo
42bo17b2o114bo25bo95b2o2b2o31b2o7b2o67b2o15bo142b3o11b2o16b3o13bo4bo5b
obo30b2o94b2o$58b2o51b2o41bo4bo26bo23b3o11bo8b2o5b2o18bo3bo38bo16b2o2b
o49bo62bo125b2obo28bo2bo5bo2bo82bobo24b2o64bo55b2o7b2o34bobo6b8o17b2o
44b2o46b2o$57bobo51b2o11b2o27b2o51b2o25b2o24b2o3bo18bo19bo17bob2o48bob
o61bo45b2o78b2ob2o28b2o7b2o83bobo24b2o64bo55b2o53b7o17b2o43bo2bo44bo2b
o$8b2o48bo65b2o23b3o2bo8b2o42b2o56bo16bobo37b2o49b2o69bo38b2o21bo57bo
6bob2o2bo2b2o77bo31bo91bo93bo18b3o46bo18b2o46b2o$8b2o18b2o2b2o114bob3o
10b2o10b3o31b2o53bo17bobo14b3o3b3o88b2o31b3o12bo61bo38bo19b2ob4o4bo2bo
2b2o17bo56b3o94b2o13b2o105bo67bo$28b2o2b2o47bo65bo4b2o21bo33b4o16b2o
36b2o14bo112b2o46bo61bo37bobo21b3o5bo2b2o19bobo55b4o93b2o13b2o173bo$
81bo70bo23bo33bobo16b2o35bo2bo33bo240bobo22bo4bo4b2o3bo15bobo82b2o$63b
2o16bo66bo3b2o18b2o37b2o54b2o34bo30b2o20bo84b2o59b3o3b3o34bo33b2o3bo
16bo47b2o9b2o22bo2bo105b2o81bobo115b2o$63b2o31bo52bo22b2o24bo104bo30bo
bo19bo62b2o20b2o27bo60b2o36bo10bobobo49b2o13b2o6bob2o24b2o26bo79b2o81b
2o116b2o$6bo70b3o3b3o9bobo52b3o13b2o30b2o97bo37b2o19bo62b2o49bo17b2o
16bo24b2o25bo9bo15b2o48b2o13bo3bo3b3o52bobo146b3o42b2o$6bo88bobo68bobo
3b2o18b2obo3bo52b2o19b2o21bobo171bo17b2o16bo11bo39b3o7bo7bob4obo66b2ob
o4bo53bobo5b2o148b2o7b2o25b2o79bo$6bo74bo14bo70bo4b2o18bo3bo3b2o5bo44b
2o18bobo21bobo200b2o5bo9b2o39bo3bo8bo5bo3b4o39b2o26bob2o14b2o42bo6b2o
27b2o119b2o7b2o105bobo$27bo53bo80b3o26bo5bo3b2o4bo65bo23bo38bo46b2o
114b2o16b2o35b3o4bo7b2o5bo5bo39bo2bo28b2o13b2o6b2o70b2o28b2o205bobo$
26bobo52bo82bo3b2o22bo3bo3b2o5bo127bobo45b2o66bo5b3obo22bo69b3obob2o6b
obo11bo40b2o30bo21b2o100b2o47b2o157bo33b2o$26bo2bo134b3o3bo20b2o136bo
6bobo111b3o4b2o2b2o21bo69b2o3bo8b2o85bo172b2o190bobo$27b2o135bo4bo22bo
4bo88bo41bobo6b2o111b2obo2bo2b3o16b2o4bo63b2o16bob2o38bo263bo6bo53b2o
86bo$143b2o20bob2o24b3o22b2o4b2o3b2o5b2o13bo9b2o23bo41bobo50bo42b2o23b
2o2b2o2b4o17b2o68b2o15bo6bo2bo31bobo136b2o124bo6bo35bo17b2o$143b2o15b
2o4bo41b2o8b2o4b2o3b2o5b2o12bobo8b2o23bo42bo12b2o36bobo40bo2bo23b4o4b
2o45b2o58bo2b2ob5o13b2o16bobo136b2o124bo6bo34bobo72bo$160b2o46b2o41b2o
36b2o3bo47b2o36bobo36b2o3bobo23b3o40b2o10b2o59b3o2b3o15b2o17bo93b2o
205b2o3bo2bo71bo30bo$112bo38b2o86bo42b3o4b2o3bo23b2o12bo14b2o32bo30b2o
5b2o4bo12b2o40b2o10bo2bo115bo90b2o164b3o22b2o13bo2bo3b2o72bo30bo$45bo
57b2o6bobo19b2o16b2o51b2o33bo6b3o45bo22bobo11bobo13b2o63b2o24b2o22bo
16bo2bo10b2o67bo48bo111bo4b2o154bo8b2o14b2o42b2o65bo$44bobo9b2o45b2o6b
obo19b2o69b2o33bo46bo17b3o11bo11bo2bo35b2o61bo12b2o14bo18bobo78bobo47b
o61b2o14bo16b2o15bo4b2o142bo6bo3bobo18bo48b2o36b3o$44bobo9bobo53bo60b
2o34b2o25bo5bo43bo3b2o4b3o32b2o36bobo60bo11bo36bo79bobo98bo10b2o13bobo
14bo2bo14bo112b2o34bo6bo2bo2bo17bobo$45bo11bo22bo91bo2bo33b2o24bobo3bo
bo42bo3b2o10bo5bo61bo61bo11bobo115bo12bo85bobo24bobo15b2o10b2o116b2o
34bo6bo3b2o18bobo83bo$79bobo34b2o55b2o14b2o2b2o40bobo3bobo50bo7bo5bo6b
2o26b2o21b2o33b3o4b2o33bobo31b2o96bo85bobo25bo27b2o28bo117b2o37bo16b2o
66bo25b2o$79bobo34b2o63bo3bob2o3b2obo23b3o14bo5bo13b2o36bo7bo5bo6b2o
26b2o20bo2bo39b2o34b2o2b2o15bo11b2o3b2o91bo67b2o17bo56bo26bobo116b2o
54b2o66bo25b2o$80bo73b2o24bo2bob2o6bo26b3o6bo26b2o36bo71b2o37bo38b2o3b
o9b2o4b2o8bo3bo2bobo157bo2bo100bobo99b2o90b2o$29b3o122b2o27b2obob4obo
35bo9b2o81b2o81bo53b2o3bob2o7bo8bo12b3o17bo109b2o14b2o102bo96bo3b2o90b
2o18bo6b2o$178bo2bobo5bob2o36bo9b2o41b2o38b2o39bo25bo15bo58bobo8bo8bo
31bobo108b3o145b3o47b2o16bobo113bobo5b2o$178bo2bo3b2o3bo13bo72b2o3b2o
44b2o32bobo23bobo37b2o12b2o20b2o11b2obo2bo33bo38b2o71bo62bo81bo2bo47b
2o16bobo58bo54bobo$63b2o113bo2bo8bo12bobo19b3o3b3o43b2o49b2o32b2o24b2o
37bobo12b2o112b2o65b3o5bo24bo34bobo80bo3bo65bo58bobo54bo10bo16bo$62bo
2bo113bo5bo17bobo220bo2bo192b2obo29b4o25b2o6bo81b3o2bo123b2o65bobo14bo
bo$63b2o139bo24bo195b2o124b2o70bo2bo27bob3o24bo2bo10b2o7b2o59b2o8b2o
192bo15b2o5bo2bo$130b2o49bo47bo193b2o2bo123b2o52b2o17b2o3bobo11b2o8b2o
29b2o10bo2bo5bo2bo58b2o7b2o216bo3bo$130b2o50b3o44bo8b2o185bo40bo124b3o
11b2o13b2o2b2o3b3o10bo2bo7bo2bo40b2o7b2o49b3o9b3o78bo142bo3b2o$33b2o
25b2o7bo84b2o81bo2bo226bo145b2o5b2o7b2o12b2o9bobo192bobo10b3o128bob4o$
33b2o24bo2bo5bobo76b2o5b2o31b2o49bobo15b2o37b2o79bo82b2o6b5o16b2o11b2o
37bo35bo36b2o18b3o19bo46bo44b2o100bobo141bobo$5bo53bobo6bobo76b2o25b3o
9bo2bo49bo16b2o5b2o30b2o78bobo81b2o8b3o16b2o10bobo37bo34bobo79b3o41bob
o42bobo33b2o66bo140bo5b2o$5bo54bo8bo52b2o63b2o73bo2bo86b2o21bo2bo60b2o
28b2o30bo38bo33bo2bo77bo3bo33b3o5bobo19b2o20bobo33bobo129b3o75b2obo2bo
$5bo115bo2bo53bo84b2o39b2o7bo38b2o22b2o48b2o11b2o126b3o5b2o78bo2bo43bo
20b2o21bo34b2o208b2o4bo$82bo39b2o54bo125b2o6bobo110bo2bo136b3o2bo53bo
30b3o33bo87b2o120b2o72b3o15bo2bo$81bobo94bo133bobo72b2o36bobo4b2o43b2o
21bo61bob3o3b3o50b2o3b2o61bo86bobo5b2o32b2o79b2o17bo72b3o26b2o$71b2o9b
2o198b2o29bo73bobo18bo15b2o6b2o42bo2bo4bo14bobo60b3o3bob2ob2o47b2obo2b
obo60bo51b2o33b2o5bobo32bobo97bo77bo5bo17b2o$46b2o23b2o42b2o161b2o2b2o
104bo18bobo14bo9b2o32bo8bobo4b2o12b2o68bobo4bo47bobo2bob2o24b3o61bo17b
2o2bo2bo21b2o16b2o34bo98bo77b2o5bo$45bo2bo44bo20bo2bo45b3o112b2o51b2o
74bo2bo16b2o5b2o18bo11b2ob2o7bo4bobo56b2obob2o15b3obo2bo41bo10b2o3b2o
24bo2b2o44bo6b2o6bobo16b2o2bobo13b2o7b2o14b2o208b3obob2o2b2o$46b2o44bo
bo20b2o147bo66b2o49b2o24b2o17b2o24bobo11b5o12bo23bo33bo5b2o14b4o3b2o3b
o35bobo14bo29b2o42bobo5b2o7bo22bo14b2o22bobo100bo6b2o98bo8bob2o$30bo
50b2o9bobo128b2o34bo3bobo2b2o16b2o37bo56b2o43b2o25b2o16b4o16bo7bo2bo3b
obo29bo3bo2b2o2bo20bob3o37bo42bo2bo43bobo23b3o50b2o41b2o57bobo5b2o98bo
7bo$30bo29b2o19b2o10bo129b2o34bo3b2o3b2o16b2o37bo98b2obo44bobo16bobob
2o4bo6bo29bobo4bobo2b2o18b3obo81b3o45bo23b3o76b3o14bo2bo56bobo86bo26b
2o$30bo29b2o197bo65bo69b2o28b3o44bo2bo14bo2bo3bo41bo32bobo15bo65bo168b
2o58bo29b2o3b2o37b2o11bo17b2obobo2b2o2b3o$18b3o77b2o213b2o80b2o29bo20b
2o23bo17bo2bo8bobo30bobob2o8bo21bob2o14bobo63b2o51b2o45b2o148bo6bo4bo
24b2o15b2o10bo4b2o11bobo5b2o3bobo$3b2o21b3o3b3o62bo2bo211bobo132b2o23b
o2bo15bo2b3o5bo2bo29b3o6bobo2bo22b2o15bobo59bo2b3o27bo22bo2bo43bo2bo
146bo6bo3b2o25b2o28b2o3bo11bo3bo5bo2bo2b2o$3b2o93b2o143b2o66bobo38b2o
119b2o17bob2o6bo2bo23bo5bo3bo4bo2bob9o5b2o7bo6b2o9bo7b2o40bo11bo3bo26b
obo22b2o45b2o141b2o3bo3b3o4bo60bobo11bobobo3bo6b3o9b2o$30bo6b3o53b3o
11bo127bo7b2o67bo39b2o138bobo9b2o23bo7b3o3bo2bo2bo4b4o5b2o14b2o17b2o
39bobo10b4o28bo86b2o125b2o3bobo3b2obobo60b2ob3o9b3o5b3o3bo2bo7bo2bo$
30bo75bobo108b2o8b2o5bobo19b2o164b2o68b2o34bo8bobo3bo2bo2bo5bo83bobo
62b2o65b2o131bob2o5bobo7b2o52bo2bo13b3o3b2o2bobo9b2o$30bo75bo2bo106b4o
7b2o5bobo19b2o164b3o30bo87bo2bobo2bobo4bo49b2o30bo62bo2bo200b4o3b2o6b
4o51bo4bo14bo2bo3b3o$3b2o102b2o107bo4bo13bo59b2o2b2o3b2o26b2o82bo2bo3b
2o30bobo69bobo3bobo2bo4bo2bo4bo2bo3bo48bo2bo17bo75b2o149bo52b2o5b2o3b
2o23b2o15bo14b2ob3o2b4o$3b2o111b3o97b2o3bo73b2o8b2o25b2o83b3o35b2o52b
2o16b3o3bo2bobo7b2o60b2o17bobo33bo22b2o55b2o44b2o63bobo58b3o2b2ob2o20b
2o15bo18bob2o2b2o3b2o3b2o3bo$21bo70b2o115b2o6bo4bo69bo7b4obo11bo99b2ob
2o85b2ob2o14bo2bo13bo45b3o35bobo32bobo21bobo54b2o43bo2bo62bobo24bo32b
2obo3b3o65bo2bo3bo6bo4b2o$20bobo49b2o18b2o26bo64b2o22b2o6b2ob2o69bobo
5bob3o2bo9bobo98b3o87b2obo7b3o6b3o6bo6b5obo18b2o58bo33bo2bo21b2o75b2o
22bobo64bo24bobo30b2obo65bo4b2o2b2ob2o5bobo3b3o$19bo2bo49b2o46bo64b2o
22b2o6b2ob2o69bo2bo4bo2b2o2bo12bo96bobobob2o32bo32b2o15bo3b2obob2o11b
2o8bo28bo2bo92b2o18bo74b2ob5o23bo54b2o34bobo31bobo30bo37b3o3b2ob2o6b2o
$20b2o98bo68b2o18bo7bo74b2o5bobo2bo5bo105bobobo3bo30bobo30bo2bo15b2o4b
o7bo7b2o2b2o33b2o112bobo7b3o10b2o54bo4b2o14b2o42bo17b2o35bo24b2o30b2o
7bo9b2o4b2o15bo4bo7bo$3b2o73b2o65b2o22bo19b2o15b2obo2bo5bo86b3o3bo5b2o
4b3o89bo2b3o2bo31bobo31b2o22bo7bo7b3o2bo3bo61b2o3b2o40bo34bo2bo18bobo
50bo5bo3bo14b2o41bobo78b2o9b2o19b2o7bo8bo2bo3b2o14bo3bo$3b2o73b2o36b3o
26b2o22bo39bo7bo88bo4bo3b3o6bo58b2o31bo4b2o33bo57b2o5bo3b2o8bo50b2o12b
2o3b2o26b2o12bo35b2o19b2o51bo9bo57bobo87bobo39b2o20bo20b2o17bo$38bo
130bo7b3o18b2o9bo2bo61b2o31bo10b2o3bo5bo52bo2bo14b2o44bo38bo23b2obo4bo
4bob3o2bo4bo30b3o18b2o45b2o12bo54b2o53b2o6b2o59bo4bo167bo2bo16bo$38bo
21b2o136b2o10b2o62b2o32bo19bobo51bo2bo14b2o43bobo36bobo20bo3bob2o7b3ob
obobo2b2o121b2o43bobo5b2o13b3o37bo15bo50bo50b2o32b2ob2o21b2o38b2o15bo
2bo16bo$38bo20bo2bo102b3o3b3o30b2o92bo19bo9bobo52b2o60bobo36bobo22b3o
6b3o2bo2bo4b2o2bo119bo2bo42b2o5bobo49bob2o3bo12bo50bo50b2o34bo23b2o56b
2o$60b2o142b2o25b2o65bo21bo8bo77bo38bo38bo24bo6bo4b4o4bo2bobo104b2o8bo
5b2o50b2o51bo4bobo11bo137bo102b3o$29bo132bo6bo61b2o65bo21b2o27b2o56bo
118bo2bo4bo104bo2bo7bo55b2o58bobo83b2o$28bobo33bo96bobo5bo131b3obo13b
2o27bo2bo55bo17b2o14b2o7b2o118b3o67b2o8bo54bobo59bo8b3o3b3o12bo54b2o
165bo$28bobo32bobo12bo82bo2bo4bo94bo8b2o26b4obo23bo18b2o74bobo12bo2bo
5bo2bo252b2o10b2o77bobo62bo94b2o61bo$29bo33b2o12bobo82b2o99bobo7b2o26b
o3b2o23bo72b3o3b3o14bo14b2o7b2o116bo5bo47b2o86bo6b2o61bo15bobo62bo24bo
5bo62bo2bo60bo$68b3o7bo15b2o122b2o43b2o36b2o2bo24bo178b2o57bo5bo47b2o
86bo49bo19bo16bo51bo11bo24bo5bo24b2o37b2o$93bo2bo121b2o82b3o42b2o17b2o
39bo15b2o21bo62b2o41b2o14bo5bo79bo16b2o37bo22b2o25bo19bo10b2o55bobo35b
o5bo23bo2bo$73b2o19b2o207bo42bobo17b2o39bo14bobo20bobo100b2o2b2o99bobo
15b2o53b2o5b2o25bo30b2o5bo49bobo66b2o42bo37b2o9b2o$26bo46b2o167bo34b2o
7b2o59bo59bo9b2o4bo21bobo100b2o10b2o8b3o72b3o5bobo70b2o69bobo40b2o3bo
3bo38b3o44b2o23bobo36b2o8bo2bo$26bo63bo109bo39b2ob2o25bo6b2o7b2o129b2o
27bo113b2o92bo10bo39bo91bo2bo39b2o3bo89b2o23bobo17b2o28b2o$26bo62bobo
108bo42b2o24bobo392bobo38bo92b2o14bo30bo24b2o89bo18b2o32bo$89bobo108bo
39bo4bo24bo393bobo10b2o26bo108bo55b2o134b2o6bo$90bo58b2o9b2o74b2o7bo
107bo232bo78bo11b2o84b2o49bo10b3o7b3o42b3o123b2o6bo$132b2o15b2o9b2o25b
2o47b2o4bobo107bobo133b3o95bo58b2o115bo2bo220b2o22b2o$132b2o52bob2o10b
2o41bo32b2o74b2o25bo206bo58b2o116b2o13b2o13bo39bo5bo66bo78bo2bo20bo2bo
$188b2o9bobo74bobo33b2o64bobo95b2o188bo87bo23b2o12bobo38bo5bo39bo25bob
o70bo7b2o22b2o$27b2o30b2o126bobo10bo76bobo32b2o65bo96b2o187bobo86bo36b
o2bo38bo5bo30b2o6bobo5bo18bobo51b2o17bo$27b2o30b2o122bo72b2o20bo15b2o
118b2o157bo38b2o51bobo62b2o22bo37b2o75bobo7b2o5bo19bo52b2o17bo$37b2o
45b2o7b2o37b2o26bo21bo2bo59b2o4bo4b2o36b2o102b2o14b2o16b2o59bo79bo38b
2o52bo50b3o10b2o103b3o31b2o15bo58b3o$36bo2bo44b2o7b2o36bo2bo3b2o20bo
21b3o60b2o3bobo21bo123b2o31bobo58bobo78bo61b2o132b2o17b2o$37b2o93bobo
3b2o20bo22b3o65bo19b4o157bo59bobo102bo37b2o84bo29b2o16b2o4b2o10bo2bo
74bo16b3o3b3o52bo5bo57b2o$106b3o24bo113b4o19b4o219bo91b2o9bobo122bo29b
2o21bo2bo10b2o32b2o40bobo76bo5bo18b2o26b3o8b2o$66bo183bo18b2o2bo3bo
306bo2bo7bo2bo36b2o66bo17bo35b2o16b2o45b2o40bobo19bo56bo5bo12b2o4b2o$
29b2o34bobo201b2obo3bobo206b2o98b2o9b2o37b2o65bobo52b2o106bo20bo74bo2b
o$29b2o34bo2bo150b3o6bo21bo20b5o2bo75b2o26b2o100bo2bo126bo87b2o104bo
77bo7b2o49b3o14b2o$56b2o8b2o37bo113bobo5b2o16bobobo22b2o2b2o75bo2bo24b
o2bo100b2o30bo47b2o46bobo118bo34b2o18b2o16bobo34b2o48b2o100b2o$25bo30b
2o24bob2o7bo11bo93bo18b2o3b2o2bo3b2o10b2o3b2o23bo2b2o76b2o25bobo117b3o
8b2o3bo46bobo9bo37b2o101b2o14bobo32bo2bo16bo2bo14bo2bo33bo2bo148bo2bo
4b2o$25bo10b2o43b2ob2obo4bobo10bo93bo18b3obo4bo2bobo10bob2obo23bo3bo
105bo129b2o3bo47bo9bobo138bo2bo13bobo33b2o18b2o16b2o34bobo150b2o5b2o$
2o23bo10b2o26bo15b4o3b2o4b2o104bo19bo6bo3bo2bo9bo4bo23b2obo57b2o164bo
5bo70bo18b2o120b2o15bo68bo40bo$2o61bobo13bo2bob5o10b2o115bo3b3ob2o9b2o
7bobo24bo38bo22b2o5b2o157bo5bo16b3o69bo2bo196bo7bobo143b2o18b2o$64bobo
13b3o4bo10bo2bo41b3o70bo4bo9bo3b2o6b2ob2o22b2o2bo34bobo28b2o3bo153bo5b
o16b3o2b2o66bobo60b2o35bo33b2o7b2o53bobo6bobo111b2o30b2o17bo2bo$65bo
15b2o3bo12b2o115bo14b4o8b2ob2o22bo3bo33bo2bo32bobo29b2o80b3o62bob4o67b
o15b2o44b2o34bobo31bo2bo5bo2bo52bobo7bo112b2o50b2o14b2o$43b2o38b2o62bo
52b2o43bo25b2o13b2o21b2o33bobo28bo2bo44b2o76b3o20b2o86b2o33b2o45bo2bo
31b2o7b2o54bo128bo60b2o16b2o$15b3o25b2o102bo11b2o39b2o23b3o57bo2bo56bo
29bo2bo44b2o31bo66bo20b2o15b2o84b2o40b3o3b2o3bo97b2o7b2o35b2o76bobo39b
2o36b2o$147bo10bobo125bobo87b2o78bo53b2o7bo3bob2o17b2o15b2o137bo33bo
27b2o21bo11bo2bo5bo2bo34b2o76bobo15bo22bo2bo$159bo26bo100bo168bo53b2o
13b2o41bo52b2o77bo32bobo25bo2bo20bo12b2o7b2o114bo16bo22bobo$53b3o129bo
bo90b2o203b2o34bo3bo43bobo51b2o34b2o74bobo10bo15b2o21bo35bo96b2o7b2o
11bo23bo$96b3o32bo7bo46b2o89bo2bo166b3o33b2o18bo17bo46b2o87b2o75bo11bo
56bo17bo21b2o16bo55bo2bo5bo2bo$36bo14bo5bo48b2o11b3o9bo6bob2o18bo117b
2o162bo59bobo13bo16bo68b2o140bo34b3o3b3o12bobo16bo21b2o15bobo55b2o7b2o
66b3o$35bobo13bo5bo36bo5bo5b2o11bobo9bo6bob2o18bo35b2o62b3o20b2o54b2o
35b2o63bobo58bobo12bobo14bobo66bo2bo9bo81bo38bo64bobo55b2o$18bo17b2o
13bo5bo36bo5bo19b2o28b2o8bo34bo2bo83bo2bo45b2o6b2o19b2o14bobo3b2o56bo
2bo59bo13bo2bo13bobo67b2o9bobo48b2o30bo37bobo3b3o3b3o34bo17bo81b2o36bo
42bo$12b2o3bobo74bo5bo14bob2o8b3o8b2o9bobo44b2o11b3o19bo36b2o13b2o45bo
2bo26b2o15bo4b2o57b2o75b2o15bo79bobo48b2o30bo37bobo46bo98bo2bo34bobo
40bobo20b2o$4b2o6b2o3bobo33b3o15b2o11bo30bob2o2b4o13b2o2b2o6bo37b2o40b
obo35b2o61b2o283bo29b2o89bo8bo10bo27bo3b2o54bo39b2o35bobo39bo2bo20b2o$
4bobo11bo52b2o11bo11b3o17b4ob3o7bo5bo4b2o43bo2bo38bo2bo41b2o154b2o37b
3o126bo12b2o32bo2bo5b2o90bo10bo30bo2bo52bobo76bo41b2o$5b2o77bo34bobo3b
2o4bo5b2o3bo45b2o40b2o41bo2bo152bo2bo163bo3bo12bo32b2o6b2o60b2o28bo10b
o31b2o53bobo$119bob3o2bo4bo6bobo133b2o86bo48b2o16bobo164bo14b2o65b3o
34bo2bo34b2o90bo$125b2o11b2o140b2o80bo47bobo4b2o11bo164bo7bo82b2o28bob
o34b2o4b3o23bo132b2o$62b2o33bo17b2o5b3o41bo48b2o63b2o29bo50bo48bo4bo2b
o145bo29b4o5bo80bobo29bo46b2o18bobo131b2o$26bo34bo2bo32b2o16b2o49bo48b
2o93bobo103bo2bo143bo2bo29bobo2bo18b3o24b2o37bo3b2o65bo5bo2bo17bobo63b
2o105b2o$25bobo34bobo30bob3o5bo4b2o2b3o49bo126bo16bobo45b3o3b3o50b2o
147bo30bo21bo2b2o23b2o41b2o27bo37bo5bobo19bo17bo45bo2bo104b2o$25bobo
35bo29b3o4bo3b3o3b2o2b2o177bo17bo31bo219bo33b2o2bo2bo15bo3bo35bo57b2o
37bo6bo12b2o24bo46b2o142b2o$26bo67bo4bo4bob2ob3o62b2o117bo49bo18bo221b
o12b3o2bo18b3o3b3o29bobo56bobo55bo2bo23bo69bo120b2o$95bo5bo5b2o65b2o
131b3o8b2o23bo18bo63b2o33bo121bobo11bo3bobo16b3o3bo2bo29bobo10bo81bo
21bobo53b3o37bobo45b2o14b2o$11b3o85b3o2bob2o11b3o13b2o110b2o49b3o17b2o
42bo63b2o32bobo58b2o39b2obo17bobo12b2o3bo15b2o4b2ob2o30bo11bo80bobo21b
o94b2o46b2o14b2o3bo2bob3o59b3o$93bo5b3o2b3o11b3obo11bobo110b2o84b3o
124bo2bo57b2o38b3ob2o17bo18b2o3b2o8b2obo2bo47bo20b2o58bobo74bo5bo43b2o
4bo54bo2bobo2bo7bo$92bobo10bo13bobo13bo125b2ob2o25b2o3bo5bo75b2o81b2o
85b2o10bo4bo37b2o2b4o6b5ob5o65b2o59bo46b2o27bo5bo43b2o4bo54bo8bo5bobo
46b2o$92bo2bo23b2o140b2ob2o24bo2bo2bo5bo75bobo166bo2bo10b2o20bo20bo5bo
6b5ob2o6bo71bo97b2o27bo5bo49bo55bo4bo2bo5bobo46b2o7b2o$93b2o21b3o137b
2o32bobo3bo5bo76b2o69bo97b2o27b3o3b2o24b2o6bobo9b2obo32bo36bobo242b2o
8bo56b2o$37bo78bobo137b2o33bo67b2o88bobo125bobo3b3o19bo3bo6bo2bo12b2o
2b2o25b2ob2o13b2o20bo128b3o112b2o$2o34bobo76b3o37b2o3b2o13b3o41b2o77b
3o58b2o88bobo124bo3bo2b3o19b4o8b2o10b2ob2o2bobo25b4o12bo2bo84b3o174bob
2o$2o34bo2bo74bo3bo36b2o3b2o12bo3bo40b2o143b2o16bo67bo39bo85bo5bo6b2o
8bobob2obobo4b2o49b2o2bo12b2o5b2o77bo3b3o149b2o20b3o4b2o$37b2o75bo2bo
55bo5bo184b2o15bo107bobo71b3o10b2o4b2o5b2o7bo2bobo9b2o21bobo3b2o21b3o
20b2o24bo23bo14b2o11bo4b3o149b2o21bo4bo2bo27b2o6b3o$114bo2bo54bo3bo3bo
75b2o123b3o61b2o7b2o29b2o3bo107bo2bobo32b4obob2o21bo38b2o6bobo21b3o12b
o2bo5b2o3b2ob2ob2o89b2o18b2o45bo20bobo27bo2bo$23b2o91bo55bo7bo74bo2bo
76b3o64b2o40bo2bo5bo2bo28b2o44bo46bo19b3ob2o34b4o2bo59bo2bo5bobo20b2ob
2o12b2o5bo2bo99b2o18b2o44bobo20bo5bo22bobo22bo$22bo2bo15bo22b2o42bo52b
o10bobo3bobo75b2o61b2o23bo57b2o10bo30b2o7b2o75bo31bobo12bo2bo20b3obo
15b2o16b4o61b2o7bo25bo18b6o31bo131b2obo25bobo22bo22bobo$23bobo14bobo
21b2o2b2o38bo35b2o14bobo10b2o3b2o11b3o20bo3b3o28b2o47b2o18bobo11b2o5bo
3bobo34b2o31bobo22b2o91bo31b2o14bo2bo3bo16bo18b2o22bo8bo104b2ob2o31bo
112b2o17bo2bo25bo2bo45bo$24bo14bo2bo25b2o38bo35b2o13bo2bo7bo8bo5b2o27b
o34b2o47b2o19bo12b2o5bo4b2o34b2o3bo28b2o22b2o145bob2o23bobo30b3o6bobo
104bob2o31bo38bo54b2o17b2o18bo2bo25b2o26b2o$9b2o29b2o118b2o8b2o7b2o3bo
2bo26bo90bo33bo44bobo193bo5bobo12bo2bo5bo3bo29bo3bo4b2o36b3o13b2o52bo
2bo70bo25bo14b2o12b2o39bo54bobo$9b2o93b3o58b2o5bo6b2o3bo2bo116bobo77b
2o123bo71bo19b2ob2o4b2o3b2o6bo21b3o6bo2bo44b3ob2obo25b4o22b2ob2o69bo
25bo14b2o52bo56bo$139b2o23bob4o15b2o23b3o3b3o85bobo14b2o5b2o5b3o36b3o
132bo57b4o9bob2o4bo13bobo5b2obob2o4b2ob2o3bo16bo8b3o47bob2o26b4o22bobo
3b3o91bo34b2o$108bo4bo24bo2bo23bob4o3bo13bobo98b3o13bo15b3o3bo163b2o6b
2o8bo16b3o4b3o13b2o17bo2bo8bo2bo4bo14bo9bo7b2o2bob2ob2o74bo45bo17bo
125b2o10b2o$84bo23bo4bo19bob2ob2o2b2o2bobo14bobo3b2o4bo14bo23bo105b3ob
2ob3o161b2o6b2o47bo2bo17bo2bo6bo3bo4bo25bo8bo8bo15b2o100b2ob2o12bobo
15bo71b3o3b3o42b2o$83bo24bo4bo19bo3bob2o7bo14b2o7bobo11bo19bo7bo104b2o
2b2o2bo196bo24b2o14bo4b2o10bo31b2o9bo7bo13bo2bo102b2o12b3o14bobo164bo
14bo$83b3o46bob7o12b3o7b2obo5b3o11bobo16bobo6bo108b3o138b2o58bo39bobo
27b3o6b2o8bo2bo8b2o21b2o100bob2o30bobo162bobo13bobo$20b3o114bo27bobo
37bobo23bo91b3o82b2o54b2o58bo54b3o3b3o15b2o9b2o12bobo2bo116bobo32bo
178bo2bo53bo$31bo107bo5bo5bo5bo8bo39bo23bobo55bo36bo3bobo56b2o17bo2bo
96bo55bo2bo18bo6bo5bo28bo118bo3bo171bo26b3o13b2o53bobo$31bo73b2o27bo7b
2o7bo5bo21bo11b2o37bobo24b2o28bobo33bobo4b2o56b2o18bobo95bobo17b3o34bo
18bob2o6bo5bo29bo4bo80b2o30bo3bo170bobo22bo48b3o22bobo$31bo73b2o16bo
10bo16bo5bo20b4o9b2o38bo4b2o19b2o28bobo34bo5bo78bo36b2o58bo2bo53b2o2b
2o13bobo7bo5bo33bo16b2o63bobo29bo30bo16bo115b2o9bobo21bobo4bo49b3o16bo
$43b3o63b2o12bo8b3o42bobob2o53b2o50bo90b2o65b2o38bo20b2o23bobo30bo2bo
14bo46bobo14b5o24b2o38b2o58bobo15bo38b2o75b2o10bo22b2ob2obo$108bo2bo
11bo8b3o18b3o20b2o3bobo10b2o83b2o54b3o24b2o14bobo99b2o4bo45b2o31b3o26b
3o33b2o20bo23b2o36bobo6bo19bo32bobo15bo38bobo38b2o29b3o42bo40bo$3b2o
48b3o42b3o8b2o24b3o39bobo3b2o9bobo43b3o36b2o81b2o16bo59b2o38b2o4bo46bo
81bo29b2obo3bo61b2o7b2o18bo33bo56bo39b2o81b2o31bobo$3b2o79b2o46b2obo2b
o37bo4bobo11bo244b2o8b2o162bobo28bo2b2obo17bo52b4o17b5o209b2o31bobo$
51bo32b2o42b2o2bo6bo36bobob3o54b2o5bo122b2o81b2o43bo69b3o46b2o29bo6bob
2o12bobo14b2o32b3o3b2o18bo2bo25b2o113bo101bo$51bo9b2o69b2obo2bo36b2o4b
o3b3o32b2o15b2o5bo92b2o8b2o17bobo49b2o43b3o29bo150bo3b2obo2bo11bobo14b
2o32bo5bo19bobo26b2o10b2o100bobo$51bo9b2o72b3o62b2o17bo2bo21bo92b2o8b
2o18bo49bo2bo74bo27b2o44bo77bo3bo2b2o13bo49b3obo22bo39b2o100bobo84bo$
132b3o48bo5bo10b2o18b2o148b3o45bobo29b2o70bo2bo43bo44bo33b3o69bo168bo
36bo47bobo$132bo35bo14bo5bo7bo42b3o10bo116bo2bo45bo30b2o47b2o22b2o44bo
43bobo105b2ob2o191b2o7bo47bobo$16b2o106b3o22bo17bobo13bo5bo7bo12b2o41b
o86b2o27bo3bo39b2o48bo35b2o50b2o60bobo81b2o22b3o114b2o36b2o35bo3b2o7bo
48bo$15bobo12b2o91bo3bo20bobo16bo2bo26bo12b2o14b2o25bo86b2o27bo4bo23b
2o13b2o21b2o25bo66bo20b2o12b3o46bo26bo19b2o34b2o21bo89b2o25bo2bo35b2o
35bo$16bo13bobo90b2o3bo19bobo17b2o15b3o38b2o142b2obo24b2o36b2o25bo48b
2o16bo98bo11bo19b2o2b2o53bob2o3b2o81b2o26b2o46b2o25bo8b3o3b3o17b3o3b3o
$31bo25b2o70bo13bo5bo43b3o3b3o170b2o138b2o16bo97bobo10bo23b2o53bo3bob
2obo102b2o51bo2bo129b2o$57b2o67bo2bo13bo272b2o187b3o20bobo90bo4b2obo
24bo2bo74b2o52b2o27b3o8bo11b2o78b2o$129bo13bo53bo85b2o117b2o11bobo94b
2o115bo15b3o52b2o20b2o4bo24bobob2ob2o97b3o64bo10bo2bo$123b2o3bo68bo84b
obo116bo2bo11bo81bo13b2o102b2o46b2o34b2o17bo34b2o3b3o116bo19bo14bo12bo
11b2o12bo10bo$113b2o8bo3bo69bo85bo118b2o93bobo61bo52bo3b2o44b2o53bo10b
2o17b3o4b5o69b2o46bo18bobo4b2o7bo38bo9bobo27bo$113b2o9b3o47b2o3b2o283b
o32bobo27b2o6b2o23bobo13b2o21bo10bo3bo104bo8bo3bo25bo70bo2bo45bo18bobo
4b2o7bo38bo9bobo26bobo$6b2o166b2o3b2o32bo21b2o175b2o50bo33bo28b2o6b2o
22bo2bo13b2o20bobo8bobo2bo5bo37bo31b2o35bo5bo2bo93b2o66bo64bo27bobo$6b
obo203bobo20b2o85bo75b2o12b2o50bo27b2o66b2o36b2o10bo4bo3bo37bobo30b2o
34b2obo3b3obo244bo9bo$7b2o7b2o172b2o20b2o108bo74bobo86b2o3bo2bo96b3o
22b3o37bo2bo67bo5b3obo19bo40bo94b2o7b2o4b2o72bo$9b2o4bo2bo80b2o89b2o
34b2o12bo81bo19b3o53bo87b2o4b2o163b2o69bo3bo3bo17b4o25b2o13bo93bo2bo5b
o2bo3b2o40b3o29bo13b2o$2b2o5bobo4b2o81b2o127bo10bobo74b2o314b3o2b2o91b
2o21bo3bo24bobo13bo94b2o7b2o11bo79bo2bo$2bobo5b2o154bo58bo13bobo74b2o
233b2o83b3obo24b2o75bo10bobo27bo131bo25bo54b2o9b2o$3b2o81b2o77bobo26b
3o29b2o12bo309bo2bo23b2o58bo3bo22bo2bo11b2o60b3o10bo106b3o34bo16bo24bo
bo64b2obo$5b2o78bo2bo50b2o3b2o19b2o69b2o295b2o16b2o23bo2bo31bo13bo12bo
26bobo10bo2bo30b2o26bo2b2o93b2o49b2o6bobo40bobo49bo13bo3bo$5bobo78b2o
44b2o5b2o3b2o46bo5bo37b2o188bo33b2o6b3o7bo53bo2bo41b2o5b2o26b2o12bo39b
o12b2o31b2o25b3ob2o5bo6bobo78b2o49b2o6bobo29bo11bo49bobo13bo$6b2o123bo
2bo23bo2bo30bo5bo212b2o12bobo32b2o16bo6bo38bo8b2o49b2o24bo2bo10b3o11b
3o88b2o9b5o4bobo5bobo12b2o47bo76bo29bobo5bo48b2o4bobo13b2o$132b2o23bo
3bo30bo5bo83bo3b2o106b2o15b2o12bobo50bo6bo38bo86b3o52bo44b2o5bo10b2o
11bo5bo7bo2bo11bo2bo46bo21b2o20b3o45bo14bobo4bobo47b2o5bo17b2o$157bo
30b2o96b3o38b2o65b2o30bo58bo38bo85bo2bo51bobo43b3o5bo29bo6bobo13b2o47b
o21b2o34bo32bobo14bo5bobo68b2ob3o$82b2o53bo19bo30bobo3b3o85bo5b2o37b2o
100b2o16b2o15b2o8b3o118b2o15b2o51bo2bo44b4o2bo30b2o4bobo119bobo5b2o24b
obo21bo68b6o$82b2o52bobo6b2o11b2o29bo13b2o34b2o43b3o3bo51b2o84bo2bo14b
obo15b2o129b2o16b2o51b2o44b2o5bo49bo13b3o2b2o27b3o3b3o6b2o44b2o6b2o25b
o90b2o3bo$136bobo5bo2bo10b2o42bo2bo32bo2bo44b4o52b2o84bobo16bo49b3o13b
2o25b2o171bo4bo24b3o22bobo17b2o41bo2bo169b2obobo2b2o$29bo95bo11bo6bo2b
o54bo2bo33b2o8b2o11b3o23bo140bo83b2o24bo2bo98b2o71bobob2o49b2o50bo10b
2o20b3o147b2ob2o3b2o$29bo94bobo20bo30b2o10b2o11b2o44b2o288bobo87bo11b
2o56b6o3b2o5bo2bo26bo75bo184b3o$29bo94bobo18b3o5b2o22bo2bo9b2o3b2o23b
2o47bo261b2o7bo36b2o46b2obobo68bo7b2o5bo2bo27bo3bo71bo74bo73b3o$18bo
97bo8bo16bo3b2o4bo2bo10b2o10b2o15b2o23b2o11b2o33b3o67b2o187b2o2b2o44bo
bo20b2o23b2ob2o32b2o35bo5bob2ob2ob2obo31bo39b2o105bobo$17bobo96bo23b3o
3b3o4b2o11b2o38b3o24bo33b5o65bo2bo161b3o22b2o49bo21b2o59bo2bo35bo3bo4b
o3b3o24b2o3bo2bo39b2o25bobo77bobo$17bo2bo95bo44b2o27b2o36b3o2bo2bo29b
2o3b2o28b2o35b2o276b2o43bobo38b2o6bobob2o15bo7b2o73bo2bo78bo111b3o3b3o
$18b2o45bo78bo16b2o27b2o36bo2bo5bo29b5o9b3o16bo2bo152b2o157bo2bo25b3o
15bo47bobo18b2o6bo14bo17b2o38b3o2bo27b2o96bo$64bobo77bo11bo8bo52b3o7b
2obo3b2o31b3o9bo3bo15bo2bo151bobo158b2o41bo12bo7b3o29bo2bo13b2o2bo20bo
3bo12bobo6b2o29bob3o29b2o96bo68bo$49b2o13bobo77bo10bobo6b3o102bo9bo5bo
15b2o107bo45bo201bobo10bobo34bo3b4o11bo4b2o20bo4bo12bo6bobo34bo16b2o
64b2o35b2o5bo46b3o19bo$49b2o14bo89bo3bo3b2ob2o19b2o28bobobo8bo48bo5bo
123bobo113b2o131b2o10bo2bo32b3o3bo2bo11b3o18bo5b2ob2o20b2o22b2o6b2o20b
2o64b2o34bo2bo73bo$137bo18b3o3b3o21bo2bo27b2ob2o8bo2bo17b2o26bo5bo48bo
19b2o40b2o11bobo112bo2bo143b2o33bo4bob2o4b3o5b2o17b2ob2o3b4o44bo2bo12b
2obo113bo2bo$42b2o16b2o7b2o65bobo21b2o25b2o26b2o5b2o7bo2bo16b2o22b2o3b
o3bo48bobo17bo2bo18b2o18bo2bo11bo114b2o126b2o34bo17bo4b2o5bo25bo5bo3bo
46bobo13bo2bo114b2o35b2o22b2o$17bo23bo2bo14bo2bo5bo2bo20bo6b3o35b2o19b
o5bo48bo2bo2b4ob2o6b3o40b2o4b3o49bobo18b2o14bo3bo2bo18b2o16bo40b3o194b
obo33bobo16b2o7bobo2bo22bo6bo51bo14bobo127bo23bo2bo21b2o$16bobo18b2o3b
obo15b2o7b2o20b3o5bobo56b2o53bo2bo4b5o7bo100bo24b2o8bobo3b2o36bobo191b
3o43bo33bo2bo17b3o4bo4bo23b2o2b2obo42bo22bo2bo127bo24b2o$16bo2bo7b2o7b
o2bo3bo46b2ob2o4bobo58bo2bo4b2o43bo4bo2b2obo64bo68bobo8bobo41bo2bo102b
2o77bo89b2o19bobo4bobo26bobo2bo42bob2o20bobo128bo61bo$17b2o7bo2bo7b2o
26bo23bob2obo6bo30b2o26b3o6b2o20b2o25b3o6b2o19b2o39bo68b2o10bo43b2o
103bobo75bobo109bobo5b2o27bo2bo42bo4bo18b2ob2o50b2o117bo14b3o2bo$26bob
o35bobo21bo2bo2b3o3b2o30b2o35b2o19bo2bo21b2o10b2o19b2o39bo230bo76bobo
115bo2bo28bobo43b2o3bo16b2o2bo51b2o109b2o5bobo12bo2bo6bo$2b2o4b2o17bo
36bobo22bobo2bobo3bobo73bo14bobo131bo48b2o108b2o112bo36b2o56b2o20bobo
30bo45bo2bo17b2ob2o162b2o5b2o12bo2bo6b3o$2b2o4b2o31bo23bo24bo2b2o4bobo
74bo15bo69b2o21b3o3b3o29bobo47bo2bo106bo2bo148b2o56b2o20b2o42b2o35bo
18b3o185bo2bob2o3bobo$31b2o7bobo45bo5b2o73bo6bo85b2o52b2o6b2o48b2o28bo
34b3o16b2o24b2o98bo22bo10b2o110bo27bo2bo130b2o109bo3b3o4b2o4bo$31b2o7b
o2bo2b2o40bo10bo68bobo9b2o2b2o103bo38b2o49b3o21bobo52b2o66b2o56bo21bob
o9b2o28bo80bobo27b2o49bobo78bo2bo26b2o81bo4bo10bo$41b2o2bo2bo119bobo9b
2o2b2o102bobo20b3o14b2o33bo5b2o33b2o31bo5bo28b3o51b2o56bo21bobo38bobo
79bobo75b4ob2o78b2o27b2o15b2o3bo61b3o12bo$5bo40b2o13b3o36b3o47bo7b3o8b
o118bobo20b2ob2o46bobo3bo2bo65bo5bo43b2o3bo43bo41b2o27bo39b2o24bo56bo
75bo7bo65bo25b3o29b2o3bo28b3o$5bo26b2o66b3o47bo138bo21b2ob3obobo42b2o
3bo2bo65bo5bo26bo5bo10b2o2bobo41bobo40bobo91bobo132b5o3bo63bobo61bo78b
o$5bo26b2o69bo46bo73b2o14b3o71bob2o51b2o87bo11bo5bo14b2o37b2o4b2o41b2o
23b2o10bo56bo65b2o69b2o2bo64bobo4b2o133bobo$73bo10bo7b2o7bobo18b2o99bo
bo87bo3b2o3b2o115b3o15bobo10bo5bo53bobo71b2o9bobo120bo2bo138bo4b2o134b
obo$73bo10bo7b2o7b2o18bo2bo21b3o3b3o68b2o11bo87b2o82b2o47bobo71b2o82bo
bo113b2o6b2o132b3o8bo2bo9b2o123bo$4b2o67bo10bob3o33bobo110bobo11b2o70b
2o3bo81b2o48bo13b3o141bo113bo2bo57b2o4b2o85b2ob2o56bo$4b2o102b2o13bo
110bo2bo11b2o70b2o23b3o9b2o20b2o12b2o83bo47b2o16bo185b2o22bo35b2o4b2o
42b2o28bo5bo6b2ob2o55bobo9bo$53b3o40b2o9bobo20b2o90bo12b2o78b2o41b2o
20b2o12b2o31b2o49bobo46b2o15bobo62b2o67b2o74bobo42bo41b2o28bo5bo8bo16b
2o39bo2bo7bobo10bo$88bobo5b2o10bo20b3o3b2o16bo67bobo32bo44b2o11bo2bo8b
o99bo2bo21bo10bo16b2o63bobo13b2o46bo2bo65bo2bo11b3o59bobo41bo72bo5bo
26b2o39b2o8bo2bo9bo$88b2o6b2o30b4o3b3o13b3o51b2o14bo2bo31bo44bobo10bob
o5bo2bo58b2o40bo2bo20bobo8bobo11bo69bo14b2o47b2o36b3o28b2o13bo61bo19bo
20b2o107b2o35bo13b2o10bo52bo$11bo115b2o7bo14b2o51bo2bo14b2o32bo45bo12b
o7b2o55bo3bobo10bo29b2o21bobo8bobo11b2o42b2o44b3o23b3o11b2o32b2o52bo
81bo20bo15b2o74bobo14bo13b2o2b2o3b2o11bobo7b3o44bo4b2o15bobo$10bobo
113b2o7bo68bobo20bo32b2o73b3o41bobo3bo11bo53bo10bo12b2o30bo10bo2bo2b2o
79b2o32b2o15b2o94bo6b2o14bo21bo13bobo10b2o63b2o13bo14b2o2b2o3b2o11b2o
21b3o3b3o24bobo3b2o15bo2bo$10bobo60b3o16bo28bo5bobob2ob2o69bo20b3o31b
2o90b2o25bo2bo14bo23bo54bo29bobo10b2o3b2o130b2o93bobo4bo2bo32bo2bo4bo
9bo10bo2bo16b2o44bo108b2o21b2o$11bo79bobo26bobo4bo3bo2bo58bo31bo3bo97b
2o23b2o26b2o38bobo43b2o38bobo102b2o63b2o2b3o64b2o2bo2bo4b2o31b3o2bo3bo
bo20b2o17b2o20b2o4bo$91bo2bo25bobo6bo4bo56bobo30b3ob3o94bob2o27bo63bob
o42bo2bo38bo103b2o63b2o30b2o37b2o3b2o37bo4bo4bobo7bo53bobo3bo14b2o$6b
2o7b2o41b2o32b2o27bo8bo2bo58b2o30bobobobo34b2o18b3o42bo19bo5bo64bo44b
2o124bo114bobo78b2obo3bo6bo7b3o53bo4bo9b2o2bo$5bo2bo5bo2bo39bo2bo69b3o
90bo2bobo2bo33b2o57bob5o19bo5bo45bo108b2o40b2o36bobo94b2o18bo81bob3o8b
o5bo2bo67bo60b2o$6b2o7b2o41b2o79bo59bo23bo3bo3bo44bo47bo6b3o16bo50bobo
12b2o7b2o13b2o60b2o6bo2bo39b2o36bo2bo92bo12bo100b2ob2o3b2o12b2o48b3o4b
o2bo41b2ob2o11b2o$86b2o50bobo57bobo23bo5bo45b2o32bob2obo7b3o4b2o2bo66b
obo11bo2bo5bo2bo11bo2bo58bo2bo6b2o79b2o66b2o25bo3bo7bobo51b3o43b2o3b2o
4b2o11b2o55b3o42b2ob2o64b2o$11bo73bo2bo50bo12b2o43bo2bo24b5o37b2o8b2o
3b3o10bo14bo4bo7b2obo8bo16b3o47bo13b2o7b2o12bo2bo58bobo112b3o41b2o24b
2o11bo2bo95b2o4bo$10bobo73bobo109b2o9b2o54bo3bo25bo14bobob2o7b3o7b2o
105b2o60bo159b2o22bo13b2o97b2o61b2o$10bobo67b2o5bo26b2o35b2o8b2o46b2o
52b2o4bo16bo8bo15b2o15bo4bo87bo15bo207b2o15b2o6bo16b3o3bo106bo4b2o55b
2o127bo$11bo67bo2bo12b2o19bobo31b2o9b2o100bo5bob2o2bo10bo42bo90bobo13b
obo125b2o79b2o23bo16b2o2b2o92b2o16b4o28b2o142b3o9bo$80b2o13b2o17b3obo
13b3o11b2o2bo5b3o68bo35bo2b2o3b2o2bo10bo133bobo13bobo5b3o42b2o53b2o18b
2o4b2o98bo114b2o7b2o9b2o27bo2bo15b3o$52bo16b2o40bob3o28b4o3bo4bo6b2o
61bobo11b2o22bob2o153bo15bo5b4o42b2o18b2o32bo2bo23bobo107b2o111bo2bo
24b2o11bobo99b2o$32bo7b2o9bobo14bo2bo38bobo3bo13bo5bo7bo5bo5bo2bo2b2ob
o60bobo11b2o40b3o157bo4bo15b2o44b2o32bo2bo24bo94b3o11b2o9b2o101b2o24bo
2bo11bo100bobo$31bobo6b2o9b2o16b2o38b2o4bo14bo5bo6bo5bo15bo61bo97b2o
43bo31b2o33b2o2bo3b2o16b2o78bo2bo73bo70b2o127bobo6bo107bo$31b2o77bob3o
15bo5bo5b2obo12bo2b4o159bo2bo41bobo19b2o9b2o32b4o37bo67b2o65b2o5bobo
99b2o26b2o32bo37bo6bobo19b2o119b3o$143bo4bo10bo3bo96b2o33bo25b3o2b3o
40bobo19b2o42bo2bo5bo32bo58bo7b3o65b2o6b2o98bo2bo25b2o31bobo14bo4bo5bo
17bobo19b2o126b2o$54b2o76b3o8bo2b3o11b3o97b2o32bobo23bo49bo63b3o7bo32b
o42b3o8b2obo126bo59b2o60b2o14bo4bo5bo18bo139bo7bo2bo4b2o$53bo2bo6b2o
78bo3b2o11b2o18b2o112b2o18b2o5bob4o108b2o82bob2o8b2o4b3o11bo2bo87bo17b
obo136bo4bo5bo158bo7bo2bo3bo2bo10b2o$53bobo7b2o77b2o36b2o47b2o45b2o36b
2o6b4o113b2o4bo27b3o3b3o35b2ob4o7b2obobob2ob2o7bo4bo85bobo16bo2bo70b2o
212b2o19bo8b2o5b2o11b2o$54bo99b2o71b2o2bo44b2o46bobob2o66b2o37b2o4bo3b
2o73bo2b2o15bobo7b2o4bo8bo33bo41bobo17b2o71b2o59b3o8b3o27bo69bo41b2o$
104b3o37bobo6bob2o50b2o18b2o5b2o91b3o65b2obo36b2o5b2o4bo11bo16bo38bo4b
ob2o17b2o4bo4bo2bo7bobo31bobo41bo61bo131bo69bo$38b2o104bo7bo4bo48bo2bo
17b2o6bo9b3o43bo30b2o3bobo49bo13bo2b3o25b3o6bo12bo2bo9bobo3bo11bo38bo
4bob2o14b2o6bo3b3obo8bobo30bo2bo103bo131bo69bo78bo6bo$37bo2bo107b2o3b
2o2b2o48b2o20bo4bo55bobob2o26bo5bo49bobo10b4o40b2o12bo8bo7bo10bo40bobo
18bo25bo32b2o104bo122bo128bo27bobo5bo$38b2o56b3o32b2o11bo10bo2bo47bo3b
o18bo60bobob2o27bo12b3o39bobo10bo2bo6bo21bo3bo7b2o4b2o3bo3bo8bo59b3o
15bo2bo2bo4bob5o157bo114bo128bo27bobo5bo8b3o4b2o6b2o$20b2o31b2o76b2o
13bob2o5bobo49b3obo19bo53bo5bo28b2o2bobo21b2o29bo11bobob8o20b3o15bobo
15bo7b2o50b3o20bobo6bobo15b2o109bo31bo114bo128bo28bo22b2o6b2o4bo$20b2o
31b2o26b2o58b5o3bo6bo32bo21bo61b2o3b2o40bo2bo24b2o41bo3bob4ob2o17b2o
17b2o4b2o2bo8b3o3b2o2bo49bo2bo11b3o2bo2bo2bo4b3o15bo2bo108bo6bo24bo
309bo$80bo2bo56b4o3b2o38b5o15bo64bobo3bobo2bo3bo31b2o2b2o2b2o54b2o11b
3o20bo2bo7bo10bo16bo3bo7bo49b3o5b3o3bo3bobo9b2o17b2o109b3o2b2ob2o11bo
250b3o3b3o3b2o56bo$58bo7b2o13b2o56bo5b3o39b2ob3o14bo54bo8bobo5bo2b2o4b
2o30bo2b2o2b2o6b2o32bo12bo2bo6bo3bo22bobo2bo4b2o17b2o7bo2bo5bo2bo50b2o
8bo4b2o2b2o9bo14b2o115bo2b2o2bo10b3o119bo141b2o$57bobo6b2o71b3ob2o42b
5o70bobo7bo7b5obo8b3o37b2o31bobo12b2o11bo22bo2bo2b2o6bo13bo2bo7bo6bo
64b2o7b2o24b2o23b3o27b3o58bo3bo2b2o9b2o2bo117bobo17bo7b2o59b2o44bo61b
3o$57bo2bo23b2o53b2o3bo17b2o25bo72b2o18b2o38bobo43bobo26bob2o20b2o9b3o
12bobo2b3o11b2o63bo151b2ob2o12b5o37b2o36b2o39bobo16bobo5bo2bo26b3o28bo
2bo43bo14bo$26b2o30b2o24b2o10b2o43b3o17bobo66b2o8b2o39b2obobob2o31b3o
45bo24bo2b3o8b2o13bo23b3o2b3o48b3o26bo124b2o24b5o13b4o37b2o36b2o27bo
12bo16bo2bo6b2o59b2o4bo39bo14bo$26b2o68b2o43b2o19bo66bo2bo6bo2bo40b2ob
2o33bo3b2o53bo14b2o3bo2bo4b2o13b2o3b3o2bo17bo3bo70b2o7bo6b3o111bo2bo
20bo4bo15b4o104bo30b2o74bo54bo23b2o$230b2o8b2o31b3o46bo56bobo15b2obo3b
o23b2o2b2o16bob4o10bo58bo2bo5bobo4bob3o111b2o23bo14b2obob2o29b2o74bo
73b2o31bo78b2o$154b2o15bo101b3o26b3o10b3o53b3o4b2ob2o15b2o4bo23bo2b2o
5b2o10bob2o11bobo58bobo4bo3bo3bo4bo3b3o20b2o107b3o12bo4bo30b2o59b2o87b
2o53b2o$92b2o60b2o15bo100bo3bo102bobo6b2o38bo3bo5b2o5b5obo13bobo59bo5b
o3bo7bo4bo2bo19b2o17bo14b2o74b2o12bo2b2o21b3o48bo18bo2bo140bo2bo$5b2o
85b2o77bo32b3o6bo57b2ob2o37bo5bo49bo5b3ob3o5bobo39bobo13b3obobo14bo63b
o2b2obo7bo9bo36bobo12bobo66b2o6b2o5b2o6b4o72bo19b2o41b2o99b2o$4bo2bo
196b3obo3bobo57bob2o37bo5bo49bo5bobob2o5b2o42bo13bo4bobo52b3o23bo12b2o
5bo2bo37bobo13bo16b3o13bo16b2o15b2o5bobo6b2o7bo74bo62b2o$5b2o201bo3bob
o58bo22bo16bo5bo49bo5b2o9b3o55bob4ob2o8b2o7b2o58bo5b2o3bob2o5b3o39bo
45b3o15bo2bo10bo3bobo5bo24b3o23b2o143b2o$52bo89bo43b3o12b3o9bo81bobo
34b2o50bo3b2o54b2ob2o2b2obo5bo2bo5bo2bo14b3o38bo8bo99b4o16b2o11bo4b2o
56b2o35b3o3b3o99b2o$52bo89bo71b4o77bo2bo16b3o14b2o37b3o10bo2bobo38b2o
3bo10b3obo4b2o6b2o7b2o56bo4bo8b3o30b2o59bo32b4o2b2o28bo5bo36b2o$52bo
84b2o3bo47bo14bo8bo3bo27bo49b2o88b2ob3o36bob2ob3o8b2o2b2obob2o67b2o3bo
2bob2ob2o37bo2bo58b3o2bo31b2obo28bo5bo36b2o24bo226bo$64b3o26b2o41bo2bo
50bo14bo13bo5b2o18bobo141b3o37b2ob2o2bo7b2o2b2obo2bo11bo55b2o4b2ob2o3b
o13b2o23b2o58b3o2b3o30b2obo13b3o12bo5bo62bo53bo21bo149bobo$63b3o4b2o
21b2o41bo2bo46bo2b2o14bo12bo6b2o19bo4b2o34b2o99bobo38bo2b3obo6b3o2bo2b
4o10bobo59bo3bobo2b2o12b2o48b3o31bobo3b2o20b2o4bo5bobo12b2o2bo80bo18b
3o32bo20bobo148bobo$69bo2bo64b2o78bo33b2o34b2o59b3o37b2o37b3o2bo3bo12b
4o2bo9bobo60b2obo2bobo98bobo24b2o5bo18bo18b3o118bo20bobo5b2o53b2o87bo$
70b2o24b2o91bo24bo196b2o15b2obob2o12b3o2bo2bo10bo41b2o19bob2ob2o2b3o
57bo5bo31b2o31bo17bo6bo155bo6b2o52bo2bo76b2o$96b2o89b2o21b2o3bo194bobo
15b2ob3o13bo5b2o53b2o20b2o2bob3obo52b2o3bo5bo55bo27b2o10b2o210b2o77b2o
$100b3o5b3o24b2o72bo2bo133bo64bo19bo15bo81b3o2b2ob2o2bo51b2o3bo5bo7b2o
46bo30bobo6b2o82b2o8b2o71bo82b3o$36b2o89b2o5bo2bo14bo32b4o15b2o3bo2bo
108b2o22bobo113bo58b2o8bo2b2ob2o2bobo69b2o46bo24bo97bobo7bo2bo49bo19bo
bo117b3o$36b2o42bo46bobo5b2o14bobo29bo3b4o16b2o112b2o22bobo70b2o41bo
58b2o9bobo8bo57b3o25b3o52b2ob2o95b2o9b2o49bobo3b3o11bo2bo79bo5bo$79bob
o46bo22bobo27bo2bo5bo12bo3b4o135bo32b2o37b2o41bo74bo2bo3bo118b3o18bo2b
2o5b2o105b2o12b3o29bo19b2o80bo5bo35bo$62b2o4b2o3b2o5bo71bo28b5ob5o11bo
5bo6b2o2bo26b2o130bo9b3o35bo107b6obo65b2o72bo6bo3bobo104b2o20b2o25bo
98bo5bo35bo21b2o$3bo6bo51b2o4b2o3b2o57bo32b2o14bo5bob2o12b2ob4o5b4obo
26b2o131bo24b2o20bo29b3o3b3o69b2ob2o68b2o73bo3bob2o3bo117bo5bo3b2o25bo
140bo21b2o$3bo6bo74b2o44bobo30bo2bo19bo3bo12bo3b2o5bo4bo34b2o124bo23b
2o20bo97b2ob2o34b2o103b2o13bo4b2o121bo5bo30bo100b3o3b2o$3bo6bo74bobo
43bobo31b2o20bo3bo13b3obo6bo38b2o15bo77b2o27b4o78bo30b2o30b3o2bo33bo2b
o102b2o15b4o113bo8bo5bo13b3o18b2o4b2o8b2o85b2o28b3o16b3o13b2o$51bo34b
2o14b2o28bo53bo3bo14b2o16b2o47bo7b2o27bo39bo2bo25bo3bo4b2o40b3o29bo30b
2o29bo5bo9bo24b2o68bo8b2o7b3o32b2o113bobo3b2o43b2o4b2o8b2o134bo2bo11bo
2bo$12b3o13b3o19bobo49b2o49bo33b3o33b2ob2o44bo7b2o26bobo39b2o4b2o20b2o
2bo4b2o72bo60b2o2b3o10bo94bobo5bo2bo156bobo2bobo4b3o187bobo2bo11b2o$
29b3o18bobo99b2obo24bo6b3o32bo3b2o80bobo45b2o21b3o142bo14bo94b2o6bobo
5bo5bo88bo57bo4bo18b2o156bo17b2obob2obo$3bo6bo40bo23bo17b3o57bo2bo22bo
2b2o18bo20b2o3bo80bo70bo110b2o122b2o26bo6bo5bo19bo67bobo79bo2bo155bo
19b2ob3obo$3bo6bo11bo4bo47bo78b3o6bo9b2o6b3o18bo20b2ob2o36b2o4b2o82bo
5bo130b2o90b2o29bobo33bo5bo19bo67bobo19bo59bobo62b2o92bo15bo3bobo2bo2b
o$3bo6bo11bo3bobo24b2o20bo34b2o43b2o4bo2bo8b2o6bo2bo17bo23b2o36b2o3bo
2bo31b2o7b2o38bobo3bobo106b2o46b2o14bo51bo31bo59bo43b2o23bo20bo60bo11b
2o49bobo108bobobo4b4o$22bo3bobo23bo2bo54b2o32b2o9bo4bo2bo18b2o62b2o22b
2o31bo2bo5bo2bo37bobo3bobo31b3o72b2o37b3o6b2o9bo3b2o48bo70b3o25bo39b2o
8b2o34bo42b2o28b2o50bo114bo2bo$27bo25b2o89b2o9b3ob2o85b2o13bo42b2o7b2o
20b2o17bo5bo47b2o39b2o77bob2o31b2o16b2o44b2o50bobo48b2o77b2o33b2o61b2o
17b3o78bob2o$154bo5bo99bobo27b2o43bobo69bobo39b2o77bobob2ob2o26b2o5b2o
18b2o35b2o51b2o15b3o77b2o65b2o12bo48b2o50b2o47b2o$15bo78bo28b2o30b2o
103b2o27bo2bo16bo26bo19b3o27bo21bo95bo24b2o3b3o33b2o17bob2o184b2o78b2o
84b2o14b2o$14bobo76bobo27b2o35b2o87bo40bobo15bobo74bo2b2o71b2o8b2o30bo
bo25bo57bo3bo263b2o84b2o45b2o$14bobo67bo8bobo60bo3b2o48b2o36bobo40bo
16bobo16b2o56b4ob2o69b2o8b2o33bo19bo6bo14bo16b2o6b3o14bob3o143b2o84b2o
31bo10bo10b2o31b2o5bo69bo2bo26b2o$15bo68bo9bo61bo2bo49bo2bo36b2o58bo
17b2o27bo14b3o14bo2bo88b2o21bo2bo18bo2bo9b2o8bo16b2o32bo138b2o4bo78bo
2bo40bobo9b2o31b2o4bobo69b2o27b2o$84bo70b2o2bo3b2o45b2o18bo39b2o84bo
13b5o10bo2bo2bo87bo2bo14bo6bo5b3o13b2o11bo8bo36b3o10bobo141b2o80b2o42b
obo47bobo$155bo7b2o64b3o38b2o82bo14bo4b2o9bobob2o3b2o33b2o49b2o15bo12b
3o22bo5bo46bo8bo2bo47b3o92bo2bo59b2o55b2o4b2o48bo$80b3o73b2o62bo7b5o
68b2o16b3o31b2o2b3o8b3o2b3o10bob3o3bob2o30bo2bo65bo11bo3bo20bobo5bo38b
3o4bo9b2o126b2o16bo17b2o42b2o33bo21b2o$63b2o155b3o4bo5bo67b2o49bobobob
2o9b2o3b2o20b2o31b2o3b3o75b2o20bo3b4o3b3o32b2o122bo20bo2bo7b2o9bo14b2o
69b3o5b3o84bo10b2o$7bo55bobo160b2o2bo2b2o82bo5bo18b5o6bo2bob2o10b2ob3o
17bo2b2o106bo7b2o20bo2bo5bo4bo30bo3bo4bo90b2o23bo21bobo7bo2b2o2bo3bo
91b6o82bobo8bo2bo$6bobo55bo67b3o90b3obobob3o81bo5bo16b2ob3o10bo2bo11bo
3bo17bobo109bo5b3o4b2o20b2ob3o8b3o22b4ob2obo60b3o28b2o23bo22bo9bo4bob
2o85bo6b3ob3o37bo45bo9bo2bo$6bobo123b3obo89b2o2bo2b2o11b2o29bo39bo5bo
16b2o4bo2bo7b4o32b3o11b2o97b2ob2o6bo2bo13b2o2b2ob2ob2o34bo4b2o50b2o
105b2o75bo9bo5b2ob2o3bo35bobo55b2o$7bo10b2o12bo16bo86bo13bo76bo5bo12b
3o27bobo52bo9bo2b2o12b4o32b2o10bo2bo81b2o14b2o8bobo14b2o6bo3bo2bo8bo
26bobo49b2o6b2o83b2o7bo2b2o17b2o58bo9bo8b2ob2o36b2o$18b2o11bobo14bobo
52b2o45bo63b2o12b5o14b2o2b2o23bo2bo27b2o10b3o9bo10bobo4b2o9bobo31b2o
11b2o18b3o38b2o20bo2bo24bo8bo8b3ob2o7bo8bo27bo75b2o14bo51b2o8b2o18bobo
58bo19bobo33bo115b2o$4b2o25bobo14bobo52bobo44bo64bo13b3o19b3o23b2o28b
2o22bo11bo7bo8bobo22b3o5bo2bo70bo2bo20b2o32b2ob2o6b2o3bo3bo12bo66b3o
20bo8b2o5bo7b3o2bobo79bo73b3o41bo115b2o7b2o$4bobo25bo16bo54bo15b2o40b
3o50bo14bo11b2o5bobo83b2o24bo31b4o28bo42b2o15b2o26bo12b2ob2o7bo3bobo2b
2o16b2o73b2o6bo8b2o2bo16bo69b2o9bo2bo2b2o56b3o51bo61bo20b2o40bobo$5bo
30bo83b2o39bob2o77b3o4b2obo50b2o22b3o6bob2o2b3o49bobo28bo59b2o26bo13bo
10bo5b4o16bo2bo15b3o37bo14b3obo9b2o8b2o95bobo3b2o2b2o2b2o27b2o35bobo2b
obo92bo20b2o41bo15b2o$35bobo98b2obo22bobo78b2o6b2o43b3o3bo2bo29bob3o2b
3o49b2o29bo100b3o10bo5b2o18bobo55bo14b3ob3o4bo2b2o88b2o2b4obo17b2o2b2o
27b2o30b4o3bo13bo83bo78bo2bo$35bobo54b2o3b2o38b2o59bo20bo11bo14b2o2b5o
41b3ob5o24bo9bo2b3o22b2o25b2o3bo141b3o22bo14bo41bo19bo4b2o92b2ob3o3b2o
3b2o32b2o41b5o8bo2b2o3bob3o138b2o9bo9bo2bo$36bo55b2o3b2o15bo82bobo18bo
bo9bobo14bobo3b2o6b2o38b2o26b2o4b2ob3o25bo2bo24bob4o108bo72bo62b2o19bo
80bo5bo2bo2bo30bo2bo31b3o5bo2b2o11bo2b5ob3o137b2o8bobo9b2o$40bo72bobo
65b2o15bo19bobo9bobo11b3ob2o10bo2bo37b2o3b3o19b2obo3b2o30b2o26b2o2bo4b
3o100bobo71bo43b3o15b3o19bo80b2o3b5o2bo31bobo40b2o3b2o8bo5bob5o88bo57b
obo$13b2o25bo72bo2bo64b2o36bo7b2o2bo12b2ob3o10bo2bo36b2o26b2ob2o2bo62b
o91b2o16bo5b2o26bo105b2o15bo38b2o42bo4bobob2o32bo36bo5bo2bo2bo3bo5b4o
6b2o35bo32b3o15bobo57bo$12bo2bo24bo41b2o30b2o5b2o13b2o14bo60b2o7b3o2bo
bo8bo6bo3b2o10b2o37bo28bob2o157b2o21bo2bo24bo2bo38b3o48b2o12b2o5b2o47b
2o44b6o30b3o39bo8bo5bo8bo3b5o35bobo49bo2bo$13b2o66bo2bo36bobo12b2o13bo
bo58b4o6bobo4bo7bobo9b2o79b2o79b2o100bo2bo25bobo88bo2bo30b3o71bo4bo3b
2o76bo9bo3bo12bob3o36bobo6b2o42b2o$47b2o33b2o38bo27bo2bo2b2o52b2o2b3o
4bo2bo2bo8b2ob2o170bobo49b2o12b2o35b2o27bo90b2o20b3o82bo4b2o30b2o59b3o
12bob3o38bo6bo2bo$46bo2bo101b2o4b2o10b2o39b2o2b2o6bobo8b2obo2b2o171bo
34b2o13bo2bo11b2o27bo150b2o6bo33b2o40bo4bo31b2o75bo49b2o15bo14b2o$47b
2o36bo71bobo2bo6b2o39b3obo8bo7b2obo3b2o55bo32b2o116bo2bo3b2o8b2o41bo
158bo4bo27bo2bo139b3o52bo24bobo13b2o$16bo4bo62bobo68bobo2bobo56bo11b2o
bo59bobo31b2o5b4o34b2o72b2o4b2o14b2o35bo158bo4bo27bobo45b3o54b2o35b5o
29bo20bobo23bobo$16bo3bobo61bobo69bo35b3o23bobo10b2ob3obo54bo3bo37bo2b
o34b2o12b2o80b2o184b5o10bo28bo47b2o7b2o45b2o34b3o3bo27b4o18bobo24bo$
16bo4b2o62bo63b2o61bo5bobo12bo4bo9b2o8b2o34bobo39bo16bo32bo2bo9bo148b
3o23bo85bo25b3o13b2o29bo7bo14b2o68b2o8bo4bo3b2o12b3o11bo22bo44b2o$103b
o45b2o39bo5bo15bo6bo14b3o11b2o7bo2bo34bo40b2o13bobo33b2o10bo173bobo74b
2o8bo5b3o3b3o27b2o13b3o12b3o6bo51bo32b2o8bo3bobo3bo27bo2bo4bo54b2o2b2o
17b2o$31b2o6bo63bo10b2o74bo5bo15bo21b3o21b2o3b2o87b2o45bo173bobo75b6ob
2o24bo5bo40bo3bo5bo21b2o28bo42bobobobo3bo9b3o22bobo41bo11b2o20bo2bo$
31bobo5b2o62bo10b2o74bo5bo66b2o182b2o125bo78b2o29bo5bo38b2o4bo23bobo3b
o27bo3b2obo25b2o15b2ob2o10bo12b6o4b2o7b2o33bo34b2o3b2o$9bo22bo6b2o405b
o2bo141b2o56bo4bo29bo5bo36bob2ob3o24bo2bob2o31b2o3bo23b2o16b5o8bo10b2o
2bo16bo2bo32bo39b2o$8bobo29bo58b3o3b3o84b3o215b2o35b2o14b2o7b2o117b2o
55b2ob4o71b2o2bo2bo25bo5bo4b3o24b2o51bo17bobobo17b2o9b2o$9b2o136b2o
102bo9bo56b2o90b2o50bo2bo5bo2bo39bo99bo34bo3bo16b3o13b3o37bo2bo31b2ob
2o4b3o28bo44b3ob2o16bo2bo29b2o$95b2o6bo42bobo102bo8bobo54bo2bo142b2o7b
2o40bob2o30bo64bobo34b3o73b4o15bo16b2o25b2o56b5o9b2o6b2o132b2o$95b2o6b
o42b2o103bo8bobo55b2o181b3o14bo28bobo28b3o32bobo35bo16bo5bo51bo2bo14b
3o17b3o22b2o69bo2bo85b2o52b2o$103bo157bo112b3o91bo32bobo10b2o32b2o27bo
3bo32bo53bo5bo4b2o46bo15bo2b2o17bo7bo61b2o22b2o2b2o83bo2bo32b2o$88bo
30b2o56bo69b3o167bo49bobo31bobo5bo4b2o3bo57bo3bo53b2o26b3o2bo5bo4b2o
62bo2bo26b2o60b2o23bo3bo22b2o8b2o10b2o37bo2bo32b2o$52b2o33bobo29b2o55b
obo26b2o12b2o16b2o16b2o150b3o6bobo48bobo38b2ob5o62b3o54b2o94bo12b2o24b
o3bo31bo52b2o25bo2bo7b2o10b2o38b2o$27bo24b2o33bo2bo86b2o25bo2bo11b2o
16bobo14bo2bo158bobo43b3o3bo23b2o14bo2b4o3bo25b2o68b2o45bo5bo2b3o60bo
36bob2o30b2ob2o50b2ob2o23bobo99b3o$27bo60b2o44b2o69b2o6bo24bo15bobo74b
2o29bo8bo17b2o26bo73bo2bo6bo9b3o3bo26b2o67bobo45bo5bo64b2o36b2o29b2o3b
o7b2o6b2o37bo4bo21bo$27bo29bo76b2o54b2o20bobo40bo5bo13b2o10b2o34bo7b2o
4b2o23bo7bobo16b2o64b2o35b2o7b2obo5b2o2b3o97bo46bo5bo30bo10b2o87bob2ob
o10bobo4bo2bo40bobo16b2o23b2o20bo88b3o$56bobo50bo80b2o20bo2bo44bobo11b
obo10b2o18b2o14bo12bo2bo22bo7bobo82b2o44bo4bo3bobo184bobo9b2o86bob2o2b
o11bo6bobo40bobo16b2o23b2o19bobo$34b3o19bobo50bo103b2o45bo2bo6b2o3bo
30bo2bo13bo13b2o32bo130bo4bo2b3o42b2o22b2o82b3o31bobo96bo3bo22bo42bo
63bobo76b2o$57bo51bo151b2o6bo2bo34b2o34b2o19b3o9b2o16b2o62b2o49bobo43b
2o17b3o97b2o22bo42b2o54b4o130bo59b2o16b2o$159b3o47b2o59b2o71b2o30bo2bo
14bo2bo61b2o47bob2o64b2o96b3o2b3o59bo3b2o54bo3bo185b2obo$52b2o7b2o48b
3o95b2o127bo9b2o12bo13bobo5b2o8b2o35b2o142b2o95bo4b4o60b2o58bo4b2o170b
2o9b2o2bo$51bo2bo5bo2bo273bobo8b2o12bo14bo5bo2bo32b2o9bo2bo20bo121bo
94bob3o2bo123b2o3b2o169b2o8b2o2b2o$52b2o7b2o219b2o41b2o11bo23bo21b2o
33b2o10b2o21bo216bo4bo2b4obo96b3o20b2ob2o106b2o54b2o14b2o$17b2o133bo
58bo70b2o41b2o127bo166b2o18b2o29b2obo4b2obo122bo63b2o43b2o54b2o15b2o$
17b2o38bo47b2o12b2o11b2o18bo57bobo76b2o144b2o12bo38b2o112b2o16bo2bo17b
2o5bo26bo3bo2bo187b2o5b3o8bo2b3o$56bobo46b2o12b2o10bo2bo17bo37b2o18bob
o76b2o112b2o29bo2bo11bo38b2o112b2o17b2o24bobo24b2o4bo47b3o145b2o10bo
17b3o69b2o15b3o13b3o$56bobo73bobo54bo2bo18bo190bo2bo29b2o12bo197bobo4b
2o9bo7b2o39b2o76bo83b3o4b2o3bo17b3o2bo66b2o17bo$57bo75bo56b2o91b2o118b
2o192b3o28bo19bo5b2o14bo2b2o39b2o3b2o41b2o28bo23bo7b3o49b2o5b2o21b2o5b
o71b2o8bobo$283b2o22b2o22b2o37bo60bo34bo112bo45b4o36b2ob3ob3o43bo2bo
40b2o28bo2b3o16b2obo2b5obo56b2o27bob2o8b2o59b3o3b2o$240bo16b3o30b2o14b
o2bo10bo9bo2bo4b2o29bobo58bobo32bobo110bobo43bo44b4o45bo2bo72b4o18bo2b
o2bobo53bo29bobo2b2o8bobo62bo2b2obo$77b2o94b2o65bo49b2o15bobo9bobo9b2o
5b2o29bobo58bobo32bo2bo109bobo42bobob2o42b2o46b2o17b2o10b2o36b3o2bo4bo
19bo4bobo52bo27b2o2bo13bo55b3obobo4bo2bo$41bo35b2o93bobo65bo67bo10bo2b
o47bo60bo34b2o70b2o39bo45bob2ob3o40bo64b2o9bobo40bo3b2o22bobobobo51bo
28bo2bo54b2o13b3obob2ob3o$39b3o19b2o80b3o27bo146b2o136b2o77bo2bo27b2o
56b2o45b2o75bo13bo27bo3b2o9b2o10b2o2b3o35b2o44bo2bo15b2o37b2o12bobo5bo
2b2o$32bo6b2obo2bobo12bobo117b2o49b2o149bo19b2o54b2o77bo2bo26bo2bo11b
3o36b3o2b2o16b2o14b3o10b2o88bobo27b3o11b2o4b2o4b2o40b2o45bobo14bo2bo
47bo$31b3o4bo2bo2bo2bo12b2o63bo53bo2bo48b2o137b2o9bobo18b2o94b2o38b2o
28b2o11bo2bo36b3o19bob2o12bo2bo100bobo46b6ob2obo86bo16b2o3b2o42b3o14bo
$31b2obo3bob2ob2o3bo28b3o3b2o40bo54bobo187b2o9b2o31bo15bo67bobo80bo3bo
8b2o25b2o20bobo17bo100bo46bo7bobo108bo3b2o39bo13b3o4bo$34bob2o2bo5b2o
35bobo39bo8b2o45bo98b2o64bo66bobo14bo30b2o36bo80bo13b2o25b2o3b2o16bo4b
o3bobo4b2o143bo5b2obo7bo2b2o88b3o12bo46bo2bo5b2ob3o2b3o19b2o$33b2o12bo
36bo49b2o41b2o101b2o11bo51b3o6bo10b2o46bobo14bo30b2o118b2o3b2o33b2obob
o22bo2bo3bo2b2o2b3o5bo133bo4b4o3bo2b2o3b2o88bob2o58b2o7bob3o4b2o18bo2b
o$31b2obo3bo7bo62b2o10b2o54b2o8b2o6b3o54bo39bobo53bo5bo10bobo28b2o16bo
11bo156bo5bo31b2ob3o22bo3bo5bo3b3o3b3o103b3o25b2o3b2o5bo95bo3bo2b2o65b
o10bo19b2o$34b3o2bo2bo66b2o10bobo62bo2bo61bobo38bo2bo23b2o23b2o2b2o4bo
11bobo26bo2bo26bobo156bo4bo35b4o26bo3b2o2b2o3bo4b2o14b2o16b2o64b2ob2o
26b4o3bo41bo56b2o4b4o9bo56b2ob2o4b3o$29b2obo4bob5o78b2o63bobo52bo8bobo
39b2o24b2o23bob2ob2o16bo28b2o27bobo4b2o27b2o96bo23bo5bo36bobo25bo4bo2b
2o4bob5o14b2o16b2o16b2o34bo42b5o3bo40bo45b2o8bobo3bobo11bo5bo50b2ob2ob
3o$19b2o8bo2bo4bo150bo52bobo8bo36bo54b2ob3o33b2o41bo5b2o27b2o65b2o28bo
bo20b2o3b2o39bo25bobo2bobo2bob2o2b2o54b2o33bobo4bo5b2obo29b3ob3ob3o36b
o45b2o7b2o5b2o13bo2b3o$18bo2bo7b2obo64bo142bo2bo44bobo53bobo3b2o30bo2b
o83bo57bo2bo27bobo13bo2bo2bo71bo4bob3o3b5o9bo80bobo4bo7bo35bo3b2o72b2o
18b2o5b3o11bo3b3o55b3o$19b2o11bo17bo45bobo68bo73b2o46b2o53bo7bo30bobo
49b3o31bo5b2o51b2o10bo18bo12b3o2b3obo3bo67bo3bo2b3o5bo3b2o2bo2b2o28b2o
50bo9b2o53bo62b2o19bo4b2obo12b5obo14b2o33b3o$7b2o18b2obo10bo7bobo44bob
o44b2o22bo29b2o126bo18bo2bo2bobo31bo76b2o6bo5b2o23bo38bobo32bo2bo3bo2b
o28bo41bo4bo2bo5bob3obobob3o26bo2bo58bo2bo52bo89b3o15b2obo49bo2bo$7b2o
21bo6bo4bo5bo2bo13b2o30bo45b2o22bo29b2o20b2o103bobo13bo6b2o3bo15b2o18b
2o12b2o19b2o36b2o37bo38bobo19b3o18b3o27bobob2o38bo3bo5bobo7bo2b2o28b2o
60b4o30b2o19bo15b2o51bo20b3o3bo13bo49bo$24bo7bo4b2o2bo7b2o14b2o152b2o
103bo2bo11bobo6bo19bobo17b2o11bo2bo18b2o75bo39bo71bobob2o29bo19bo11bo
93b4o27bo2bo34b2o50bobo19b3o2b2o31b2o33b2o$23bobo2b3o129b2o82bo80b2o
11bo3bo26bo32b2o209bo32b2o9b3o17b2o59bo39bo25bo2bo86bobo20b2o2b2o17bo
13b2o9b2o18bo3b2o$24b2o80b2o52b2o81bobo31b2o60bobo9b2o228b2o3b2o18b2o
38bo10bobo13bo3bo57bo36b2obo3bo24b2ob2o86bo22b2obo17bobo7b2o2b2o10b2o
18bo$7b2o97b2o135bobo30bo2bo60bo239b2o4b2o18b2o50bo37b2o24b3o46b2obo3b
o27b2o81b2o28b2o11b3o4bob2o5b2obob2o32bo$7b2o48b2o44bo140bo20bo10bobo
85bo51b2o29bo27b3o103bo75bobo25bo10b2o35bo3b2o36bo2bo110b2o29bo11bobo
4bobo5bo4b3obo30b3o9b2o11b2o$41bo14bo2bo37b2o3bobo32bo126bobo10bo49b2o
35bo29b2o20b2o28bobo119b2o12bo75bo26bo34bo11bo6bo33b2ob2o154bo2bo3b2o
5bob2obobo3bo30b2o9b2o10bo2bo$40bobo14b2o38b2o3bobo31bobo125b2o61b2o
35bo28bo2bo50b2o17b2o20b2o77b2o4b2o2bo80bo26bo6bo27bo10bo5b3o35b3o6b2o
137bo9b3o2b3o4b2ob3o3bo2bo31bo22b2o$40bobo60bo31bo2bo255bobo68bo2bo19b
2o62bo10bo3b2obo2b6o4b2o106bobo26bo11b3obobo44bo2bo63b2o43b3o25bo9b3o
10b2o6b3o11b3o$41bo94b2o163b2o92bo24bo45b2o83bobo8b9o3bo4bo3bo6b2o67bo
2bo28bo2bo11bo26bo50b2o12b2o50b2o17b2o52bo19b2ob2o20bo$153b2o41b3o102b
2o116bobo27b3o99bobo7bo3bo2bo7bo13b2o66bo4bo28b2o12bo85bo5b2o43b2o24b
2o22bo5bo42bo2bo23b2o$73b2o17bo59bo2bo176bo85bo2bo130bo9bo2bo2bo7bo2bo
78bo5bo19bobo19bo84b3o49b2o35b2o11bo5bo19b3o3b3o11bo3b2o21b2o2bo$65b2o
6b2o16bobo59bobo83b2o90bobo65b2o18b2o61bo74b2o3bo4b4o5b4o76bo3b2o23bo
105b3o86b2o11bo5bo39bo29b2o15bobo$51b2o12b2o24bobo60bo16b2o48b2o16b2o
8bo82b2o64bo2bo79bobo48bo24b2o6b6o4b2o8b2o69bobo6bo19bo16b3o23b2o14bo
22b2o18bo55b2o17bo42b3o15bo6bo8bo26bo2bo16bo2bo$51b2o39bo77bo2bo11bo
16b2o16bob3o23bobo40b3o43bo61b2o81b2o6bo41bo8bo23b2o2b2o3bo2bo6bo2bo
77bo62b2o13bobo20bo2bo16b3o3bo50b2o16bobo31b3o25bo5bobo54bob2o$158b2o
11b2o11bobo15b2o16bo4bo22bobo85bobo151bo41bo7bobo23bob2o4bo3b2o5b2o70b
o3bo2bo20b2o19bo36bobo21b2o16bob2o3bo68b2o28b3o29bo6bo40bo17b2o$87b2o
7b2o60b2o25bo35b3obo23bo70b2o14bobo151bo49b2o24bob2o8b2o19b2o25bo29bo
5bobo20b2o19bo37bo39b2ob2o3bo6b2o8bo161b3o16b2o$86bo2bo5bo2bo124b2o40b
2o70bo7b2o5b2o14bo26bo32b2o8b2o126bo2bo5b2ob2o19b2o24b4o25bob2o5bo42bo
78b4o10b2o7bobo29b2o27b2o18bo5bo74bo2bo17bo$87b2o7b2o166bo2bo52bobob2o
19b2o5b2o14bo25bobo31b2o8b2o125b2ob2o7bo46b2o27b2o3b3o2b3o22bo73bo15b
2o10bo3b3o11bobo29b2o27b2o18bo5bo73b4o$155bo109bobo54bobobo3bo37bo25b
2o169bo3bo53b3o5bo21bo2bo2bo3bobo22bo72bobo13bo2bo6b2o6b2o12bo64b2o13b
o5bo71b2o3bo$92bo62b3o108bo55bo4bo2bo234bo2bo54b4o2b4o10b2o9b2o7b2o23b
o65b2o5bobo14b2o8bo6b2o76bo2bo37b2o21b2o29bobo$91bobo59b2o2bo19b2o144b
2ob2o20b3o13b3o3b3o136b2o55bobo28b2o25bo5bo2bo8bo2bo108b2o6bo110bo2bo
8b2o4b3o20b2o21b2o30bo$91bobo77b2o4bobo57b2o48b2o34bo90b2o31bo61b2o71b
2o13b2o25b2obo4b3o8b2o3b2o9bo78b3o38bo94b2o9b2o89bo$78b2o12bo56b5o8b3o
5bob2o4bo51b2o5b2o47bo2bo34bobob2o38bo45b2o4b2o6bo18bo133bo2bo40bobo6b
o9b3o3bo7bobo90bo14b2o10b3o193b3o3b2o$78b2o69bo3bobo2bobob3o2bo6bo54bo
2bo9bo44b2o21bo11bob3o41bo51b2o5bobo17bo116b2o16b2o42bo4bob2o10b2o3bo
7bobo73bo15bobo13b2o10b4o113b2o12b2o28b2o31b2obo3bobo$149b2obo3b2obo5b
o3bob3o56b2o9bobo66bo4b2obo3bo45bo58bo2bo81bo51b2o65bobo10b2o3bo9bo73b
obo14bobo49b2o90bo2bo10bo2bo27b2o31b3o5bo$72bo68b2o8b2o10b3o6bo68bobo
66bo3bo3bo3bo105b2o81bobo114bo4bo10b6o55b2o12b2o12b2o16bo50b2o91b2o12b
obo$72bo28b3o37b2o17b2o2b2o76bo71bo3bo7b3o41b2o139bobo113bo3b2o8bobo
61b2o12b2o56b2o39b2o90bo20b2o53bo$72bo242b3o8b3o41b2o69b2o33b2o34bo
115bo12bobo5b2o127b3o6b2o29b2o112bo19bo20b2o11bo$38b2o59bo33b2o9b2o27b
2o14b2o73bo175bo2bo32b2o151b3o9b2o5bo4bo44b2o84bo3bo146b2o14b3o12bo6b
2o11bo$16b2o20b2o59bo33b2o9bobo26b2o13bo2bo72bo57bob2o98b2o14bo2bo198b
o5bo36bo12b2o78b3o3bo4bo72bo73b2o12b2o2bo10b2o$11b2o2bo2bo80bo45b2o42b
2o73bo57bo2bo10b3o18b2o65b2o15b2o197bobo5bo3bo32bo7bo51b2o37bob2ob2o
70bobo70bobo13bob3o9bo$11b2o2bobo131b2o172bobo31b2o152b3o92bo32b2ob2o
5bobo33bo6bobo50b2o3b2o30bo5b2o31bo39bobo46b2o21bob2o13b2obob2o8b2o5b
3o33b3o$b2o13bo4b2o10b2o66b3o17b2o26b2o183bo5bo121b2o60b2o79b3o32bo2bo
48bobo43b3o9b2o14b2ob2o11bo3bo18b2o13bobo39bo47b2o16b3ob2o2bo17bo2bo8b
o3b3ob2o$b2o17bo2bo9b2o58bo27b2o80b3o128bo5bo120bo2bo59b2o78b2ob2o32b
3o2bo4bo9b2o30bo5b2o37bobo25b2obo11bo22bo2bo12bobo35bo74bo2b2o18b3o11b
2ob3o30bo5bo$21b2o69bobo158bo80bo5bo121bobo138b2o3b2o31b3obo3b4obo6b2o
36b2o21bo15b3o25b2o7b2o4bo5bo17b2o14bo36bo61bo13b3o18b3o12b6o30bo5bo$
92bobo3b2o153bo209bo34bo105b2ob2o35bo6bo2b2o66bo45bo6b2o10bo60bo9bo61b
o14bo14bo3bobo14b3o32bo5bo6bo$26bo38b2o26bo3bo2bo22bo129bo60b2o20b3o
158bobo117b2o24b2o5bo5bo65bo21bo35bo3bo2bo60bo38b3o30bo28bobo2b2o16bo
45bobo$25bobo23b3o10bo15bo17b2o22bobo79b3o32bo74bobo180bo2bo116b2o21b
3o2b4obo3b2o87bo2bo33bobob3o61bo48bo51bobo39bo16b3o8bo$25bobo16b3o18bo
bo12bo41bobo114bo9b3o3b3o57bo113b2o67b2o139bo2bo11bo87b2o3bo23b2o123bo
bo51bo40bo$26bo39b2o12bo42bo49b2o64bo189b2o208bo2bo35bo62bo5bo21b3o80b
o9b2o32bobo92bo$42bo5bo18bo104bo2bo77bo64b2o122b2o112b2o16bo28b3o33bo
2bo34bobo38b2o20bobo2bobo22bo80bobo8b2o33bo31bo$42bo5bo16bo10bo96b2o
31b2o45bo64b2o122b2o111bo2bo15bo28b2o39bo32bobo38b2o21bo109bobo74bobo
19b2ob2o12b3o$42bo5bo20bo5bobo114bo13b2o45bo144bo71b2o84bobo15bo29bobo
34b3o34bo173bo48b2o25b2o22b2o13bobo$45bo18bo4bo5bobo91bobo19bobo89b2o
112bobo70b2o85bo43bob4o17b2o37b2o227bo7bo2bo48bo14b3o10b2o21b2o$44bobo
18b2o2bo6bo50bo42b2o18bo2bo48bo40b2o38bo72bo2bo25bo80bo95b3o19b2o36bo
2bo87bo60b2o75bobo7b2o35b2o40b2o20bo2bo$44bobo17bobob2o19b3o35bo42bo
20b2o48bobo77b2ob2o71b2o26bo79bobo155b2o87bo61b2o75bobo44b2o21b3o39b2o
$45bo18bo4bo57bo35b2o32bo43bobo31b2o44b2obo100bo79bobo242b2o3b2o26b2o
107bo68b2obo$64bo3bo25b2o67b2o32bo44bo32b2o42bo3bo138b3o41bo11bo4b2o
229b2obo25bobo177b2o19b2o$65b3o25bo2bo100bo4bo94b2o18b2o102b3o77b3o13b
obo3b2o158bo65bo2bo4b2o25bo102b2o7b2o57b2o27b2o$93bo2bo34bo69bobo31bo
27b2o10b2o20b2o17bo33b2o26b2o113b3o21bobo162bobo67bo133bo2bo5bo2bo56b
2o$94b2o34bobo68b2o10bo21bo26bo2bo9b2o38bo3bobo28b2o26b2o45bo92bo75bo
86bo2bo23b2o8b2o32bo2bo131b2o7b2o$130bobo79bobo20bo9b3o15bobo48bo6bo3b
2o98bo167bob2o85b2o24b2o7bobo30b4obo171bo$2o129bo28b2o50bobo49bo18bo8b
o17bo5b5obo12b2o19b2o67bo60b2o8bo16b2o7b2o70bobo122bo29b2ob2obo27b2o
32bo18b2o8b3o43bo34bo20b2o$2o158b3o4bo45bo38b2o29bo8bo16bob3o6b2o13b2o
11bo6bo2bo126bo2bo6bobo14bo2bo5bo2bo71b2o151b2ob2o7bo20bo2bo31bo18b2o
42b2o9bobo33bo20b2o47bo$126b2o7b2o22bobobo2bobo22b2ob2o55bo2bo28bo7bob
o15bob2o2bob3obo25bobo6b2o38b3o43b2o42b2o7bobo15b2o7b2o72b2o26b2o123bo
2b2o7bo8b2o10bobo32bo26bo5bo29b2o9bobo103bo$125bo2bo5bo2bo29b2o22b2ob
2o56b2o56bo5bo30bobo53bo37bo2bo7bo43bo99b2o25bo2bo121bobo10bo8b2o11bo
60bo5bo41bo104bo$126b2o7b2o29b2o56b2o93bo8b3o12bo4bo53bobo30b2o5bobo7b
o65bo76b3o26b2o53bo49b2o17b2o94bo5bo127b2o6b3o$95b3o67b2o3bo53b2o85bo
5b2o22b2obo56bo2bo30b2o6bo8bo32bo31bobo75bo8b2o73bo48bo2bo17bo7b3o3b3o
55b2o155b2o$11bo119bo33b2o2bobo122b2ob2o7b2o2bobo3bo4bobo2bo5bo8b2ob2o
6b2o48b2o80bobo30bobo56b3o17b2o6b2o28b2o43bo49b2o10b2o78b2o23b3o$11bo
88bo29bobo8bo18b2o7bobo92bo32b2o7b2o2bo2bob3o2bo3bobo5bo9b3o6bo2bo129b
obo31bo114bo2bo104b2o18bo199b2o6b2o$11bo87bobo28bobo7bobo16b2obo7bo92b
2o28bo2bo14b2o8bob2obo5bo19b2o131bo88bo5bo53b2o125bo185b3o11b2o6bo2bob
2o$94bo4b2o30bo8bobo16b2obo100bobo26bo29bo81b2o30bo104b2o12b2o10b2o5bo
5bo11b2o90bo65b2o9bo42b3o50b2o109bo5b2o$94bo46bo19bo83b2o81b2o14b2o57b
o2bo28bobo65b2o36b2o11bobo10b2o5bo5bo10b2obo29b2o19b2o4b2o30bobo64b2o
23b2o79b3o110bo$67bo26bo150b2o10b2o13b2o5bo11bo2bo33b2o13bobo57bobo28b
o2bo65b2o50bo35b3o12bo17b2o19b2o4b2o30bo2bo67b2o18bo2bo24bo5bo47bo73b
3o36bo4b2o33b2o$66bobo188b2o13b2o2bo10bo4bob4o42bo2b3o13bo44bo30b2o48b
2o89b3o14b2o10bo78b2o68b2o19b2o25bo5bo36b2o47b2o74bo38b2o$44bo21bobo4b
o62b3o137bo3bo5bobo4b2o44b2o17bobo105bo17bo2bo52b2o52b3o9bo195bo5bo35b
o2bo8bo37b2o75b2obobo$17bo25bobo21bo4bobo200bo3bo6bobo4bo3bo7b3o30b2ob
2o15bobo15b2o44bo43bo18b2o52bobo51bo2bo75b2o140b2o29b2o9b2o40b3o30bo
27b2o14b2o37bo$16bobo24bobo27b2o124b2o75bo5b2o3bo6b3o6bo3b2o18b3o9b2ob
2o15bo16b2o44bo43bo73bo51b2obo76b2o139bo2bo25bo13b2ob2o69bobo26b2o14bo
38bo$16bobo25bo143b3o8b2o80b3o19bo2b3ob2o14bo2b2o11b2o5bo33bob2obo33bo
169b6o90b2o75b2o46bo2bo24bobo14b3o35bo5bo27bo2bo80bo$17bo158b2o103bobo
9bo9bo2bo3b2o14b2o3bo9bobo4bo14b2o21bobob3o66b2o131bobo2bo157bo9bobo
46b2o25bobo14b2obo34bo5bo28b2o$109bo65bobo101b2o12bo10b2o2bo2bo15b3o2b
o9bo5bo3bo9bo2bo16bo3bo71bo2bo63b2o64b2obo2bo93bo63bo10bo25bo48bo17b2o
35bo5bo$12b2o7b2o25b2o50bo7bobo32bo32bo83bo18bobo11bo16bo18b2o2bo8bo5b
o4bo9b2o16b2obobo17b2o19b3o31b2o63bobo9b2o16bo36b2o2bo95bo63bo27b2o6bo
bo47bo15bo$11bo2bo5bo2bo24b2o49bobo6bobo32bo116bo19bo23bo3b2o20bo2bo
14b2o3bo27bo2bo14b3o2b2o101b2o16bo10b2o8bo6bobo35bo99bo35b3o53b2o5bobo
48bob2ob3o10bo3b2o33b2o$12b2o7b2o76bobo7bo33bo72bo30b3o10bo68bo2bo15bo
7bo2bo22b5o120b2o3b2o31bobo5bobo35bo3b2o93b2ob2o78b2o15b2o28b3o18bo3bo
3bo7b3o3b2o7b3o4b2o17b2o$35b2o63bo115bo82b2o3bobo22bo2bo15bo7bobobo21b
2o127bo2bo30bobo6bo36bo96b2o2b3o78b2o4b3o16bo3b2o38b2ob2o3bo21b4o3b2o
9bo115b2o$17bo17b2o102b3o3b3o68bo28bo5bo4b3o3b3o34b2o28b3o17bo6bobobo
52bo98b2o32bo44b2o2bo26b2o53b2o9b2o2b3o74b3o2b2o2bo3bo15bo3b2o26b2o14b
2obo21bo3bo14bo115b2o$16bobo21b2o61bo141bo5bo17bo14bo28b2o38bo3b3o23b
5o24bobo177bob2o25bo2bo52b2o89b5o4bo20bo31b2o16bo15b4o22bo$16bobo20bo
2bo59bobo38bo101bo5bo8bo8bo13bobo27b2o69b3obo23bobo178bo27bo2bo142b2o
6bobo3bo70bo3b2o6b2o2b2o23b2o$17bo22b2o60bobo38bo32b2o82bo8bo13b2o101b
obo24bo198b2o8b2o69b3o2b2o62b2o4bo4b4o4b2o19bo50bo2b2o7b4o17b3o4b2o$2o
101bo28bo10bo31bo2bo68b3o10bo89b3o155b2o97b2o3b2o85bo33bo27bo2bo4bob2o
3bo4bo19bobo47b3o10bo6b2o2bo$obo128bobo42b2o115bo56bo2b2o136bo16b2o79b
2o16b2o90bo32bobo26bo2bo5bo3bo4b2o20bobo60bo6bob3o14bo39b2o4b2o$bo105b
2o22bobo29bo128b4o55b3o70b2o64bobo26bo4b2o62bo2bo103bo2bo33b2o28b2o11b
2o25bo54bo16bo15bo29b4obo4b2o4b2o$36b2o64b2o3b2o23bo30bo127b2o2b2o5b2o
48bo70bo2bo29b2o6bo25b2o26bobo3bobo62b2o26b2o69b2o5bobo156bobob2o3b2o
25bo33b3o$36b2o64bobo58bo131b2o5b2o120b2o29bo2bo4bobo52bobo4b2o66bo8b
2o12bobo69b3o4b2o156bo2bob2o3b2o55bo2b2o2bo53bo33bo$74b2o27bo28bo93b2o
68bo27b3o128bobo5bobo37bo15bo73bo8b2o14bo69bo4b3o26bo133bo4bo60bo2b2o
54bo32bobo$74b2o56bo61b2o30b2o67bo37b2o47bo73bo7bo37bobo88bo93b4obo2bo
21b2o3bo132bobo3bo14b3o44b3o14b2o39bo31bo2bo$132bo36b3o22b2o99bo35bo
49bobo3b3o112bobo9b2o117b2o50b3o5b2o22b2o3bo130bobobo3bo62bo15b2o5b2o
65b2o$80b2o66b2o29b3o34bo97b2o5bo7bo4bo27b2o17bobo119bo9bo2bo20bo66bo
28b2o49b4o38b2o96b3o25bo2bo3bo25b2o60b2o28b3o$30b2o48b2o66b2o65bobo3b
3o84b2o4b2o4bob2obo2bo32bo2bo17bo131b2o21bo65bobo78bobo39b2o7b2o30b2o
84bobo28bo2bo23b2o$17b2o10bo2bo73bo79b2o27bobo35b2o52bo2bo2bo6bo3bo8bo
15b2o10bobo14b2o157bo64bo2bo128bo2bo56b2o58bo30b2o24b2o$17b2o11b2o74bo
79b2o28bo8bo27b2o53b2o4b2o4bob2ob2o4bobo15b2o11bo16bo139bo83b4o128b2o
32b2o23b2o144b2o$48b2o54b3o118bo88b2o5bo4b7o44bo140bobo66b2o14bob2obo
123bo36bobo168b2o$4b3o40bo3bo33bo6bo10b2o23b3o94bo151b2o95b2o14b2o26bo
bo65bo17bo3bo84bo15bo21bobo36bo182b2o55b2o$46bo4b3o31bo6bo15b3o227b2o
18b2o5bo79b2o27b2o14b2o27bo10bo54bo3bo14b2o2bo83bobo14bo21bobo23b2o70b
2o17bo68bo35b2o8b2o45b2o$46bo7bo30bo6bo53b3o66bo5b3o113bobo17bo2bo4bo
78bo2bo81bobo52bo5bo15b2o85bobo13bo22bo23bo2bo53b2o12bobobo16bo67bobo
42b2o2b2o38bo$34b2o10bo4b2obo16b2o30b2ob5o104bo120bobo19b2o5bo55b2o22b
obo81b2o53bobo2b2o16bo66b2o18bo61bo2bo52bo2bo10bo4bo16bo68bo9bo33b3o
41bo$33bo2bo10bo3b3o17b2o8b3o10b3o9bo3bo104bo121bo82bo2bo22bo138bo3b2o
82bobo81b2o54bobo11b4o96b2o31bobobo2bo37bo$2bo31b2o70bo4bo38b3o91b2o
11b2o37b2o64b2o56bobo187b3o61bo77b2o43b2o15bo13bo15b3o3b3o56b2o16bobo
29b3o4bo$bobo55b3o23bo6bo7b2o4bobobo100b3o3b3o23bo2bo10b2o37b2o63bo2bo
56bo99b2o9bo58b2o16bo3bo106bo31b2o42bobo104b3o2bo2bo15bobo30bo2b3o41b
3o9bo$o2bo49b2o5b2o23bo6bo7b2o2b2o3bo133bo2bo114bo2bo156b2o8bobo9bo46b
o2bo15b2o3bo104bobo74bobo49bo60b2o16b2o32bob3o11b2o40bo$obo49bo2bobo
27bo6bo7b2ob2o5b2o12b2o63bo25bo28b2o21b2o70b2o21b2o28bo139b2o8bobo45bo
2bo21bo39b2o39b2o20bo2bo67b2o57bo78bo8bo40b2o26bo13bo$2o51bo3bob2o6bo
33bobo6b2o11bo2bo61bobo24bo4b2o4bo40b2o70b2o51bo149bobo45bo3bo17bo2bo
39b2o39b2o21b2o67bo2bo56bo86b2o68bo$48b2o4b2o3b2o5bo39bo4b2o11bobo27b
2o32bobo24bo4b2o3bobo164bo73bo76bo47bo2bo20bo18b2o87b2o64b2o142bo71bo
9b3o3b3o$48b2o4bo2b2o6bo3b3o31bobob2o16bo27bo2bo32bo34bo2bo2b2o233bobo
5bo3b2o116bo13b2o3bo19b2o3b2o82b2o38b2o167bo2b2obo$54bo16b2o30bobobob
2o43b2o69b2o3b2o29b2o175b2o25b2o6bo3b2o59b2o52bo16bo3bo25b2o121bo2bo
166bo2b4o35b2o43bo$53bobo5b2o6bo3bo32b2ob2o132b2o16b2o17b2o42b2o112b2o
33bo63bo2bo54bo14b3o120b2o27bobo184bo17b3o4b2o7b2o22bo4b3o4bo$4b2o24bo
22bo2bo4b2o6b4o29b2o3bob2o131bobo34bo2bo40bo2bo19b2o23b2o13bo127bo23b
2o41b3o9bob2ob2o95b3o35b2o28bo183b2ob2o18bo11bobo22bo11bo$3bo2bo23bo
23b2o10b3ob2o8bo27bo134bo36b2o32b2o7bobo13bo5bobo23bobo11bobo126b2o12b
o63b2o3bo169bo58bo120b2obo14bo5bo10b2o23bo$4b2o24bo49bo233b2o8bo13bobo
4b2o25bo13b2o18b2o28bo28bo49b2o10b4o12bo48b3obob2o166bobo17b2o38bo26b
2o95bobo12bo2b2o$16b2o62bo183b2o72bobo65bobo27bo28bo24bo24b2o14bo10bob
o47b2o3bo168bobo17b2o38bo26b2o94b2ob2o11bobo2bo2bo$15bo2bo27bo30bo186b
2o73bo51b2o14bo28bo28bo24bo19b3o2b3ob2o5bo5bo9bobo8bo27b2o184bo182bobo
$16b2o28bo3b2o24bobo3b3o86b2o179b2o36bobo97bo20b2o3bo4bo10bo10bo9bo27b
obo202b2o163bo$46bo3b2o24bobo27b3o61bo2bo66b2o17bo92bobo36bo82bo46bo4b
o5bo20bo27bo181bo22b2o160bo22bobo13b2o$38b2o37bo93bobo66b2o17bo75b2o
16bo7bo79bo32bo11b3o3b3o26b2o3bobo2bo230bobo182bobo21b2o14b2o$32b2o3bo
2bo131bo63b2o21bo75b2o24bo78bobo31bo52bo2bo221b2o7bo2bo29b2o152b2o10b
2o$32b2o3bo2bo65bo128bo2bo122bo78bobo47bo26b2o4bo5bo222b2o8b2o7b2o21b
2o40b2o57b2o63b2o16bo43b2o$38b2o38b2o25bobo24b2o66b2o23b3o8b2o73bo129b
o48bo27bobo3bo52bo193b2o57b3o3b2o56bo2bo73b3o5b2o41b2o$78b2o25bobo23bo
2bo26b2o36bo2bo107bob2o5b3o41b3o124bo27bo2b3obo51bo157b2o158b2o28b2o
40b2o2bo2bobo$106bo25b2o21b2o3bo2bo31bo4b2o21bo5bo51bo154b2o7b2o55b2o
14b2ob2obobo50bo157b2o68bo118b2obo6b3o30b2o2b2o4bo$36bo64b2o52b2o4b2o
32bo27bo5bo50bobo78bo73bo2bo5bo2bo53bo2bo13b2ob2o2bo12bo99b3o23b2o138b
obo29b2o89bo45bo2bo$34bo2bo12bo50b2o92bo27bo5bo40bo9bobo27bob2o47bo59b
2o13b2o7b2o55b2o5b2o8bob2o14bobo33b3o28b3o25bo30bo2bo55bo67bo13bobo29b
2o52bo30bobob2o24b2o21b2o$33bo4bo11bo219bo10bo13b2o13b2o49bo58bo2bo85b
2o8b2o16b2o94bo30b2o54bobo66bobo13bo83bobo29b3o26b3o$33bo4b2o10bo28bob
o115b3o25b3o29b2o4bo6bo21b2ob3o96b2o25b2o18bo76bo112b3o85bo33b3o33bobo
81b3o13bobo24bo5bo4bo21b2obo$33b2obob2o38bo76bo83b2o16b2o3bobo26b3o
100b2o44bobo149bo59b2o23b2o41bobo67bo74bo24bo25b2o5bo4bo20bo3bo60b2o$
24bo15bo5b3o3b3o5bo20bo72bobo26b3o53b2o21bobo7b3o17b2o58b2o86bobo73b3o
73bo59b2o13b2o8b2o41bo87b2o54bobo4bo5bo38bo3b5o2b2o4b2o15b3o61b2o$10b
3o10bobo9b5o19bobo17bo2bo72bo32bo74bo88b2o87bo21b2o50bo3b2obo27b2o40bo
74b2o52bo63b2o7b2o11bo2bo54b2o4bo5bo43b2o10b2o16bo41bo$23b2o11b3o11bo
7bo2bo18b3o69bo34bobo207b2o64b2o49bo6b2o27b2o3bo155b2o7b2o62bo2bo5bo2b
o11b2o6b2o10bo42bo5bo42bo71bobo$50bo8b2o9b2o8bo7b2o61bobo33bobo6bo78b
2o81b2o24b2o11b2o115bo7bo30bo2bo74b2o78bobo6bo8bo55b2o7b2o19bo2bo9bo
72b3o8b2o78bobo16b2o$26b2o6b3o13bo19b2o9b3o4b2o61bobo34bo6bobo77b2o18b
2o61b2o24b2o128b5ob2o30b4o75b2o79bo6bo3bo4bobo73bo11b2o3b2o5bo44b3o19b
2o3bo2b2o6bo3bo47b2o28bo17b2o$26b2o8bob3o42bo68bo11bo30bobo97b2o32b2ob
2o37b2o141bo3bo31b2o3bo152b2o14bo65bo12bobo15b2o77bo4bo6bobo20b2o6b2o
18b2o$32bo3b3o2bo37bo2b2o80bo31bo58bo73b2ob2o37b2o142bo34bo2b2o152bo2b
o9b4o3b2o60bobo11bobo87b2ob2o4b3o5b3ob2o11bo15b2o25bo$32bo3bobo41b3o
81bo6b3o60b2o18bobo54b3o118bo39b2o40b2o34b2ob2o152b2obo16bo8b2o51bobo
12bo32b2o54b3o13bobob3o10b3o6b3o30b3o14bo$2o30bo5bob2o39bo152b2o18bo2b
o9bo164bo39b2o44bob2o30b2o3b3o124b2o24bob2o13bo8b2o52bo46b2o69bo3b2ob
4o6bob2o8bo29b3obo13bo18b2o$2o33bo124b3o92b2o9bobo163bo67bo18bo33b2ob
2o2bo68b2o52bobo24bo2bo98b2o94bo3bo3b2o6b2o19b2o19b2o17bo18b2o$39bo
226bobo65b2o79bo83bobo43bo6b2o2b2ob2o67bo2bo52bo26b2o99b2o93b3ob2o3bob
o6bo6b3o10b2o19b3o3bob2o$35bo3bo15b2o34bo175bo66b2o34b3o41bobo81bo2bo
43bo75bo7b2o294bob2o3b3o34bo2bobo6b3o3b3o21b2o$34b2o2bo16b2o28b2o3b3o
31bo288bo2bo82b2o51bo4bo3bo58bobo302bo43b2obobobo33bo2bo$35b2o25b3o19b
o4b2o2bo30bo146b2o95bo5bo39b2o54b2o41b2o40bo5bo58bobo30bo26b2o6bo132b
2o11bo91b3o42b3o11bo25b2o$36bo11bo43b3o29bo27bo117bo2bo94bo5bo79b3o13b
2o41b2o38bobobo4bo58bo30bobo24bobo6bo7b3o43b3o8b2o66b2o11bo43b2o9bo37b
o43bobo11bo$50bo41b2o7b2o4bobo42bo106b2o10b2o25b2o68bo5bo179bo3b4o62b
2o26bobo25bo7bo63bo2bo78bo43b2o9bo10bo14bo51b2o4bo11bo$25bo21bo2bo8b2o
7b2o22bo7bo6bo2bo41bo106b2o36bo2bo189bo132bo2bo5b2o19bo99bobo63bo33bo
35bo9b3o12bobo49bobo4b2o2bo$24bobo19bo2bo8bo2bo5bo2bo17b4o7bo2bo53b2o
53bo4b2o80b2o41bo28b3o116bobo125b2o4bobo6b2o120bo64bo32bobo43b4o13b3o
28b2o18bobo5bo2bo$24bobo19b2o11b2o7b2o10b2o6b3o9b3o8bo17bo26b2o52bobo
3b2o122b3o145bo2bo80b2o43b2o5bo194bo32bobo46b2o13b3o27b2o26bo2bo$25bo
20b2o32b2o7bo12b3o4b2o17bobo79bobo18b2o106bo2b2o145b2o81b2o136b3o31b3o
106bo39bo7bo11b2o3bo56b2o$64bo37b7o19b2o81bo19b2o105b2o3bo35b2o95b2o
77b2o54b2o90b2o187b4o5bo11b2o3bo11b2o34bo$63bobo35bo2b5o10b2o12b2o53b
2o118b2o25bo2b2o3bo35b2o95b2o76bo2bo53b2o90b2o11b2o173bob4o16bo3bo12b
2o33bobo$63bobo35b3o3bo11b2o11bobo53b2o66b2o6b2o42b2o26b3o4bo211b2o
158bobo151b2o19b3o3b2o18bo47bo3bo$64bo37bo30bo122bobo4bo2bo45b2o21bo2b
o99bo15b2o159bo100bo31b2o119b2o20bo4b2o$23b3o231bobo3bobo45bo2bo21b3o
98b3o6b2o5bo2bo157bobo30b2o50b2o47b2o142bo3b2o66bo2bo18b2o$78b2o2b2o
174bo5bo47b2o25bo95b3o7bo2bo4b2ob2o156bobo29bo2bo40b2o7bobo174b2o18b3o
2b2o61b3o19b2o$78b2o2b2o254b3o51bo42b3o16bo2bo60b3o19bo74bo30bobo41b2o
8b2o145b2o27b2o19b2o3bo$178b2o158b2o3b2o47bo42b2o12bo5b2o38bo13b2o18b
2o9bo40bo65bo33b2o19b2o117b2o23bo2bo$178b2o162bo2bo46bo36b2o9b3o2bo3bo
45bo12bo2bo4bo5bo6b2o9bo21b2o16bobo98b2o19bobo32b3o81b2o24bobo122bo$
201b2o47bo92b2o83bo2bo9b2ob2o2bo46bo13b2o5bo5bo39b2o16bobo46b2o72b2o
143bo37b2o83bobo$136bo63bo2bo45bobo27b2o129bo17b5o9bo2b3o68bo5bo58bo
47b2o237bo16bo2bo27bo28b3o23bobo39b2o$135bobo63b2o46b2o28b2o101b2o25bo
bo16b5obo6b3o47b3o3b3o117b3o89bo114bo42bobo15bo2bo23bo3bo55bo39bo2bo$
136bo245b2o7bo17bobo20b3o5bo2bo13b2o59b3o188bo57b2o54bobo41bobo16b2o
24bo3bo96bobo$141b2o99bo148bo18bo19b4obo5bobo51bo45b2o86b2o78bo57b2o
54bobo42bo145bo$47b3o90bo2bo98bo21bo102b2o10b2o10bo37b3o9b3o15b2o34bo
38b2o5b2o86b2o193bo$140bobo99bo21bo23bo78b2o10b2o114bo37bo2bo392b2o$
36b2o103bo4b2o108b2o6bo15b2o5bobo13bo230b2o225bo57b2o7b2o8bo90b2o37b3o
$36b2o107bo2bo106bo2bo21b2o5bobo12bobo83b2o40b2o3b2o225b2o57bo38bobo
55bo2bo5bo2bo6bobo42bo111b2o$146b2o52bo50bo4bobo29bo13bobo27b3o53b2o
40b2o2bobo21b2o201bo2bo55bobo37bobo26b3o27b2o7b2o7bobo41bobo78b3o29b2o
$101b2o96bobo48bobo4bo45bo48b3o76bo4b2o15b2o3b2o202b2o56bobo38bo14bo
61bo41bo2bo27bobo$20bo80b2o96bobo49b2o83bo63b2o30b2ob3o15b2o145bo11b2o
107bo54bo10bo5bo30bo56b2o27bo3bo77bo28b2o$4bo2bo11b3o142bo35bo135bo63b
2o31bo165bobo10b2o110bo51bo10bo5bo29bobo85bo2b2o76bo28b2o$b2o4bo3b3o4b
o2bo141bobo170bo127b2o50bo81bo2bo121bobo61bo5bo29bobo86b2ob2o75bo$o6bo
9b2ob4o41bo28b2o68b2o31bo240b2o24b2o49bobo10b2o69b2o122bobo39b2o57bo
89bo$2obob2o2b2obo5b2o3b2o39bobo27b2o101bo18b2o16b2o63bo85b2o36bo13bo
2bo74bobo10b2o194bo11b2o27b2o22b3o96bo23bo$10b5o4b3obo40bo2bo44b2o83bo
11bo6b2o16b2o62bobo84b2o36bo14b2o76bo44b3o15b2o125bo28bo2bo149bo24b2o
35b2o$9bobo10bo20b2o20b2o11bo32bo2bo16b2o42b2o31bobo28b2o57b2o63b2o58b
o139b2o14b2o124bobo28b2o37bo112bo23bob2o29b3o2b2o$10bobo29bo2bo31bobo
32bobo16bobo41b2o8bo22bobo9bo8b2o7bo2bo51b2o66b2o2bo16b2o46b3o10b2o
115b3obo140bobo6b2o38bo20bo138b2o4b2o$12b2o29bobo32b2o6b3o24bo18b2o50b
obo22bo9bobo7b2o8b2o52b2o38bo19bo6bo2bobo15bo2bo57bo2bo113bo146bo6bo2b
o9b3o25bo20bo135bo2bo5b2o$11b2obo29bo139bobo32bobo110bobo17bobo4bo3b2o
17b2o59bobo113b4o73bo77b2o38bo25b2ob2o127b2o$13b3o159b2o8bo34bo54b2o
24b2o29bobo17bobo4bo2b2o63b2o15bo113bo3b2o2b2o67bobo142b2ob2o159bo62b
3o$15bo5b2obo84b2o63bo2bo74bo22b2o24b2o30bo19bo4bobobo15b2o46bo2bo116b
2o11bo4bob2o68bo9b2o295bobo$19bob3obo82bo2bo30bo32b2o75bo17b2o11bo73b
2obobo14bo2bo27bo18b2o29b2o18b2o66b2o16bobo79b2o268bo26bobo58b2o5bo$
18bo4bobo82bobo31bo77b2o30bo16bo2bo9bobo22b2o19b2o30b2o16b2o27b3o48bob
o16bo2bo84bo23bo326bo27bo22b3o33bo2bo4bo$26bo82bo32bo77b2o48b2o10bobo
22bobo17bo2bo26b3ob3o42bo4bo47bo18bobo107bobo79b3o243bo87b2o5bo$19b3o
4bo185b2o69bo24bo19b2o8bo20bo23bo9bo13b2o3bo66bo57b3o2bo45b2o121bo253b
o5bo20b2o24b2o$28bo16b2o3bo103b2o56b2o123bobo42bobo8bo14bo11bo23b3o28b
2o17b3o45bo109bo57bobo252bo5bo20b2o13b3o7bo2bo$24b3o18b2o3bo27b2o74b2o
36b2o56b2o81bo3bobo42bobo8bo25b3o53bobo64bo17b2o7bo81bobo57b2o252bo5bo
46b2o$24b2obo2bo19bo27b2o7b2o103b2o14b2o40b2o80bobo3bo17b2o8b2o15bo19b
2o5bo8bo2bo19bo33bo15bo5bo61b2o6bo2bo79b2o156b3o36b3o55b2o84b2o$23b2o
3b2o57b2o54b2o33bo29b2o122bobo21b2o7bobo3b2o16b3o3b3o4bobo5b3ob2ob6o
19bo49bo5bo45b3o20bo338b2o59b3o22b2o$14bo14bo113b2o32bobo92b2o59bo32bo
3bo2bo27bobo5bo3b4o2b3ob2o17bo49bo5bo84b3o5b2o220bo90b2o$13bobo49b2o
41b2o68bo93b2o96bobo20bo8bo9bobo2b3o2bo2bo112b2o26bo24b2o74b2o73b2o69b
o71b3o16b2o$13bobo49b2o41b2o227bo33bo21bo14b2o2b2o4b2ob6o67b3o2bo37bo
2bo24b2o3b2o95b2o73b2o69bo103b3o64b2o$14bo155bo21b2o143bo13b3o39bo13bo
bo12bo2bo73bo38b2o25b3o218b3o49bo44bo5bo26b2ob3o62b2o$6bo162bobo20b2o
64bo78bo12bo10bo45b2o4b2o6bob2o55bo18bo65b2o80bo161b3o25bobo9b3o31bo5b
o27bo3bo7b2o$5b3o161bobo86bo90bo4bo52b2o3bobo3bob3o57bo48b2o35b2o78bob
o66b2o67bo5bo46bobo43bo5bo30b2o7b2o83bo$4b2ob2o48b3o110bo87bo89bo6bo8b
2o46bo5b2o2bo20b3o34bo48b2o108b2o5bobo66b2o67bo5bo22b2o23bo79bobo20b3o
69bobo$4bobo2bo245bo69bo9b2o11bo2b2o2bo6b2o2bo52b3o148b2o2b2o63b2o6bo
3b2o16bo114bo5bo22b2o64b2o4b3o31bo93b2o$4bob2ob3o43bo5bo37b2o64b2o88bo
4b3o62bo8bo2bo10bo3bob2o6bob2o12b2o40bo26bo13bo24b2o39bo42b2o2b2o16bo
57bo2bo14bobo166bo40bo2bo37b3o$7b2o46bo5bo13bo22bo2bo42b3o17bo2bo87bo
43b2o24bo9b2o15bob2o22b2o67bo12bobo23b2o38bobo62b3o9b2o46b2o15bobo165b
obo40b2o8b2o15bo25b2o5bo24b2o9b2o$5bobo4bo42bo5bo12b3o22b2o64b2o91bo
39bo2bo50bo2bo91bo12bobo8b2o53bobo6b2o53b2ob2o8b2o7bo56bo125b2o40b2o
49bo2bo13bobo23bo2bo3bobo23b2o9b2o$4bo2bo5b2o52b2o5bo94bo88bo39bobo51b
o2bo8b2o95bo9b2o35b2o17bo7b2o39bo12b3ob3o7bo4b2obob2o179bo2bo52b3o35bo
bo14bobo24b2o4bobo$3bob3o3bob2o29b2o11b3o7b2o6b3o91bo88bo36bo3bo32b2o
29b2o143b2o33bo30bo3bo11b2ob2o9bo3bo4b2obo178b2o15b2o47b2o9b2o15bo16bo
15b3o14bo$7bo2bo2bo30b2o123bo26b2o97bo36bobo18b2o4bo24b3o90b2o50b3o10b
obo28bo5bo11b3o6b2o5bo5b4o48b3o3b3o138b2o34bo5bo5bo2bo7bo2bo49bo$12bo
62bob3o36b2o47b2o29b2o97bo37bo24bobo27b3o62b2o21bo2bo62bo2bo27bo6bo11b
o6bo3b2o2b2o6b2o93bo5bo131bo5bo6b2o9b2o50b3o33bo54b2o$74b2o40b2o46bo2b
o122b2o69bo39bo33b2o15bo2bo21b2o64b2o5b2o21b2o4b2o8bo9b3obo3b4o2bo9b2o
44bo40bo5bo131bo5bo64b3o3b2o20b2o10bobo52bo2bo$73bo2b2o87b2o83bo38bo2b
o70bo36bobo32b2o16b2o94bobo23b2o6b2ob2ob2o8bo2bobo3b2o3bo9b2o44bo18bo
21bo5bo147b3o55bo2b2o20b2o10bobo52bobo$69bo2b2ob3o11bo98b2o60bo39bobo
65bo4bo37bo148bo31bo3bo3bo11bobo3bo4bo14bo40bo18bo34bo126b3o67b2o38bo
54bo5bo$12bo47bo9bo5bo6bo5bo98bobo59bo40bo66bo224b7o11bo6b4o14b2ob2o
57bo23b3o7bobo16bo44b3o72b2o60b4o94bo$7bo2bo2bo45bobo10b3o2bo5b2o3bobo
41bo56b3o15b2o89b2o60bo223bo16bob2o2bo20bo93bobo16bo98b2o18bo2bo37b2o
16bo5b2o14b3o12b3o62bo$3bob3o3bob2o44b2o7b2o3bo3b2o6bo3bo41bobo26b2o
27b2o16b2o20b2o67b2o23bo91bo75bo107bo3b2o2bobo113bo17bo97bo2bo18b2o37b
o2bo19bo2bo40b3o$4bo2bo5b2o5bo2bo52bob2o3b2o4bo41bobo7bo10b2o6b2o5bo
18bo2bo39b2o91bobo27b2o60bobo74bo107bo2bo4b3o7b2o113bo107b2o59b2o36bo
5bo8bo5bo$5bobo4bo6bo3bo29b2o16b2o3bobo4bo37b2o9bo8bo10bobo11bobo16bo
2bo76b3o52b2o3bo25bo2bo59bo2bo73bo76b2o4b3o6b2o15b3o14b2o94bo17bobo
185bo2b4o13bo5bo8bo5bo19b2o$7b2o10bo4bo21b3o3bo2bo15b2o4bo43b2o18bo11b
obo10bobo17bobo71b3o60bobo26b2o61b2o150bo2bo12bo128bobo17bo171bo15b2o
4bo12bo5bo8bo5bo19b2o$4bob2ob3o7b2ob2o28bobo99bo12bo26bo87bo21bo11bo2b
o2bo2b2o3b2o155b3o3b3o72b2o8bo9bo26b2o90b2o2bo2bo188bobo16b4o$4bobo2bo
13bo29bo71bo19bo49b2o83b2ob2o19bo11bo3bo9b2o203bo26b2o13b3o9bo9b2o3b2o
9b3o4bo84bo17b2o176bobo17b2o16b3o12b3o$4b2ob2o61b3o15bo36bo19bo25bobo
20b3o83b2ob2o19bo11bo3b2ob2o31b2o133bo42bobo25b2o13bo2bo3bo4bo9b2o3b2o
8b4obobobo33b2o48bo4bo12b2o89bo87bo$5b3o59bo3bobo13b3o15b2o18bo19bo14b
o9bo3bo19b2o57b2o26bob3o35bobo32b2o133bo41bo2bo37bob2o2bo4b4o25b4obo2b
3o31bo2bo17bo30bo3bo4b2o96b3o31bo17bo124b2o$6bo59bo2bobo2b2o10bo3bo14b
2o3bo48bobo7bo4bo27bo49bo2bo24b3ob2o36bo131bo36bo42b2o18bo17b2o4b3o5bo
4b2o21bo2bo4b2o33b2o18bo31b3o5b2o33b2o60bo4bo29bo16bobo123b2o$65bo3bob
5o11bo2bo18bobo46bo2bo7bo4bo8b2o17bo50b2o25b3ob2o18bobo76b2o68bobo97bo
bo7bo21bo5b2o21bo2bo5b3o51bo43b3o28b2o61bo4bo28bo16bobo7b2o44bobo$64bo
3bob3o15bob2o18b2o47b2o8bo3bo9b2o17bo100bo2bo75bo2bo67bobo38b2o57bobo
6bobo20bob3ob2o17b2o3b2o7bo95b5o20bo74bo46bo8b2o12b2o33bo73b2o3bo$53b
3o8bo2bo21bo2bo30bo46bo2bo36b2o69bobo19bo79b2o27bo41bo11b2o26b2o58bo7b
obo23b3o3b2o14bobo7b2o3bo93bobo23bo46b2o22b2ob2o30b3o36b2o26bo6bo73b2o
3bo$63b4o22b5o28bobo84bo2bo35bo32b3o34b2o39b2o18bo32bo53b2o95bo24b3o3b
3o14bo11bo95b2o23bo47b2o23b2o17bo25b2o7b2o44bo8bo77bo$62b2o10b2o13bo3b
o29bo85bobo35bobo34bo16b2o4bo9bo2bo38b2o17bobo31bo24bo113b2o38bo2bo24b
o5bo93b3o23b3o19b2o67bo24bo2bo5bo2bo44bob6o$63b2ob2o6b2o12bob2o71bo46b
o36bobo35bo16bobo2bo9bobo58bo2bo55bo113b2o37b2o26bobo4bo99b3o18b2obo
17b2o26bo40bo25b2o7b2o17bo33bo$2o19bo42b4o3b2o15bo5bo68bo84bo31bobobo
13b2ob2obobo11bo60b2o9bo46bo18b3o70b2o41bo6bo11b4o26bo3bo99b4o14b2ob2o
2bo43bobo92bobo93b2o$2o18bobo42bo21bo5bo23b2o44bo17bo15bo34b2o44bob2ob
o18b2obo6bo77bo138b2o40bobo3b3o13bo6b3o18bobo100b2ob3o20b2o41bo2bo22b
2o17b3o26bo21bobo30bo62b2o$20b2o66bobo26b2o20b2o40bo9bo4bobo33bobo44b
2o20b2obo8b2o47b2ob2o23bo34b2o6b3o3b3o49b2o77bo2bo2b2o8b2o32b2o99bo3b
2o2b2o16bob2o43b2o23b2o45bobo21bo30b3o21bo$89b2o48b4o8bo29bo9bo3b2o2bo
33b2o19b2o47b2o7b3o47b2ob2o58b2o34b2o28b2o78b2o5bo6bobo9bo2bo104b3o12b
obo3b4o13b3ob2o117bobo49b2o3bo21bo11bo$17b2o70b2o48b6o5bo2bo37b3o5bo
53bo2bo46bob2o130bo23b2o111bo3bo7b2o2bo5bo8b2o112bo3bo3b2o15b3obo2b3o
113bo50bo2bo23bo10bobo$17b2o10b2o47bo8bo47bo4b2o7bo3bo23b3o3b3o8b4o2bo
53b2o32b3o15bo18b2o110bo136bo11bobo7bo2bobo2bo2bo30b2o26b2o10bo24bo5bo
10bobo23b2o3bo2bo164b3o12b2o20bobo$13bo15b2o46bobo7bo15bo30bobo3b2o2bo
3bo4bo7bo33bo3bo69b2o17bob3o11b3o17bo2bo8b2o49b3o47bo35b3o96bo5bo7bobo
b2o5bo4b3obo30bo2bo25b2o9bobo8b2o13bo5bo11bo24bo3b2o3bo15bo162b2o21bo
8bo$12bobo37b2o23bobo7bo15bo31bo5b3o5bo3b2o4bo2bo18bo16bo30bo38bo2bo
21bo31b2o9b2o234bobobobo7bo12b2ob2obo32b2o37bo2bo7b2o16bo42bo2bo2bo11b
o3bo31bo26bo90bo43bobo$13bo24bo13b2o24bo24bo49bo5b3o19bo47bo13bo25b2o
18b2ob2o177bo5bo200b2o24bo3bo22b3o15bob5o11bo3bo13bo16bobo24bobo88bobo
4bo37bobo$37bobo49b3o62bo4b2o20bo5bo41bo12bobo40bo185bo5bo95bobobobo
121bobo47b2o14bo17bo16bobo3b2o19bobo10b2o23b2o51bobo4bo16b2o20bo$37bob
o59b3o3b3o48b2obo26bobo53bobo39bobo10b2o61b2o109bo5bo95bo5bo120bob2ob
3o5bo71bo17bo4b2o20bo11b2o23b2o52bo5bo16b2o45b2o$38bo115b2o2bo27bobo8b
o45bo40b2o12b2o55b2o3b2o55b2o21b2o133b3o122bobo9bobo131b3o142b2o24b2o$
103bo52bobo28bo5bo2b3o71b2o28bo27b2o24bo2bo58bobo20bo2bo10bo12b2o5b3o
61b2o31b2o3b3o123bo3b3o4bobo3b2o61b3o3b3o127b2o94b2o2b2o$103bo89b2o6bo
46bo21b2o25bobobobo19bo4b2o25b2o60bo21bob2o9bobo11b2o46b2o20bo2bo29bob
o102b2o28bo3bo4bo4b2o82bo41bo5bo28b2o36b2o41b2o51b2o$103bo47b2o22b2o
17b2ob2o2bo21b3o21bobo9b2o35b2obob2o20bo112b2obo3bo8bobo7b2o50b2o21b2o
31bo102bo2bo28bobo77bo16bo6bo34bo5bo27bo2bo68b2o8b2o25bo$113bo37b2o22b
2o17b2ob2o2bo45bo2bo8b2o35b2o3bo21bo112bo4bobo9bo8b2o58bo61b2o88b2o30b
o78bo16bo4b2obobo5b2o24bo5bo28b2o27b2o39bobo35bo12b2o$112bobo65b2o14b
3o5b2o15bo26b2o25b2o21b3o68b2o66bo5bo78bo59bo2bo199bo23b2o2bo3bo90bobo
39bo36bo12b2o$112b2o25bo40b2o11b2o2b2o4bo2bo14bo46b2o5b2o92b2o27bo40b
4o38bo22b3o11bo3bo59b3o229bo2b3o26b3o60bo$43b2o5bo57b2o27b2ob2o10b2o
39b3ob2o5b2o15bo45bo2bo127bo41bo40bo35bobo61bo2bo229bo2bo$43b2o5bo56bo
bo29bo12b2o39bo3bo42bo26bo2bo110bo16bo82bo35bobo60b2obo63bo160b2o3b3ob
2o172b3o$50bo57bo85bo2bo41bobo26b2o110bobo39bo95bo62bobo62bobo3b2o43b
3o12bo98bo2bo2b2o18b3o17bo101b2o$140bo6bo46bobo42bo2bo88b2o46bo2bo38bo
bo13bo35b2o107bo63bo2bo2b2o57bobo94b2o47bo101b2o10bo$52b3o84b3o4bob2o
27bo62b2o52bo36b2o46bobo6bo32bobo11b5o33b2o38b2o7b2o36bo86b2o62bobo5bo
35b2o40bo8b2ob2o23b2o21bo112bobo$28b2o108bobobo3bob2o26b2o37b3o64b2o9b
obo71bo12bo6bobo32bo11b3ob2o72bo2bo5bo2bo34bobo126b3o5bo15bo5b2o10bo
24bobo38bobo7b4o3bo20b2o32bo96b2o3bo2bo$16b2o10b2o20bo23b2o62bobobo4bo
27b2o104bo2bo7bo3bo69bobo19bo46bo2b2o47b2o3b2o19b2o7b2o2b3o30bobo47bo
8b3o54bo19bobo20b2o9b2o25b2o38b2o9b2o3bobo38b3o3b3o6bo70b2o23bo2bo3b2o
$16b2o32bo22bo2bo49b2o11b3o6b2o25b2o3bo94b3o4b2o9bobo71b2o67b3o47bo2bo
bo2bo31bo2bo30bo47bobo64bo20b2o20bo9bo60b2o21bobo53bo44b2o24b2o24bobo$
50bo23b2o50b2o12bo7b2o20bo3bob2ob2o94b3o16bo19b2o121bo49b2o3bobo23bo7b
obo41bo37bobo64bo53bo58bo2bo21bo43bo22b2o31b2o51bo$144b3o2bo18b2o2bobo
bobo135b2o58bo118bo23bobo7bo42bo38bo119bobo3b3o33b2o16bobo43b2o20bo21b
o2bo$86b2o61bo17bo4bo4b2o194bobo50bo83b2o5bobo7bo42bo122bo36bo4b3o33b
2o17bo43bobo20bo21bobo87b2o$86b2o57bo20bo4bo5bobo91b2o7b2o91bo2bo35b2o
11bobo13bo28b2o38b2o6bo6bob2o29bo133bobo34b2o6bo97bo44bo79b2o6bo2bo$2o
97b2o39b2o4bobo18bobo7b3o15b2o74b2o7b2o8bobo81b2o36b2o11bobo12b3o26bob
o52b2ob2o28bobo6b3o3b3o34b2o81bobo33b2o6bo2b2o40b2o103b2o7b2o63b2o7b2o
$2o10bo86b2o38bo2bo4bo21bo4b3o18b2o74b2o7b2o8b2o91b2o41bo15b2o26bo53b
3o11bo18bobo49b2o17bo64bo34bobob2obo28b2o14bo2bo21b3o77bo2bo5bo2bo$12b
o127b2o109b2o38bo28b2o61b2o57b2o5b3o85bobo18bo11bo57bo52bo47b2o3bob2o
26b2o15b2o52bo19b2o29b2o7b2o112bo$4b2o6bo48b2o22bo106b2o57b2o67b2o89bo
6b2o19bo3bobo67b2o22b2o31bo57bo51bobo5b2o7b2o35b2o24bo50bo22bobo18b2o
95bo55bobo2b2o$3bo2bo54b2o22bo72b3o31b2o81b3o133bo5bo2bo17bobo2bobo58b
3o6b2o27b2o18b2o6bo50bo12b2o44bobo4bo2bo5bo2bo31bobobo23bobo48bobo11b
2o9b2o54bo59bobo54bobo2b2o6b2o$4b2o79bo125bo63b3o133bo6b2o16b2o58b2o
44b2o17bo2bo55bobo11b2o45bo6b2o7b2o60bo2bo40bo6bobo11b2o64bobo16b2o40b
obo36b2o17bo11b2o$44b2o12b2o95b2o53bobo17bo163b2o40b2o57bo2bo63b2o55bo
2bo110bo26b2o41bo7bo73bo4bobo15bo2bo40bo10bo26b2o$44bobo11b2o5b2o48b2o
38b3o30bobo20b2o17bo163b2o40b2obo2bo53b2o48b2o72b2o71bo39bo12b2o7b2o8b
2o36bo80bobo4bo17b2o52bo52b3o$45bo19b2o48b2o41bo30b2o39bo182b2o8b2o14b
o2bo75b3o25b2o10bo133bobo50bo2bo6b2o8b2o117bobo76bo57b2o$17b2o5bo16bo
106b3o38bo94bo43bo83bo2bo7b2o132bobo132bobo51b2o107b2o28bo57b3o75b2o$
17b2o4bobo15bo105b2ob2o131bobo19bo12b2o8bo84b2o101bo5bo34bobo52b2o79bo
13b3o50bo94b2o24b2o76b3o3b3o$23bo2bo14bo105b2obo132bobo14b2o3bo12b2o3b
2o3bo159bo3bo23bo5bo35bo42b2o8bo2bo4bo100b2o38b4o4bo42bo69b2o6b2o$24b
2o58b2o39b2o16b2o12b5ob4o21b2o53b2o39bo15b2o3bo17b2o163bo3bo9bo13bo5bo
4b2o72b2o9bobo3bobo54b3o27bo5bo7bobo38bo3bo2bobo40bobo75bo2bo71bo31b2o
$84b2o9b2o28b2o21bo8bo2b5obo20bo2bo52b2o16bo210b3o13bo3bo8bo2bo22b2o
40bo43bo4b2o79b3o3bo5bo7b2o34b2o4bo2b3o2bo40b2o77b2o24b2o36b2o8bo30bo
2bo21b2o$94bobo15b2o34bo7bo6bobo22b2o71bo56b2o70b2o18b3o88bo4b2o10b3o
38b3o6bobo134bo5bo42b3o7b2ob2o60bo84bo2bo34bo2bo7bo30bo2bo20bobo$95bo
15bo2bo33bo3b2ob2o5bo98bo56b2o69bo2bo11b2o3bob2obo80bo6bo4b2o60b2o87bo
57b2o36bobo3bo2bo64bobo54bo10b3o16b2o14b3o6b2o10bo2bo39b2o21b2o$112b2o
26b2o10bo5b2o3bo38b2o177bo8b2o11bo2bob2o3bobo78bobob3o4bo151bobo47b3o
6b2o37b2o3bo2bo64bobo53bobo53b2o11b2o$35bo44b2o65bo3bo8b3o39b2o18b3o
156bo20bo7bob2ob2o83bo155bo2bo96bo4bo67bo5bo48bobo$34bobo43b2o63b3o4bo
196b3o29bo21b2o10bo83bo6bo90b2o58b2o60b3o7bo104bobo48bo$33bo2bo84bo30b
2obob2o46b3o57b2o138b2o2b2ob4o79bob5o22bo71bo2bob3o124bobo103bobo$34b
2o85bo26bo6bo4bo104b2o2b2o136bob2o83bo3b4o21b3o15bo19b2o30bo3b2o36b2o
58bo32bobo9b2o71b2o20bo116b2o$121bo27bo4b2o5b2o97b2o7b2o27b3o37b3o67b
3o5bo43bo33b6o22bo2b2o13bobo18b2o5b2o23bo11bo29b2o57bobo32bo10b2o70bo
2bo136b2o$47bo100bo11b2o97bobo147bobo4b2o41bobo32bo27b2ob2o2b2o9bobo
25b2o23bo11bo57b2o29bobo94b2o19bobo15b2o7b2o57b2o$37bo9bo28bo22b2o12bo
46bo99bo89b2o57bo2bo2bo2bo27b2o11b2o8bo26b3o24bobo2b3o10bo63bo57b2o30b
o58b2o35bobo19bo15bo2bo5bo2bo56b2o$7bo28bobo8bo27bobo3b2o16b2o12bo36b
3o2b2o145b2o45bo2bo56bobo3b2ob2o25bo2bo19bobo25b3o25bo2bob2o167b2o54b
2o36bo37b2o7b2o108b2o$6bobo4b2o21bobo37b2o3b2o30bo16bo25b2o25b2o117b2o
46bobo41bo4b2o3bo5bo3b3ob2o26b2o19b2ob2o53b4o16b2o151b2o28bo53bo130bo
26b2o7b2o$6b2o5b2o22bo90bo2bo51b2o4b2o11bo20b3o42b2o81bo41b2o4b2ob2ob
2o7bo2b3o2b3o43bobo56b2o15bo2bo81b2o96bobo39b2o10bobo41b2o8bo77bo16b2o
8b2o43b2o$128bo2bo8bo47bo2bo9bobo64b2o122b2o9bob2o6bob3obo47bo3bo10b2o
9bo40b3o8b2o18bo35b3o25b2o11bo84bobo38bo2bo9bo2bo4b2o34b2o7bobo76bo16b
2o52bo2bo$90bo38bo4b2o3bobo47b2o10bobo23bo52bo95b2o13b2o12b2o4bobobo2b
o47b6o10b2o8bobo42bo27bo75bobo84bo21b2o17b2o4bo6b2o5b2o10b3o30bobo63b
2o83b2o$90bo42bo2bo2b2o61bo24bo52bo95b2o14b4o6bo7bo2bo2bo49bo3bo20bo
11b2o29bo3bo26bo15b2o58bobo5b2o99b2o23bo59bo25bo38b2o38bo62b2o$2o88bo
38bo4bobo90bo52bo112b3ob2o2b2o2bo4b3obo52bobo33b2o23bo6bo3bo41b2o59bo
6b2o72b2o7b2o41bo84bobo77bo62b2o$2o126bobo4bo105b2o72b2o24b2o55b2ob2ob
o61b2ob2o24b2o31bobo5bo2bo182bo2bo5bo2bo125bobo77bo$128bobo87b2o21b2o
71bobo23bo2bo55bo3bo33bo3b2o24bobo21bob2obo33b2o3bo3bo156b2o25b2o7b2o
37b3o3b3o81bo12bo$129bo27b2o59b2o95bo25bobo92bobo2b2o25bo23b2o21b2o12b
2o3bo3bo157b2o100b2o74bo27b2o$58b2o96bo2bo88bo10bo82bo92bo2bo13b2o39b
3o19b2o20bo142b2o10bo35bo46bo22b2o74bo9bo16bo2bo2b3o$58b2o97b2o88bobo
9bo134b2o39bobo14b2o80b3o20b2o121b2o10bo34bobo45bo110b2o14b2o71b2o$
154bo92bobo9bo75b3o56bobo2b3o3b3o16b2o10bo55bo3bo60b2o133bo34bobo45bo
94b3o12bo2bo60b3o23b2o19bo7b2o$52bo100bobo74b3o15bo118b3o25bo3bo2bobo
2bo16b2o66bo3bo205b2o24bo150bo5bo2bo11bo94bobo6b2o3bo$10b3o22b2o14bobo
59bo39bobo246b3o271b3o3b3o17b2o115b2ob2o23b2o37bo12bobo18bo74bobo11bo$
29bo5b2o14bobo59bo40bo73bo5bo13bo123b2o26bo5bo86b3o47b2o50bo206bo14bo
2b2obo23b2o27b2o9bo10bo2bo17bobo74bo12bo$8bo5bo13bobo21bo60bo53bo17b2o
41bo5bo12bobo36bo85b2o27bo3bo6b2o129b2o50bo84bo25b2o27bo47b2o16bobo13b
o3bobo51b3o21b2o4b3o11bobo58bo$8bo5bo5b2o7b2o4b2o122bo7bo16bo2bo40bo5b
o12bo2bo16bo17bobo114b3o6bo2bo4bo164b3o8bo84bo25b2o26bobo45bo2bo14bo2b
o12bo27b2o29b2o43bo21b2o4b3o29bo$8bo5bo5b2o12bo2bo9b2o7b2o51b3o3b3o32b
2o6bobo6bo17b2o61b2o17bo17bobo93b2o29b2o5bo60b3o24b3o73bo3bo63b2o27bo
19b2o32bobo45bo2bo15b2o14b2ob2o22b2o11bob2o15bo38b2o24bo2bo35bo$35b2o
9bo2bo5bo2bo65b2o24b2o6bobo2b2o65b3o34bo18bo94b2o36bo163bo3bo62bo2bo
33b2o11b2o33bo47b2o32b2ob2o3b2o29b2o2bo16bo5b2o30b2o24bo2bo8b2o$10b3o
34b2o7b2o55bo10b2o33bo3b2o204b2o33b2o175b2ob3ob2o7b2o51bo2bo32bo2bo75b
2o25b2o14b2o15b2o30bob2o21bo2bo36b3o17b2o9b2o21b3o$2b2o109bo255bobo16b
2o14b2o9b3o3b3o76b2o62b2o14bobo5bobo6b2o52b2o34b2o76b2o24bobo14b2o48bo
24b2o$2b2o48bo60bo26bo229b2o16b2o110b2o58b2o2b2o14bo9bo201bo65bo61bo5b
o$51bobo85bobo94bo182bo140b2o18b2obo3bob2o28b2o181b5o50b2o61bo5bo$51bo
bo13bo71bobo76b2o15bobo52bo128bo42b2o118b2o3b2o30bobo5bo118b2o53b3o2bo
49bob3o11b2o46bo5bo$52bo14bo72bo3b3o55b2o13bo2bo14b2o52bobo127bo42b2o
156bo5bobo117b2o47b2o4bo3bo50b2ob3o10b2o36b2o$67bo134b2o13bobo69bobo
162b2o82bo12bo74bo2bo154b3o8b2obob2obobo50b2ob3o48b2o10b3o$158b2o58bo
71bo163b2o34b2o46bo11bobo19b2o18b2o33b2o94b2o52bo16bo4b2obo2bo50b2obo$
63b3o3b3o85bo2bo113b2o154bo58bo2bo45bo11bo2bo18b2o18b2o129b2o26bo24b3o
16bo5bob2obo39b2o8b2o$24b2o132bobo107b2o4b2o42b3o74bo20b3o11bo59b2o59b
2o92b3o102bobo22bo2bo24b2ob2o6bo30bo3bo123b2o$18bo5b2o41bo13b2o76bo
108b2o14b2o102b3o4bo34bo164b2o153bobo21b5obo20bob2o9bo18b3o9bo4bo122b
2o$6bo10bobo47bo13b2o17b3o34bo71b2o32b3o37bo2bo108bo166bo17bo14b2o154b
o23b4ob2o13bo5bob3o8bo30b2o2bo$5bobo9bobo47bo48bo19bobo35bo34b2o73b2o
50b2o9b2o126b2o34b3o47b3o15bobo80bo53bo79bo4bobobo41b2o45b3o35b2o32b3o
$5bo2bo9bo95b5obo16bobo33bobo160b2o9b2o68b2o56b2o83b2ob2o13bo2bo58b2o
20bo53bo14b3o45bo23b2o127b2o57bo$6b2o106bo3bobobo6bo8b2o34b2o99b2o26b
2o111bo2bo4b2o135b3o15b2o59b2o20bo53bo55b2o2bobo19b3o3bo8bo65bo2b2o
107bo21b2o$107b2o7bobobobo6bo144bo2bo24bobo112b2o5b2o101b2o33bo208bo4b
3o5bo25b3obo6bo56bo5bo7b2o86bo10bo21b2o$107b2o5b2obo11bo145b2o26bo69b
2o74bo77b2o48b3o73b2o49b3o44bo19bo2bo4bo4bo24b2o3b2o4bobo11b2o42bo4b5o
b2o2bo85bobo$114bo87b2o46b2o116bo4b2o73bobo6bo34b2o82b4o2b2o69b2o7b2o
40bo35b2o8bobo9b2o7bo5b3o4bo23bo4b2o4b2ob2o9bo2b2o19b2o4b2o14b9o4bo86b
obo11b3o$117b3o3b2o77bobo32bo11bobo116bo47bo31bobo5bobo33bobo84bobobo
77bo2bo8b2o29b2o34b2o8bobo4bo4bobo10b3o2bo28b3obo5bo12b2o4bobo11b2o3b
2o4b2o20b2o3bob2o86bo$49b2o67b2o3bo79bo32bobo10b2o117bo46bobo31bo6bobo
34bo32bo51bo47bo35b2o9b2o76bo4bobo3bo9bo3bo2b2o29bo8b2o12b2o4bob2o45bo
bo$49b2o13b3o51b2ob2o113bobo177b2o39bo68bo99bo79bo2bo24b2o20bobo18b2o
55bo6bo46b2o29b2o63b2o$111b3o4bo3b2o15bo21b2o74bo126b3o3b3o24b2o127bo
33bo65bo77b2o4bo23bobo20bo16bo2bo16b3o40bo3bo47bo5bob2o20b2o44b3o15bo
2bo$2b2o26b2o79b2ob2o2bo3b2o15bo21b2o131bo62b2o38b2o8b2o34b3o27b2o85bo
15bo129bobobo24bo40bo112bo5bo2bobo26b2o55b2o$2bobo25b2o44b2o22b2o10bo
3bo2bo2bo2bobo11bo153bobo32b2o6bo20bob2o7bo37bo2bo53b2o8b2o5b2o46b3o
29bo13b3o123b2o4bo2b2o145bo34bo5bo2b3o24b2o66b3o11b2o$3b2o71b2o17b2o3b
2o10bo3bo6bobo2bo3b2o159bo2bo7b2o21bo2bo4bobo21b2o7bo38b2o54b2o15b2o
93bo123b2o9b2o56bo87bo35b2ob2o3b2o78bo28b2o$55bo38bo2bo15bobo3bobob2o
3bo3b2o160b2o8b2o22b2o4bo3bo18bob2o7bo117b2o60bo15b2o3b3o2bo4b2o118b2o
b5o61bo87bo21b2o16b5o62bo15bobo$55bo39bobo16bo4bo3bobobo41b2o163bo3bo
18b2o74b3o49bobo59bobo14b2o4b2o8bo118bo5bo29bo31bobo63b2o4bo38b2o18b2o
63bo15bobo$55bo40bo23bobo3bo42b2o55b2o106bo3bo147bo50bo9b2ob2obo16b2o
7bo120b5o30bo3b2o20b2o70bobo4bo57bo64bo16bo$120b3o12b2o83bo4bo2bo106bo
bo191b2o5bobo9bob2ob2o121b3o22b2ob2o29bo3b2o19bo2bo5b2o62bobobobo46b2o
105b2o$135b2o5b3o75bo5b2o73b2o33bo32bo158bo2bo4bobo9bo4bo74b2o72bob2o
44b2o9b2o71b2ob2o26b2o18bo2bo70b3o3b3o25b2o$59b2o100bo58bo32bo15bo31b
2o66bo48bo45b2o62bobo5b3o11b3o8b3o2b2o60bobo43bo29bo2bo42b2o17b2o56b2o
7bo28b2o18bobo$50bo7bo2bo97bobo48b2o41bo15bo99bo40bo6bobo4b2o37bo2bo
25b3o34bo6b2o12b3o15bo22b2o36bo44bo8b2o19bobobo117bo2bo4bo40b3o8bo76bo
$50bo8b2o28b2o49b2o9bo8b2o47bo2bo40bo15bo11bo50b2o52b2o22bo6bobo4b2o
38bobo69b2o24bo4bo23b2o81bo8b2o16bo5b2o116b3o4b2obo74b2o8b2o41bo53bo$
50bo38b2o34b2o13b2o9bo58b2o68bobo30b2o16bo2bo22b2o27bobo21bo7bo46bo97b
4o135b2obobo87b2o28b3o2b5o75b2o8b2o41bo53bo$77b2o27bo18b2o24bo77b2o49b
obo30b2o12b2o3b3o19bo32b2o59b2o108b2o39b3o30bo71b2obo87b2o29b2o2bo2b2o
182bo$7b2o37b3o3b3o22bobo27bo6bo114b2o50bo45b2o16b2o6bo5bo62b2o23bo2bo
64b2o41b2o72bo51b2o75b2o41b3o19b2o3bo$7b2o51b2o16b2o23bo4bo4bobo126b2o
95bo5b2o6bo5bo62b2o24b2o19b2o27bo16b2o51bo28bo5bo28bo51b2o48b2o25b2o
64b4o3b2o36b2o$17b2o41b2o9b2o30bo4b2o2bo2bo125bo2bo31b2o7b2o32bo18bobo
12bo4bo58b2o50b2o27bo68bobo27bo5bo91b2o36bo2bo30b2o33bo5bo19bo5bo2b2o
32bo2bo$17b2o9b3o21bo18b2o13bo18b2obo4b2o76bo50bobo30bo2bo5bo2bo31bo
17b2ob2o11bo4bo51bo5bo2bo78bo21b2o44bo2bo27bo5bo91b2o37b2o31b2o25b3o5b
o5bo22b2ob2ob2o33bobo8bo11b2o90bo$52bo137bobo7b2o41bo32b2o7b2o13b2o7b
2o8bo17b2ob2o12bo2bo52bo6b2o101b2o45b2o169b2o62bo5bo22b4o38bo9bo11b2o
52b2o35bobo$52bo31b2o20bo2bo80bo2bo6b2o98b2o7b2o14b2o10b3o15bo54bo134b
2o52b3o136bobo23b2o80bo36bo65b2o5b2o27bo2bo19bo$85bobo19b3o81b2o68b2o
18bo43b2o10b3o55b2o143b3o2b2o83b3o106bo23bo2bo17bo19b3o38bobo108b2o28b
2o19bobo$3b2o105bo150b2o17bobo31b2o21bo23bo17bo15b2o142bo3bo14bo50b3o
19bo2bo63b2o64b2o17b3o59bobo124b2o33bo2bo$3b2o15b3o64b3o15bo2bo46b3o
122bobo11b2o17bo2bo20b3o20bobo15b3o161b2o13bobo72b2o64b2o82b5o59bo125b
2o34b2o$105bo3bob2o144b2o22bo5b2o5b2o18b2o4b2o16bo21bobo14b2obo147bo9b
ob3obo13bo11b2o41bo41b2o5bo118b2o3b2o80b2o110bo$106bob4o36b2o22b3o82b
2o27bo2bo29bo2bo38bo14b2o54b2o76bo16b3o8bo4b2o25b2o41bo41b2o4bobo5bo
55b2o55b5o36b2o5b2o36b2o109bobo$108bo3bo35b2o137b2o31b2o55b2obo50bo2bo
36bo37bobo9bo5b2obo14bo67bo47bobo4b2o55b2o56b3o37b2o5bobo111b3o33b2o
16b2o$109bobo266b3o51b2o37bo37bo2bo7b3o6b3o10bob2o87bo28bo5b2o59b3o52b
o46bo166b2o$103bo5b3o189bo77bo91bo12b2o24b2o7b3ob2o4b2o10bob6o73b2o9b
2o33bo110b3o131b2o33bo36bo$103bo12b3o126bo54bobo119b2o60b2o14bo24b2o3b
2o13b5o72b2o7b2ob2o130bo11bo3bo103b2o25b2o33bo36bo25bo$85b2o16bo140bob
o53bobo119b2o76bo22bo2bobo2bo12bo2b2obo15b2o65bo132bo11bo107b2o6bobo
12bo38bo36bo25bo$85b2o129b3o24bo2bo54bo20b2o176bo21bo2bo2b3o7b3o3b5ob
2o13bo2bo24bo4b2o29b3o134bo11bo114b2ob3o9bobo46b2o52bo$146b3o39bo15bo
39b2o75bo2bo198bo5bo9b2o2b2ob5o16bo25bo4b2o39bo37b3o71b2o26bo26b2o85bo
2bo12bo47b2o31b3o$58bo129bo15bo21bo95b2o8bo207bo2b3o3bo13bo14b3o12bo
30bo4b5o4bobo110b2o25b2o14bo11b2o86b2obo2b2o23b2o$57bobo84bo5bo11b3o
23bo15bo21bo104bobo19b2o187bob2o20bo56bobo4bo2bo5b2o74bo61bo15bobo69b
2o19bo7bo6bo23b2o30b2o$57bobo52b2o30bo5bo62bo12bo26bo78b2o19b2o186b3o
22bo57bo5b3o81bo62bo5bo9bo2bo68b2o19bo14bo55b2o$47b2o9bo22b2o28bo2bo
29bo5bo9bo39b3o3b3o3bobo22b2o14bo309b2ob2o63bo83bo61bo5bo10b2o53bo35bo
bo7bo3b2o21b2o$47b2o32b2o29bobo45bo12b2o17bo20b2o22b2o6bo7bo8bo37b3o
156bo81b2o16b2o4b3o38b2o158bo11bo4bo5b2o38bo19bo47bo23bo2bo$5bo107bo
32b3o11bo11bo2bo16bo11bo39bobo14bobo28b2o164bobo97bo2bo43bo2bo156bobo
11b3ob2o4bobo36bobo18bo37bobo5b3o23b3o9b2o61bo$4bobo166bobo4b2o10bo11b
o39bobo14bobo28b2o4bo5bo119b3o32bo50b3o37b3o6b2o36b2o7bobo65b2o89bobo
14bo4b5o35bobo57b3o31b3o6bob4o59bobo$5b2o20b3o132b3o9bo4bo2bo21bo40bo
16bo9b2o23bobo3bobo96b2o148bo44b2o8bo66b2o90bo60b2o46b3o9b3ob3o26b3o6b
o6bo59bobo$54bo57b2o57bo8b2o7b2o81b2o5b2o16bobo3bobo96b2o147bo21bo137b
2o108b3o63b2o3b2o7b2o15b3o7bo7bo60b2o$53bobo56b2o57bo17b2o17b2o69b2o
17bo5bo74bo193bo108bo28b2o175bo2b2o7bobo13bo3bob3o4b2o5bo54b3o$10bo42b
obo103b3o9bo35bo2bo119bo47bobo192bo107bobo79b2o124b2obo8bo17bo2b3o7bo
3bo$10bo15bo21b2o4bo144b2o7b2o30b2o53b2o32bobo46bobo101bo79bo118bobo7b
o48b6o17b2o89b2o60bobo3b3o10bo79bo$10bo15bo3b2o16b2o27bo60bo60b2o38bob
o5b2o13bo32b2o32b2o29bo18bo102bo40b2o36bobo5b3o3b3o63bo40bo7bobo15b2o
29bo4bo109b2o9b2o25bo24bo95b4o$26bo3b2o29bo15bo55b2o2bobo99b2o6b2o12bo
bo17b2o23bo52bobo14bo64b2o39bo39b2o39b2o59b3o14bo20b2o26bobo15b2o25b2o
b2o3bo121b2o15b2o7b2o37b2o80bo3b2o$60bobo3b2o9bo55b2o2b2o55b2o65bobo
16bo2bo21bobo44b2o5bobo14bo39b2o23b2o80b2o35b2obo9bo65bo22bobo26bo25b
2o6b2o11b2o2bo138bo2bo5bo2bo23b2o13b2obo13b2o65b3o$60bobo3b2o126b2o21b
2o43bo17bobo23b2o36b2o5bobo6bo15bo39b2o71b2o45b2o15b2o5bo3bo8bo48bo5bo
10b3o21b2o35b2o15b2o6b2o8b3o21b2o28bo92b2o7b2o28bo12bo3bo10b2o50b2o2bo
11bo$22bo38bo11b3o3b3o87b2o45bo2bo61bo19b3o40b2o4b2o64b2o2b2o67bobo27b
2o21bo9bo2bo8b2o7bo48bo5bo9bo2bo58b2o56bo2bo27bo127b3obo15bobo45b2o19b
o5bo3bo4b2o$22bo146b2o46bobo130b2o12b2o53bo70bo27bo2bo15b2obo2bo10b2o
7b3o50b2o4bo5bo8b2o2bo65bo51b2o28bo97bo13bo34bo3bo44b2o16b2obo6b2o6b2o
$22bo54bo57b2o28bo52bo86bo45bo11bo2bo55bo96b2o16bob3obo7bo2b2ob2o2b2o
53b2o19b2ob2o65bo20b2o156bobo12bobo33bo2bo63bo2bo$77bo57b2o28bo87bo51b
o45bo12b2o23b2o136bo9bo12bo3b2obobo2bo7b2o10bo4b2o35b3o9bo3b2o4b2o59bo
19bo7b2o26b2o121bobo12b2o103bo$18b3o3b3o50bo39b2o46bo6bo79bobo50bo43b
2obo3bobo30b2o8b2o11b2o6b2o33b2o69bobo10b2obo6bo3b2obob3o9bobo8b3o2bo
2bo46b3o2bo3bo2bo28bo48bo2b2o32b2o71b2o49bo48bo81b3o$72b2o43b2o53bo79b
2o97b2o2bo3bo33b2o4b2o3bo7b2o6bo2bo31b2o33b2o31b2obobo11bo2bo6b4o4b2o
9b2ob2o9b3ob2o49b4o4bobo28bo25b3o13b2o5bo73b2o34b2o146b4o$22bo48bo2bo
36b2o59bo158b2o4b2o17bo3bo32b2o8bobo15b2o9bo56bobo3bo27bo2b2o11b2o2b2o
5b2o17bo2b2o6bo2b3o48bobo3bo6bo29bo41b2o6bo7bo64b2o118b2o14bobo39b3o2b
o2b2o19bo$22bo49bobo35bo2bo159b3o38bo15bo2bo3b2o22bo40bobo17bo8bobo5b
3o47b2o4b2o26bo44b3obo5b2o3b3o47bo3bo21bo47bo18b2o6b2o95b2o49bo5bo30b
2ob2o54bo2bo4bo19bobo$12b2o8bo50bo37bobo200bo16b2o49b2o18b2o26b2ob2o
62bo25b2o2bo39b2o8bobo13bo39bo3bo21bo47bo9bo7bobo4b2o2bo94b2o48bobo4bo
31bo2bo59bobo20bobo$12b2o51b2o36bo8bo158bo5bo11bo24bo8b2o23b2o8b3o13b
2o5bo2bo45b6o61b2o25b3o27b2o20b3o13bobo7b2o29bo3bo21bo47bo8b3o7bobo
153b2o4bo31bo2bo60bo5b2o7b2o6bo$65b2o36bo30b2o84b2o49bo5bo10bobo32b2o
23b2o23bobo6b2o46b2ob2o61bob2o21bo3bo21b2o5b2o4b2o15b2o13bobo7b2o29bo
3bo10b2o65bo3bo6bo6b2o186b2o53b3o2b2o8bo7b2o$103bo30b2o45b2o22bo13bo2b
o48bo5bo10bobo19b3o3b3o55bo50b3o3bo64b3o9bo11bobo20bo2b3o14b2o13b5o10b
o43bo9bo2bo64b2ob2o6b3ob2obo4b3o53b2o181bo3b2o6b2o$150b2o4bo12b3o8bobo
22bo14b2o67bo142bo2bo50b2ob2o6bo9b3o10b2o20bo2b2o14bobo7b3o5b3o52b3o
11b2o68b2o9b3o62b2o62b3o116b3ob2o6bo$2o97b3o3b3o42b2o4bo24bo23bo67b3o
38bo110bo2bo29b3o24b2o3b2o14bob3o32bobo16bo17bo44b3o91bo6b6o48b2o33b2o
79b2o83bo31b2o3bo$2o58bo95bo72b2o26bo56bo32b2o55b2o20b3o5b2o7bo13bo3bo
24b2ob2o15b2ob3o32bo60b3o91b2o18b2o5b2obo24b2o24b2o33b2o79b2o82bo12b2o
18b2o2bobo$60bo17b2o23bo24bo35b2o9b2o52b2o25bobo55bo32b2o55b2o37bo12bo
5bo24b3o15bobob2o66b2o120b2o13bo4b3o25b3o3bo2bo145b2o16b2o70bo2bo5bo
15bobo$60bo17b2o23bo23bobo34b2o9b2o79bobo58b2o124bo12bo5bo25bo16b3obo
67b2o18b2o114bo31b2o2bo4b2o3bo15b3o86b3o34bo2bo15b2o6b3o65bo3bobo15bo$
18b2o83bo22bobo41bo86bo24bo21b3o10b2o40b2o95bo5bo42b3o27b2o59bo2bo58b
2o53b2o3bo26bo2b2o8b3o120bo19bo2bo92bo2bobo9b3o$18b2o92b2o11bobo41bobo
64b2o44bo76b2o96bo3bo25bo34b3o9bo2bo59b2o59b2o53b3ob3o25b3o9bo2b2o119b
o6b2o12b2o94bo2bo10b3o$85bo25bo2bo11bo42bobo20b3o41b2o44bo109b3o63b3o
25b3o45bobo177bo3b2o60b2o40bo34b2o10b3o9bo6b2o103b2ob2o14bo3bo$65bo18b
obo25bobo55bo54b2o22b2o177b2o56bo2bob2o42bo27bo3bo34bo89bo21bo2bo38b2o
22b2o40bo34b2o86b2o66bo2bo$25bo10b2o27bo18bobo26bo5b3o25b2o76b2o22b2o
16b2o9b3o146bo2bo57b6o69bo4bo32bobo88bo22b3o14b2o22b2o64bo54b3o3b3o59b
2o54b3o12b2o$3b2o20bo9bo2bo26bo19bo61b2o16b2o7b2o91b2o159b2o58bo4bo68b
o6bo31bobo28b3o57bo38bobo22b2o254b2o2b2o$3b2o20bo10b2o126bo2bo5bo2bo
310b2o3bo70b3o3bo20b2o10bo37bo91bo148bo14bo114bo3b2o$165b2o7b2o71b2o
78b2o236b2obo21b2o38bo5bo3bo12b2ob2o122b2o77b3o19bo14bo39b2o48b2o22b6o
$247b2o30b3o45b2o23b2o171bo7b2o25b2o4bobo61bo5bo3bo12b2ob2o43b3o76b2o
99bo14bo39b2o47bobo22b2o2b2o$170bo8b2o170bo2bo49b2o24b2o47b2o43bobo6b
2o25b2o68bo5bo81b2o50bo214b2o$169bobo7b2o171b2o19b2o29b2o24b2o47b2o43b
obo191b2o50bo58b3o53b2o102bo$28bo119b2o19bobo143b2o46b2o7bo2bo149bo
244bo113bo2bo100bobo$21b2o4bo2bo33b2o76b2o4b2o20bo144b2o46b2o7bobo79bo
60bo48b2o145b2o102b2o68b2o101bobo$21bobo7bo31bobo21b2o53b2o73b2o30bo
123bo44b3o33bo47b3o9bobo46bo2bo144b2o53b3o3b3o40b2o40b2o70b2o58bo$21b
3o2b2o3bo32bo21bo2bo127b2o30bo204bo59b2o48b2o17b2o83b2o46b2o37b2o88bo
10bo2bo29bo39b2o$22bob3o3b2o55b2o66b2o69b2o21bo144bo188b2o57b2o24b2o
45bo2bo13b2o21b2o13bo74bo11bobo28bobo131b2o$23bobo129b2o68bo2bo60b2o
102bobo26bo219b2o72b2o14b2o36bo74bo3b2o7bo5bo23bobo131b2o$21b3ob2obo
147b2o48bobo16b3o3b3o35b2o102bo2bo24bobo346bo78b2o12bobo23bo110bo$12b
2o12bo2bo146b2o27bo21bo98b2o66b2o16b2o7bobo96bo154bo186bo2bo7b2o96b2o
13bo13bo$14bo11bobo57b2o65b2o6b2o42bo43bo25b2o48bo2bo41b2o40b2o8bo96bo
bo14bo137bobo186b2o7bo2bo95b2o12bobo12bo$11bo3b2o69b2o47b2o16b2o6b2o
42bo25b2o16bo24bo51b2o41bo2bo146b2o16bo62b2o71bo2bo84b2o110b2o41b2o58b
2o7bobo32bo$15bo4bo114b2o94b2o16bo17bo5b2o2bo92b2o43b2o46bo60b2o11bo5b
o56b2o72b2o45b3o36bo2bo152b2o58b2o8bo32bobo$12b3o3b4o54bo34b2o152bobo
5b2obo138b2o45bobo58bo2bo15bobo87bo128b2o28b2o48bo178bo$13bo3bo4bo52bo
bo33b2o112b2o36b3o7b3o31bo28b2o48bo75bobo59b2o16bo2bo85bobo56bo19bo65b
3o12b2o7b3o21b2o14bobo$17bob4o19b2o9bo21bobo147b2o38bob3o3bo33bo19b2o
6bo2bo46bobo75bo10bo68b2o86bobo55bobo17bobo16b2o93bo2bo13b2o22b3o59b2o
$18b4o20b2o9bo22bo21b2o167b3ob3o33bo19b2o7b2o47b2o86bobo156bo56bobo17b
obo16b2o68bo5bo19b2o100b2o89b3o$17bo18b2o15bo44b2o98bo68b3obo134b2o65b
obo190bo23bo19bo8b2o77bo5bo57bo5bo$17b2o17b2o66b3o90bobo23b2o163bo16bo
2bo29bo35bo139bo31bo18bobo51b2o77bo5bo57bo5bo$18b2o29b3o3b3o140b2o22b
2o163bobo15bo2bo28bobo41b2o62bo67bobo30bo19bo195bo5bo$10bo8b2o136b2o
62bobo122b3o38bobo16b2o29bo2bo39b3o50b3o9bo12bo54bobo29bobo152b3o21b2o
32b3o149b2o$10bo6b2obo32bo45b2o21b2o33b2o107b3o45b2o72bo49b2o78b2o11b
2o3bo8bo11bobo20b3o31bo29bobo38b2o137b2o30bo3bo3b3o143b2o$b2o7bo6b4o
32bo45b2o21b2o99bo15bo24b2ob2o22b3o20b2o23b2o37bo94b3o42b2o11bo4bo4b2o
13bo2bo46bo37b3o37bo2bo78b2o88b4o$b2o41b2o7bo184bobo26bo71b2o37bo75b3o
16bob2o54bo3bo4bobo4b3o7b2o19bo5bo20bobo37bo3bo35b2o79bobo88bo72bo$32b
3o2b3o4b2o176b4o12b2o17b3o10b3o16bo5bo82bo98bo18bo5bo29b3o6bo36bo5bo
20bobo40b3o116bobo160bo$32bo191b2o38b2obobo2bo16bo5bo121b3o55b2o19bo5b
o75bo5bo21bo23b2o15b2o7bo111bo90b3o68bo17bo$32bo2bo78b2o108bo4b2o37bo
3b2o15bo5bo78b3o3b3o92bo20bo5bo127b2o10b2o2b3o6bobo49b2o68b2o93bo75bo
55bo$33b3o3bo74b2o54b2o56bo2bo31bo8bo142bo5bo18b2o138b3o58bo2bob2o6bo
2bo48bo2bo67b2o93bo19b2o32b3o3b3o13bo55bo$35b2obo11b2o117bobo57b2o25b
2o4bobo4b2ob2o104bo36bo5bo17bo2bo22b2o174bo3bob2o6b2o5b2o43b2o94b2o67b
o18bo2bo109bo$36b2o12bobo41b2o75bo76b2o6b2o7bo112bo36bo5bo18b2o16b2o4b
o2bo192bo2bo77b2o37b3o9bo6bo3b2o18b2o62b2o3bobo35bo$51bo36b2o3bo2bo
137bo13b2o12b3o113bo58bo19bo2bo4b2o27b2o64b2o78bo2b2o8b3o7bo77b2o48bob
o4bobo22b2o62b2o4bo36bo$87bo2bo3bobo54bo81bobo76b2o103b3o17bo20b2o21b
2o10bo2bo63b2o79b2o6b2obo3bo3bobo101b2o18bo7b2o4bo2bo100b2o26bo$88b2o
5bo54bobo3bo58b2o16bobo16b2o58b2o30b2o59bo31bo43b2o10bobo59b2o39b2o51b
2o6bo106b2o18bo14b2o54b2o46bo$73b3o75b2o2bobo56bobo10b2o5bo16bo2bo89b
2o28b3o28bo67b2o19bo59bo2bo10b2o29bo7bo40bob4o5bobo116b2o4bo63b2o6b2o$
155b2o30b3o12b3o9bobo10b2o23b2o61b2o14bo73bo67b2o80b2o10bo2bo21bo6bo5b
2obo40b2o2bobo6bo114bobo68b2o6b2o$187b3o12bo2bo8b2o78b2o18bo2bo13bo
173b2o60bo2bo20b2o12b2obo32bo2bo4b2o3b3o5bo103bo10b2o79bo16b2o36bo$29b
2o156bobo10b2o92b2o18bobo14bo60b2o110bo2bo60b2o21bob6o6b2ob3o30bo2bo3b
3o8b2o98b2o5bo19b2o7bo62b2obo12bo2bo35bo10b2o$29b2o145b2o22b2obo111bo
153b2o33bobo84bo2b3o13bo30bo3b2obo109bo2bo4bo19b2o6bobo62b3o13b2o36bo
10b2o$158b2o15bobo21bobo2bobo120b3o3b3o39b2o15bob2o72bo2bo33bo86bo14bo
2b2o31b4o112bobo32bobo63bo38b2o$42b2o114b2o16bo6b2o13bo2bo2bobo144bo
23b2o16b2o48b2o24b2o122b4o13bo27b4o2bo3bo107bo3bo34bo35b3o75b3o3b3o$
25b2o14bo2bo137bo15bo5b2o125bo19bo44b2o31bo13b2o149b2o12b3o7b2o13b2o2b
o2bo7bo106bobo43b2o96bo2b2o$25bobo14b2o126b2o10b2o14bo5b3o4bo119bo19bo
45bobo29bo166bo11b2o8b2o4b2o10bo2bo2bob3o108bo2bo42b2o98bobo9bo$26b2o
89b3o15b3o31bo2bo9b2o15b2ob2o2bo2b2ob2o14bo60bo41bo65b2o30bo25b3o108b
2o69bo5b3o6bo103b2o121bo21bo2bo8bo$3bo24b2o105b2ob3o29bobo12bo14b2obo
2bo4bo3b2o10bobo58bobo62b2o44bo166b2o35bo20bo25b2ob2o128b2o94bo22b2o3b
o5bo44b2o20bo$2bobo7b2o14bobo84bo5bo19bo29bo12b2o3bo2b2o7bo12b2o11bo2b
o37b3o18b2o61bobo38b3o29b3o3b3o25b3o17b2o120bobo23bobobo34b2o114bo2bo
66b2o25bo23bob2obo22b2o25b2o20bo7b3o$2bo2bo6b2o15b2o84bo5bo13bo4b2o16b
2o2b2o26bo12b3o9bobo8bo3bo122bo40b3o56bo24bo2bo64bo57bo20b2o2b2o18bo5b
o10bobo113bo2bo65bo2bo34b3o14b2o23bobo46bo$3b2o110bo5bo18bo23bo19b2o4b
o8b2o2b2o12bo8b4o164b3o32bo23bo15b2o8bobo22bo40bobo53bobo26bo36b2o48bo
65b2o67b2o34bo2b2o39bo$136bo22bo4bo20b3ob2o8b2ob2o13b3o5bo158bobo8bo
33bo23bo15b2o9bo10bo11bobo39bobo62bo38b2obob2o60bobo34bo133bobo3bo82b
3o3b3o$42bo74b3o17bo2bo4b2o11bobo3bobo15b2o5b2o6bo2bobo14bo2bo5b2o155b
2ob2o41bo61bo11bobo40bo62b3o72bo31bobo33bobo70b2o60bo3b2o69b2o$16bo24b
obo18bo49b2o25b3ob3obo15bo2bo15b2o4b2o6bo3bob2o16b2o161bo2bob2o86b2o
13bo12bo6bo96bo2b2o70bobo31bo34bobo40b2o27bo2bo59bo11bo62b2o16bo$15bob
o23b2o18bobo13b3o32b2o27b3o3bo13bobo18b2obo10bo3bob2o12b2obobo162b6o
49b2o35bobo31bobo94b2o2bo12bo58bo2bo14b3o39b3o7bo40bo2bo27bobo60bobo6b
o3bo25b3o50bo23bo$16bo45bo78b2o2bo14b3o19b2ob2obo7b2ob2o16bob2o164b4o
49bo2bo35b2o15b2o14bo2bo94b3o12bobo26bo31b2o26b2o7b2o72b2o29bo16b2o44b
o7bo4bo77bo23bo$95bo11b2o33bo17bo22bob4o8bo20b3o103b3o53b2o57b2o52bo2b
o14b2o43bo52bo13bobo25bobo45bo11bo2bo5bo2bo40bo78b2o48b3obo3bo11bo90bo
$94bobo10b2o34b4o14b3o19b4obo12b4o19bo155b2o111bo2bo2b2o42b3o11bo3bo
40b2o20bo26bobo22b2o21bo12b2o7b2o41bo128bob3obo12bobo57bo$38b2o34b2o
18bobo50bo14bo20b2o19bo18bo2bob2o92bo6b2o163b2o3b2o56b2o3b2o37bo2bo47b
o22bo2bo20bo64bo59b2o65b3o2b3o13bobo9b2o45bobo48b2o$38b2o34b2o19bo49bo
bo3b2o20bo8b2ob2o11bobobo2bo3b2o13bob2obo53b3o36bo5bo2bo54b2o55bo114b
4o7b3o13b4o12bo2bo71b2o39bo106b2o64b2ob2o18bo10b2o45bobo48b2o$145bo2bo
2b2o20bo8b2ob2o11bo3bo6b2o10bobo12b2o84bo6b2o111bobo40bo29bo42b4o6bo3b
o4bo4bobobo2bo12b2o21b2o4b2o73b3o7bobo171b2ob2o12b3o62bo27b2o5b2o$30b
2o80b2o28b2o2b2o25bo9bob2o14b3o16bo2bobob2o6bo2bo204bo41bo29bo40bo3bo
11bo4bob2o3bobob2o35b2o4b2o74b3o6bobo171bo14b4obo6b2o81b2o5b2o$30bobo
79b2o28bo2bo38bo15bo3bo16bo14b2o7b2o12bo100b2o58b2o63bo29bo40b4o17bobo
3bo2bo10bo119bo128b2o42bob2o10b2obo2bo5bo2bo$31bo111b3o52b2o22bo2bo19b
2o11bobo23bo74bo2bo57bobo30bo103b2o7bo17b3o10bo247bo2bo32b2o8b2o12bo4b
o6b2o$73bobob2o65bo53bo2bo2bo19bo32bo2bo17bo4bobo73bobo59b2o29bobo110b
5obobo11b2o10bo226b2o20b2o33b2o23bo2bo76b2o19b2o$37b3o37bo27b2o91b3ob
2o54b2o17bobo3bo2bo73bo91b2o11b2o77bo16bo3b4o4bo16bo44b2o7bo95b2o5bo
76b2o43b2o35b2o5bo44bo27b2o18b3o5b2o$79b2o24b2o96b2o73bo5b2o35b2o141bo
2bo75bobo15bo18b3o7b2o43b2o7bo20b2o20b2o43b3o5b2o4bobo120bobo13b2o25bo
bo43bo16b2o15b2o12bo2bo4b2o$35bo5bo8b3o22bo3b2o53b2o17bo59b2o105bo2bo
141b2o76bobo17bo8b3o15bob2o50bo20b2o19bobo3b2o51bo2bo120bo14b2o3b2o21b
obo13bo29bo16b2o15b2o8b2o3b2o$35bo5bo91b6o5b2o8bo6bo51b2o97bo8bobo177b
o42bo19b3o4bo3b2o15b2o67b2o23b2o4bobo51b2o93bo43b2o2b3o21bo13bobo72b2o
$35bo5bo31b8o51b2o3bo3b4ob2obob2ob2o5bo110b2o37bobo8bo6bo170bobo70bo3b
o13b2obo65bo2bo28bobo145bobo43b2ob2o36bobo24b3o3b3o58b2o$3bo59b3o7b2o
5bo50bobobobo4bobobo2b2o4bo5bo109bo2bo36bo2bo14bo170bobo23bo30bo4b2o5b
2o2b6o12bo4bo48b2o14b2o29bobo145bobo21b3o20bobo38bo13bo77bobo$2bobo32b
3o14bo8b2obo6bo31bo23bob2ob8obo2b2o3bo2bo2bo52b2o60b2o38b2o15bo171bo
15b2o6bobo28bobo3b2ob2ob3obo3b4o7bo4bo6b2o44b2o44bo2bo17b2o94b3o30bo
22b3o51b2o22bo15bo62bo$2bobo48bobo10bo23b2o12bobo24bo7b5ob2o5bobob2o
52bobo304b2o5bo2bo29b2o5bo4b2o3bo4bo7b2o3b2o3bo3bo92bo17bobo148bo3bo
50b2o3b2o7b2o8bo15bo$3bo48b2ob2o7bo24bo2bo11bobo34b3obo2b2o2bobob2o31b
2o20b2o312b2o43bo3bo2b2o9b2o3b2o2b2o3bo67bo20bo2bo18bo63b2o57b2o7b2o
17b3o55bo2bo5bo2bo23bo23bo21b3obo$52bo2bo8bobo23b2o13bo36b4o2b2obo3bo
33b2o317bo12bo49b3o3bo14b3o8bo66bobo18bobo82bo2bo55bo2bo5bo2bo16b3o43b
2o11b2o7b2o48bo24bobo$53b2o8b4o61b2ob2o11b4o115bo4bo128b2o108bobo10bob
o69b4o4bo2bo18b2o46b2o105b2o57b2o7b2o24b4o4bo30b2o70bo27bo$3bo59b4o63b
o20bo7b2o101bobo2bobo127b2o15b2obo90bo11bobo69bo2bob2o4bo18b2o38bo19bo
185b2obob3o2bobo47bo67bo5bo5b2o6bo$2bobo58bo86bobo6b2o101b2o3bo2bo142b
3ob2o41bo60bo60b2o3b2o4bo3bo4bo58bobo9b2o7bo158bo27bobo5b2ob2o45bobo
40b2o14bo9bo4b3o11bobo$3bo58b2o21b3o62b2o116b2o143bo3bo41bobo120b2o3b
2o3bo2b3o3bo60bo10b2o7bo124bo32bobo26bo3bob3o3b2o44bobo40b2o13bobo8bo
6b2o5bo4bobo$62b2o350b3o42b2o128bob4o3b3o7b2o197bo32bobo26b5o4b2o3bo
16b2o26bo56bo2bo14b2o5bo5bo$61b2obo350bo16b3o156b2o14bobo197bo33bo27bo
b2o5b2o3bo16b2o84b2o14b4o3bo$60bo3bo304b2o6b2o4b2o132bo73bo16bo260bobo
4bo6b2o105b2o12b2o$60bo7bobo8b2o20b2o13bo102b2o43b3o102b2o6b2o4b2o10b
2o119bobo92b2o190b3o6b2o56b2o3bobo3b2o107b2o9b2o2bo$60bo5bobo2bo6bo2bo
19bobo12bo26bo51bo22bo2bo94b2o77b2o119bobo20b2o13b2o54bo2bo51bo146b2o
2b2o56bo6b3o25b2o9b2o79bo$57bo3bobobob2o2bo7b2o21bo13bo25bobo50bo22bob
o58bo35bo2bo35b3o78b2o80bo21b2o13b2o54bobo52bo150b2o35b2o20bo2bo4b3o
23b2o9b2o78b4o$54bobobo2b3o5b3o71bo51bo23bo7b2o49bobo35b2o116bo2bo173b
o53bo30b2o154bo2bo22bo5b2o52b2o59b3obo$51b3o3b5o2b2o4bo30bo76bo48b2o
49bobo77bo43b2o31b2o6b3o65b2o33b3o120bo25bobo155b2o22bo2b3obo53bobo59b
2o$50b2o3bobob2o5b4o30bobo65b2o8bo55b2o43bo78bo43b2o106bo2bo154bobo25b
o30b3o87b2o17b2o40b2o2b3o54b2o59bo13bo$50b2o5bob2o3bo4bo31b2o65b2o8bo
54bo2bo104b2o15bo115b2o13bo21b2o155b2o147b2o17b2o41bo4b2o22b2o79bo9bob
2o10b3o$52bo7bo4b3o106b2o15b2o41b2o105b2o95b3o33b2o12bobo198b2o48b3o
139bob2o22bo2bo56b2o19bobo9b2o13b2o$59b2o5bo61b2o44b2o15b2o57b3o18b2o
215b2o25bo172bo2bo150bo38bobo23bobo57b2o18b2o13b2o7bobo2b2o$30bo97b2o
116b8o17b2o127b2o112bobo83b3o86b2o95b2o10b3o36b2o3bo14b3o22bo25bo50b2o
13b2o35b2obobo$30bo214bo2b6o70bo35b3o37b2o3bo41b3o19b2o43bobo248bo15b
2o3b2o49b2o3bo116b2o13b2o5bo27b2obob2o$30bo131bo81bo13bo64bobo11bo66bo
bo62b2o44bo188b3o57bobo13bo2bo196bobo16b2o10b2obo$96b3o62bobo94bo41bo
22bobo11bo66bobo160b2o41bo154bo14bo2bo80b2o30b2o84b2o14bo2bo$55b2o104b
2o78b2o15bo41bo23bo12bo57bo9bo51b2o53b2o53b2o2b2o36bobo169b2o81b2o30b
2o101b2o$55bobo28bo153bo2bo5bo15b3o3b2o27bo94bo61b2o53b2o57b2o36bobo
351bo17b2ob2o$2o18b2o34bo28bobo153b2o3bo3bo4b2o5b2obo9b2o51b2o65bo180b
2o32bo74b3o3b2o4bo49b2o42bo52b2o115b2o20bo$2o18b2o63bobo159bo7bo5b2ob
2o8b4o49bo2bo134b2o109b2o113b2o3bobo30b4o14b2o16bo24bobo50bo2bo68bo7bo
38b2o45b2o$86bo161b3o3bo7bobo8bob4o49b2o135b2o136bo13b2o37bo38bo2bo30b
o5bo16bo11bobo23bobo51b2o68bobo5bobo47bo3b2o31b2o$57b2o131bo63bo9b2o5b
obo4b2o232b3o87bobo12b2o36bobo38b2o29bo7bo15bobo10b2o25bo33b2o6b2o80b
2o4bo2bo46b2o3b3o$10b3o44b2o13b2o116bo8b2o19b2o32b2obo12b2ob2o2b2ob2o
2b2o106b2o198b3o7bobo50bobo61b2ob2o3b2o6bo15b2o72b2o6b2o7bo79b2o46b2ob
2obo4bo16bo18b2o$27b3o42b2o116bo8b2o19b2o35bo3b2ob2o4b3obo2b2ob2o2bobo
103b4o131bo55b3o19bo52bo49bo3bob2o4bo3bobob2o114bo40b2o4b2o51bo35bo2bo
15bobo13b2o2b2o$94bo168bobobob8ob4o2bo104b2o133bobo179bo3bo3bo4b3o2b2o
2b3o111bo40b2o4b2o16b2o33bo10bo16bo4b2o2bo2bo4b2o8bobo13b2o$25bo5bo61b
obo171bobo3b2o2bo3bo97b2o7b2o2bo131bobo133b2o43b2obobobo2bo8b2o181b2o
33bo9bobo20b3o5bo3b2o9bo9b3o$25bo5bo61bo2bo43b4o22b3o92b2o3b2ob2o4bobo
101b2o8b2o24b2o59b2o2b3o42bo134b2o43bo3b2o6bo5b2o51bo4b2o31b2o99bo36bo
bo15bo5b2o13b2o29b2o$25bo5bo62b2o43b2o2b2o37b2o77b2o12bo114bo23bo2bo7b
2o49b2o227bo2bob2o2bo3b2o2bobo51bo4b2o30bo2bo2b2o93bobo36bo18b3ob2o4bo
8b2o29b2o$101b2o35bo6bo36b2o92bo137bobo7bo2bo278bobobo7bo3b2o3b2o47bo
37b2o3b2o92bobo55b2ob2obo3bo$27b3o71b2o24bo11b3ob2o250bobo17bo8b2obo
38b3o117b2o69b2o48bo3bo4bobo5bo3bo185bo58b2o3b3o$7bo10b2o14b2o62bo28bo
12bo228b2o19bo2bobobo27bob2o157b2o69b2o53bo9b2o160b3o13bo72bo7bobo2b2o
$6bobo8bo2bo13b2o61bobo27bo94bo146b2o20bobo2b3o26b2o2bo52bo26b2o32b2o
59b2o12b2o47bo30b2o96bo102bobo8b2o43bobo15bo2b2o3bobo2b2o3bo14b2o$7bo
10b2o34b2o40bo2bo109bo12bo168b3o5bobo26b3o51bo26b2o7b2o23b2o59b2o12b2o
47bo30b2o95bobo33b2o66bo2bo7b2o42bo3bo13bo3b2o2bob2o2b2o2bobo13b2o$34b
2o17bo2bo40b2o24b3o3b3o43bo33b2o11bo84b2o49b2o37bo3b2o22bo2b3o51bo35b
2o147bo127bobo32bo2bo66b2o42bo9bo2bo9b3o3bo2b3obo4bobob2ob2o$33bo2bo
17b2o46bo37bo3b2obo26bobo26bob3o3bo94bo2bo48b2o33bo4bob2o26bobo82bo42b
2o113b2o123bo34bobo109bobo8b2o11bo5b3ob2obo5bo3bo2bo$34b2o65bobo23bo
11bobo3b2o27bobo27b3o2b2o13b3o29b2o16b2o8b2o21b2o81bob2obo28bo2bo2b3o
79bobo40bo2bo110bo2bo36bo122bo110bobo20bobo9bob2o3bobo3bobo$101b2o24bo
10bo3bo32bo27b3o3bo45bo2bo14bobo8b2o103b3o3bobo28bo5bo2bo23b2o50bo2bo
41b2o69bo41b2o28bo9bo208bo25bo5bo14b2o12bo2bo9bo$127bo11bo2bo62b2o49bo
bo13bo5bobo57bo15b2o33bo3bobo38bo23bo2bo50b2o15b2o33b2o38b3o19bobo69bo
bo7b2o144b2o61bobo28b3o13bo2bo15b3ob3o$40b2o98b3o58b2o2b2o50bo14bo2bo
2bo2bo56bo15b2o34bo2bo6b2o50b2o5b2o68b2o33b2o60bobo7bo61b2o35b2o116bo
2bo25b2o33bobo27bo2bo14bo2bo16bobo2bo$40b2o122b2o36bo2b3o63bo4bobobo
57bo55b2o4b2o50b2o43b3o102bo5bo18bo7bobo69b4o24b2o3b2o112b2o26b2o34bo
28bo2bo7b2o6b3o20bo$158b2o3bo2bo35b3o2b2o63bobobo35b2o53b2o22b2o7b2o
33b2o165bo5bo26bobo53b2o16b2obo26bo2bo16b2o187b3o6bo2bo6b2o8b2o3bo6bo$
157bo2bo3b2o42bo24bo39bo2b2o29b2o3b2o20b3o3b3o24b2o66bo129bo9b2o25bo5b
o13b2o12bo53bo2bo19bo26b2o17b2o178b2o8bo8b2o16bo2bo7bo$157bobo72bobo
38b2ob2o28bo2bo65b2o55bo2b2o116bo10bo2bo7b2o44bo2bo27bo38b2o18bobo57b
2o88b2o15b2o59b2o24bo11b2o6b2o$56b2o38bo61bo64b3o6bobo72b2o29bo18b2o
16b2o20bo33b2o2b2o10bo104bobo9bo2bo36b3o7b3o5b2o7b2o7b2o10bo58bobo15b
3o38bo2bo39bo16bo16bo13b2o15b2o83b2obo$55bo2bo36bobo54bo80bo20bo76b2o
5bo18b2o38b2o13b2o17bobobo10bobo104b2o11bo16b2o45bo2bo5bo2bo9bo113b2o
2bo2bo38bo2bo12bobo15bobo25bo58bo27bob2o2bobo38bo12b2o$48b3o5b2o38b2o
47bob2o3b2o14bo84bobo75b2o5bo46b2o25bob2o15bobob2o10b2o134b2o33bo12b2o
7b2o124b2o3b2o39bo2bo30bo2bo24bo57bobo22b2ob2o2bo5bo36bobo11b2o$12bo5b
o30bo61b3o11b2o6b2o10bob2o5bo8bo3bobo83bobo11b3o4b2o19b2o10bo57bo15bo
3bobo17b2o4b2obob2o14bo2b2o56b2o107b2o14bo196bo14bo16b2o25bo40b2o3b2o
10bobo21bo2b4o2bo5bo36b2o$12bo5bo28b2o76bobo5b2o9b2obo6bo7bobo2bobo63b
2o19bo40b2o3b2o4bobo35bo19bobo21bo11bobo2b2o6b2ob2o9bo5b2o3b2o49b2o2b
2o106bo2bo13bo17bo72b2ob2o68b2o28b3o15bo61b2o20bobo3b2o6b2o3bo21bo5b2o
9bo15b2o$12bo5bo21bo5b5o75b2o16bobo7b2o6bobo3bo64b2o32b2o6b2obo11b2o8b
2o4bobo35bo21b2o20bo18bo4b2o2b2o6b2ob2o8bo2bo10b2o36b2o98b2o11b2o31bob
o72bobo70bo18bo9b2obo3b3o2bo42bo23bo2bo20bo12b2o25bo11b4obo15b2o$40bo
10bo29bo62bobo16bo46bo63bo4b2o9b2o15bo36bo17bo3b2obo9b2o4bo14bo2bob3o
5bobo9bo12b2o10bo2bo125bo9b2o44bobo71b3o75b2o13bo6bob2o2b2o2bo5bo2b2o
36bobo5b3o15b2o61bo3bo6bo4bo$14b3o23bo12bo27bo63bo2bob2ob2o54bobo62bo
2b4o9bo3bo70bo2b3o8b2o7b2o16bo6b3o7bob2o24b2o13b3o50b3o50b3o3bo3b2o4bo
2bo31b2o11bo63b2o6b2o76bo2b5o8bo5b2o5b3o6bo3b2o24bo10bo2bo87bo8bo$44bo
3bobobo2bo25bo63bo2bob2ob2o54b2o63bo3bob2o8b3ob2o66b2o4b2o19b2o10b5o
17b2o17b2o49b2o83bobo3bo3bo34b2o67b2o6b2o6b2o25b3o44bo4bo3bobo15bobo5b
o36bo11b2o89bo5b2o$44bobo4bo4bo37b3o14b2o34bo104b2o25bobo9bo2bo12bo24b
3o32bobo14b3o14b4o37b2o35b2o12b2o88b2ob2o4bo98bo2bo87bo10bo16bo43bo85b
2o17b5o$45b3o8bo20b3o31b2o78b2o59b2o25bobo9bob3o9b2obo55bob3o13b2ob2o
92b2o77bo5bo10b3obobo8bob3o63b2o31bobo95bobo32b2ob2o94b2o15b2o$47b2o2b
o4bo90bo42bo2bo71b2o2b2o9bo10bob4o7b3ob2o26bo28bo2bobo52bobo132bo5bo
10b3o2b3o3bo4bob3o61bo2bo31bo97bo32bobo3bo92bo2bo$46bo2bo2bo2bo90bobo
29b3o10b2o63b2o6b2obo3bo31b3o2b2o26bo32b2o11bo2b2o36bobo132bo5bo28b3o
62b2o142b2o19bo4bo36b2o19bo36b2o93b2o$45b2o2bo3bo92b2o108b2o7bobo5bo
17b2o10bo3b3o26bo46b3o22bo11bo2b2o162bo2bo211b2o4bo13bo2b3o32bo4b2o18b
obo130b2o$46bob2o171bo44bo3b2o25bo69b2o3bo5b2o27bobo10bobo35b3o56b2o
69b2o49b2o167bo13b2ob2o32bobo23bo2bo43b2o26bo$40bo5bobo69b2o100bobo44b
4o25b2o34b3o32b2o38bobo10bobo94b2o50bo3b2o3b2o59b2o24b2o141bo15bo34b2o
25b2o11bo32b2o26bo$40bo6bo21b3o46b2o100bobo41bo3bobo2bo10b2o3b2o5b2o
72bo2bo34bo11bobo24bo8bo5bo22b2o81bobo3b5o9b2o5bo69b2o104b2o38b2o85bob
o59bo$40bo26b2o2bo149bo41bo5b2ob2o10b2o10b2o4b5o64b2o7b3o33b3o9bo17bob
o7bo5bo22b2o80bo2bo4b3o12bo3bobo174b2o38bobo85bo$42b2o7b3o13b2obo121bo
69b3o5b3o16bo5bo7b3o32b2o31bo7bo2bo32b3o3bo6bobo15b2o8bo5bo33b2o70b2o
5bo2bo7b3obo2bo27bo98b2o90b2o121b3o$36b2o4b2o22b2o124bo3b3o63b3o24bo2b
o2b3o6bo33b2o26b2o10bo36bobo13bo64b2o48b2o28b3o6bo3b3o2bobo18b2o3b2o
15b2o80bo2bo60bo90b2o120bo$37b2o26bo29b2o95bob2o3b2o41bo19bob2o24bobo
3bobo51b2o6bo6bob2o10bobo39bo7b2o115b2o27b5o6bo3bo24b2o3bobo14b2o26b3o
51bobo9b3o48bobo89b2o44bo12bo5bo32b2o22bo$38b7o19b2o3bo18b3o4b2o96bo
47bobo18bobo25b2ob2o2b2o51b2o6b3o4bo2bo10bo119bo74b2o3b2o5b4o32b2o96bo
16b2o41bo10bo128bo12bo5bo14b2o16b2o7bo14bo$38bo5bob2o15b2o65b3o59bo8bo
40bo20bo27bo4bo2bo12b2o16bo25bo2b2o4b2ob2ob3o5bo45bo72bobo20b2o50b3o3b
3o6bo30b2o48bo59bo6bobo41bobo3bo4bo20b2o83b2o21bo12bo5bo13bo2bo24b2o$
42bobo23b2o43b2o2b2o74b2o27bo61b2o4bobo4b2o13b2o16bo25bo9bo2b2o2bo3b2o
bo39b4obo58bo12bo2bo19bo2bo50b2o3b2o4bo33b2o27b2o8bo10bo58bobo5b2o42b
5o2bo9bo14b2o82bo2bo16b2o30bo5b2o24bob2o9b2o3b3o5b2o$37bo4bobobob2o16b
3o44b2o2b2o9bo92bobo60b2o5b2o7b3o27bo27bo2b2o4bo5bo3b2o43b2obo57bobo
12b2o21b2o52b5o3bo2bo2b3o28b4o24b2o6b2obo9bo34bo22bo2bo54b2o9bobo17b3o
78b2o16bo2bo16b3o10bo44b2o10bobo$44bo4bo18bo12b2o2b3o40bo66bo3b2o20bo
2bo66bo8bobo54bo3b2o5bo2b2o4b2o104bo2bo25b2o57b2o3b3o8b2o49bo13b2obobo
b2o19b2o21bobo22b2o60bo5bobo117bobo29bo26b2o29bo$37bo4bobo2b3o14bo2b2o
11bobo13bo31bo3b3o69b3o15b2o30bo39b2o4b3o54b2o10b2o8bo3b2o99b2o25bo2bo
56b2o4bo6bo7bo33b3o8bobo12b2o3b2o21b2o20bo2bo84b2o5bo119bo57b2o5b2o$
37bo2b4o26bo10bo13bobo98b3o4bo3bo45bobo38b2o60b2o2b3o10b2o4b2o2bo128b
2o70b2obo2bo2bo44b2o12bo4bo45b2o86b2o55b2o133bo$66bo4bo23bobo104bo5bo
44bobo95b2o2b3obo3bo9b3o3b2o2bo18b2o181bo3bo3bo57b2obo66b2o12b2o35b2o
3b2o2b3o8b2o25b3o26bobo100b2o30bo$29bo8b3o24b2o29bo106bo3bo46bo65b3o
28bob4o3bobo12bo3b4o18bo2bo54b2o41bo35bo47b3o4b3o54bobo26bo40bobo11bo
2bo19bo13bobo3bobo11bo2bo54bo91b2o8b2o$29bo10bobo23b2o110b2o24b3o34b2o
109b4o5bo17b2o2bo3bo14bobo54bobo23bo15bobo3b2o28bobo47b2o6bo13b2o40bo
3b2o2b2o7b2o9bo40b2o12bobo20bo12b2o7b2o11b2o127b2o18b2o33b2o$29bo12b3o
22bo23b2o7b2o76b2o61b2o54b2o19bo5bo28bo16b2o5b3o6bo2bo13bo56bo24b2o14b
obo3b2o16b2o11b2o52bo3bo12b2o44b2o5bo5b2o9bo55bo21bo13b2o5b2o140bo2bo
10b2o40b2o9bo33b2o$68bo3b2o16bo2bo5bo2bo40bo147b3o3bobo18bo5bo45b2o6bo
7bob2o62b2o31b2o7bo7bo22b2o66bo2bo53bo8bobo110bo5bo18bo123b2o10bo2bo
49b3o32b2o$69bob2o18b2o7b2o40bobo63bo89b2o18bo5bo46bo17bo42b2o18b2o32b
o6bobo98b2o53bobo7bo93b3o3b3o11b5o18bobo134bo2bo44bo4bob2o$54b2ob2o10b
3o6b3o61bo2bo61bobo175bob2o42bo2bo59b2o20b3o3b2o125bo2bo121b3o19bobo
27b2o106b2o5b2o37b4o6bo$54bob3o11bo38bob2o4bo25b2o17bo43bo2bo85bo24b3o
63bo21b2o22b2o88b2o126b2o91b2o30bo21bo28b2o99b3o10bo2bo35bo10bo$108b3o
b3o2bo3b3o36b2ob2o36bo5b2o16bo16b2o28b3o20bo81b3o28b2o333b2o40b2o91bo
62b2o35bo3bob2o3bo$107bo4bo8b3o35bo4bo13b2o20bobo22bo16b2o51bo80b6o
150b3o250b2o26bo64bo100bo2bob2o$108b3obobo5bo3bo33bo3bobo13b2o20bobo
22bo150bo4bo80b2o168b2o53b2o45bo78bo64bo80b2o19b5o$9bo99bob2o7bob2o27b
o8bobo3bo34bo55b2o117bob3o32b3o22b3o21b2o135b3o29bobo53b2o45bo78bo145b
2o27b2o$2b2o4bobo35b2o3b2o17bo41b2obo9bo24b3o6bobob4o90b2o117bo210b2o
13bo29bo101bo18b3o3b3o146b2o41b2o35b2o$b2o6bo41b2o17bo50bo4bo22bobobo
10bo18b2o191bobo114b2o64b2o26b2o9bo4bo86b2o117b3o3b3o21b2o67b2ob2o3b2o
32bobo$obo2bo17b2o27bobo15bo43bob2o2b2o4bo21b3ob3o28bobo307b2o45b2o17b
2o37bo5bo74b2o9b2o65bo81b2o55b2o9bo7bo2bo32bo$2ob3o17b2o29bo64bo4b2o
23bobobo8b2o20b2o81bo160b2o109bo2bo55b2o2bobo74b2o76bo29b2o106bo2bo9b
2o8bo$obobo49bo60bobobob2o23b7o4b3o2b2o102bobo5b2o18b2o132b2o33b2o67bo
6bobo58b4o153bo29b2o106bobo10b2o6b2o$b3o81b3o28bo3bo23bob4obo6bo107b2o
6b2o17bo2bo27bo138b2o2b2o63bo7bo178b2o39bo135bo18bo14b2o73bo$19b2o17bo
103b3o15bo12b2o119b2o27bobo141b2o38b3o22bo45b2o59b2o9b2o62b2o2bo2bo38b
o141b2o7bo2bo5bo9b2o72bobo$b3o14bo2bo15bobo103b2o2bo12b3o10b2o148bobo
252b2o59b2o9b2o6b2o54b2o3b2o23b3o13bo141b2o8bo7bo84b2o$obobo14b2o16bo
2bo2b3o114bobo161bo198bo10b3o121b2o38bo172b2o47bo$2ob3o32b2o106bo2bo
12b2o30b2o5b2o319bobo172bobo171bobo24b2o$obo2bo55b2o83b3o5b2o4bob2o29b
o2bo3bo2bo237b2o80b2o173bobo32bo137bo10bo15b2o$b2o47bo10b2o91bo2bo2bob
o31b2o5b2o48b2o146b3o38bo2bo69b2o40b3o101b3o37b2o32bo49b3o95b3o$2b2o
45bobo26bo75b2obo2bobo67b2o19b2o50b2o93bo2bo39b2o70b2o143bo74bo8bo137b
5o86b3o3b3o38b2o$48b2ob2o24bobo68bo4bobo4b3o34bo32b2o70bo2bo91bo3bo91b
3o63b2o67b2o22b2o4bo4bo76b4o43bo83bo7b2o3b2o25b2o105b2o$48b2o2bo10bobo
11bobo67b2o2bo11bo32bobo92b2o10bobo91bo94bo3bob3o12b2o26b3o14bobo67bob
o13b2o6bo4bobo80bo3bo42bo26b2o3bo50bobo5b3o3b3o24b2o62bo$47b3o2b2o5bob
2o3bo11bo3b3o30b2ob2o27bob3o3bo4bo35bobo92b2o11bo72bo19bo3bo111b2o44bo
69bo14bo57b3o38b4o40bo26b2o3bo50bobo6b2o3b2o3b2o46bo37bo28b2o$48b2o3b
2o10bo49b2ob2o28b3o2b2o6bo35bo18bo159bobo19bo2bo69bobo18b2ob2o75b2o39b
o31bo3bobo3bo3bo3bo2b2o37bo34b5o74bo13b2o36bo8b5o3bo2bo13b2o29bobo36bo
28b2o$29b2o18b3o2bo7b3o97b2o51bobo158bobo20b3o69bobo20bo7b2o51b2o15b2o
3b2o33bobo34b2o3b2o4b2o3bo2bo32bo4bo11b3o20bo2b2o53b2o6bo25b3o22b2o21b
3o5b2o14b2o29bobo$28bo2bo18b4o6bob4o93bo3bo51bobo30b2o127bo86b3o3bo31b
2o51b2o19bo2bo32bobo13bo16bo4bo3b2o5bo3bo2bo5b2o25bo4bo36bobo53b2o4b3o
27b3o18bob2o6b2o7b2o5bo54bo$29bobo17bo2bo6b3ob4o21b3o67b2o4bo51bo30bob
o152b2o59bo3bo2b2o105b2o28b2o4bo14bo25b2o3b2o5b2o6b2o24bo5bo38b2o57b3o
29b2o4b3o10b2o3bo4bo2bo5bo2bo7bo29b2o26b2o$30bo12b2o4b2o7b2obo3b3o91bo
3b2o83bo132b2o18bo2bo58b2o3bo138b2o19bo15bo5b2o3bo2bo40bo5bo36b2obo58b
2o4bo4b2o13b2o3bo19b2o2b2o5b2o7b2o7bobo28b2o26b2o$42bo2bo2bo2bo4bob2o
2b2o3b2o35b2o33b2o19bo2bo211b2o3bo2bo20bo32b2o25b2obo6b2o13b2o155bo2bo
2bobob2o46bo41bo63bobo3b2o12b2o4b2o15b2o2b3o24bobo$26bo16b2o3b3o5bo7bo
39b2o33bob2o16bo190b2o5b2o13bo2b2o4b2o18bo3b2o29bo2bo26bo21bo2bo3b2o
147bobo3b2o2bo2bo41bo3bo40b3o15b2o45b3o3b2o18bobo10b2o2b3o3bo12bo13bo
95b2o26b2o$5bo19bobo21b2o5bobo5bo76b2o14b3o2b2o185bobo5b2o13bo51b2o11b
2o49bo2bo3b2o148bo7bo2bo46bo39bobob3o11bo2bo50bo31b3ob3o16bobo6b2o39bo
59bo2bo9b2o14b2o$4bobo19bo20b3o7b2o5bo68b2o6b2o2bobo9bo2b3o187bo20bo
31bob2o13b2o2b2o43b3o17b2o162bo46bo2bo39bo2b4o11bo2bo69b3o11bobob2o16b
obo6b2o39bo60bobo9b2o$4bobo39b2o78b2ob2o2b2o5bo4bobo10b4o22b2o219bo14b
2o47bo2bo175b2o4b2o45bo42bo17b2o69bobob2o10bo3bo17bo48bo61bo$5bo39b2o
3b2o39bo33bo3b2o15bo37b2o91b2o9bo87b2o91b2obo63b2o97b2o6bo3bo2bo2b3o
43bo70b2o56b4obo19bo81bo42b2o$41b2ob3o4bo38b3o33b2o10b2o17bo118bo2bo7b
obo50b2o23b3o5b5o59b2o22b3o7bo64b2o97b2o5bobo2bo2b2obo116b2o56bob3o68b
2o17bo14bo42b2o$41b2o2b2o3bo3b2o4b2o27b2ob2o44b2o16bobo63b2o53b2o8bobo
49bo2bo33b2o24b3o32b2o45b3o31b3o24b3o86bo2bo4b2o7bo67bo34bo69bo3b4o6bo
15bo46b2o17b3o12bo55b2o19b2o$35b2o16bobo4b2o26b2o3b2o33bo8b2o18b2o63b
2o64bo32bo18bobo8bobo9bo11bo26bo81b2obo71bo53b2o20b2obo9b2ob2o65b3o32b
obo69bo7bo2bo8b2obobo3bo64b5o66bo2bo17bo2bo$11b2o21bo2bo51b2ob2o34b3o
7b2o161b2o17bobo18bo8bo3bobo6bo7bo112b2obo71bo52bo2bo19b2obo11b2o64bo
2b2o32bo2bo66b3o19b2ob2o74bo66b2o18bo2bo7b2o$11b2o22b2o3bo37b2o48b3o
170b2o17b2o31bo2bo6bo9b2o109b2ob2o31bo38bo53bobo21bo46b3o28b3obo34b2o
19b3o69b2o8b2o59b3o2bo6b2o29bo50b2o8b2o$39bobo11b3o7b2o13b2o132b2o13bo
108b2o11bo5bo17b2o82bo26b2o2bo30bobo92bo29b3o42b2o25b3o17bo13b3o9bo12b
o81b2o71b2o14b2o12bobo$39bobo20bobo84b2o58bob3o12bobo103bo2bo2bo11b3ob
ob2o15b2o81bobo17b2o4b4ob2o30bobo39b3o81bo36bo6b2o27bobo9b2o2b2o17bo7b
obo12bo63bo25b2o51b3o24b2o13bobo19b2o$40bo22bo83bob2o57b5o13bobo103bo
3b2o12b2ob2o3bo11b2ob2o80bo2bo16bo2bo6bo3bo30bo16b3o105bo14b2o19bobo
34bo2bo8b2o3b2o13bo4b3o2b2obo47b2o25b2ob2o23b2o51b3o40bo19bobo$35b2o
21bo87b2o3b2o54b3obo4b2o9bo96b2o5bobo12bo6bo2bob2o11bob2o81b2o18b2o8b
3o93b2o14b2o3b2o10b3o28b2o12b2o19bobo31bob2obo30bo6bob2ob3o45b2o25b2o
62b2o5b2o6bo12bo51b2o$34bobo22b2o85bo2bob2o53b2o2b2o3bobo106b2o6bo10bo
3bo3bo4bobo13b2o207bo2bo12bo2bo2b2o3b3o35bobo33bo31bobo25bo16bob3ob2o
72b2obo7b2o51bo4bo2bo6b3o9bo41b2o$34bo19b3o89b4ob2o52b2o5bob3o23b3o17b
o9bo61bo16bobo5bo139b2o29b3o51b2o13bo2bo47bo91b2ob2o5b2ob2o3b3o2bo77bo
3b2o2bo2bo20bo26bo8b2o7bobo9bo41b2o$34b3o4b2o11bo2b2o88b4o55bobo3b4o8b
o35bo8bobo71bo8bo89b3o51bo2bo23b2o73b2o48bo35b2o28b2o25bo2bo5b3o8b3o4b
o76b2o3b2o21bo26b2o$36b2o5bo11b3o65b2o86bo11bobo12bo5bo15bo8b2o7bo34b
2o29b3o2bo2bo47bo16bo71b2o5bobo23bo2bo118bob2o36b2o17b2obo35b2o19bo4bo
104bo44bo2bo14b2o45b3o27b2o$37b4obo13bo66b2o83b3o5b2o4bo3bo11bo5bo33bo
29b2o3b2o11b3o8bo11bo2bo47bo16bo28bo42b2o6bo25b2o30b2o86b2o24bo30b3o
57b3o5bo150b3o14b2o3bo70bo2bo$37b3obo110bo63b2o5bobo12bo5bo11b3o3b3o
13bo29b2o16b3o8b2o11bob2o46bo16bo28bo108b2o64b2o16b2o27bobo29bo2b4o49b
2obo44bo114b3o18bobo70b2o$37bobo31bo65bo14b3o5b2o53b2o7bo105bo4bo2b2o
14b2o7b2o81bo174b2o8bo7b2o14b3o9bo2bo23b2o4bo3b2o25b3o5b2o15bo3bo3b3o
32b3obobo80b3o16b2o12bobo18bo2bo45bo$70bobo64bo13bo3bo4b3o52bo24b3o17b
o38b3o27bo9b2o16bo5b2o54b3o89b2o117b2o36b2o24b2o5bo37b2o16b3o42bobo13b
o85bo2bo13bo4bo14b2o31b2o12bobo$70bobo58b2o5bo14bob2o5bo97bo77b2o15bo
2bo152b2o78b2o37b2o43bo26b3o53bo40bobo15bobo64bo5bo14b2o14bo4bo6b3o38b
2o12bobo27bo$71bo58bobo3bo3bob2o9bobo2b4o65b2o31bo23bo50b4o16bo2b2o
108b2o47b3o59bo11b2o37bo44bo104b2o18bo16bo2bo36b2o25bo5bo23bo6b2o3bob
3obobobo52bo27bobo$130bo2b3obo2bo2bo8bo3bob2o67b2o54bobo49bobo13b3o3b
2o104bo3bo2bo82bo24bobo94bo14b2o88b2o36b2o36bo2bo24bo5bo22bobo12b2ob2o
bobo80bobo$17bo74bo37b2obo2bo8bo9b2o2bobo30b2o49b2o38bo2bo3b2o58bo6bo
104bobo3b2o82bobo6b3o14bobo58b2o48bo2bo141b2o21b2o53bo7bobo6bo5b3o3bo
14bo10b2o10b2o37bo$16bobo73bo39b2obo4bo3b2o8b2o4b2o29bo2bo47bobo39b2o
4b2o59bo57bo52bobo87bobo24bo59b2o49b2o115b2o25b2o50b3o24bo3bo2bobo8b4o
3b2ob2o12bobo9b2o10b2o25b2o$10bo6b2o14b3o56bo47bo4bo9bo3b2o31b2o33b2o
7b2o4b2o108b2o54bobo52bo64b2o23bo5bo5bo96b2o137bobobo2bo108bo2bobo18bo
12bo2bo47bo2bo$10bo32bo97bob2o4b2o7b2o43b3o21b2o6bo2bo169bobo117b2o29b
o5bo7bo87bo2bo135bo2bobo3bo104b2ob5o11b3o2b2obo13b2o49b2o$10bo20bo5bo
5bo3b2o92b3o13bo17b2o26bobo2b2o26b2o20b2o88b2o59bo52bo46b3o47bo5bo6bob
o80bobo4bobo74bo2b3o11b2o42b2o4b2obo90b2o12b2ob5o2b2o8b2o3b2o23bo$31bo
5bo5bo3b2o109b2o14bo2bo25bobo3b2o40b2o4bo2bo86bo2bo110bobo108bo2bo61bo
bo13b2o3bo4bo50b2o18bo4bo15bo2bo12bo4b2o20b2ob3o4bo61b2o27bo2bo11b2ob
2o2bo2b2obobo33b4o$6b3o22bo5bo87bo48bobo18b2o11b3ob2o37b2o5b2o88b2o
111b2o84b2o12b3o9b2o61bo3bo11b3o59b2o16bo2bo2bo16bo2bo12bo3bo2bo14b2o
3b2o2bobo65b2o28b2o12b2obo6b2o5b2o10b2o18b2o2bo$51b2o71bobo11bobob3o
30bo3bo15b2o17bo130bo26b2o149b2o21bo2bo86b2obobo5b2o2bobo5b2o29b2o41b
2o21b2o13bo4b2o8bo6b2o128b2obob4o11b2o16bo6bo$33b3o14bo2bo4b2o14b2o48b
obo11bo5bo7bo2bo2bo19bobo31b3o15b2o5bo35bo39bo19b2o10bo22b2o2b2o149b2o
11b2o9b2o91b3o3b2o3b2o7bo28bo29b2o41b3o20bobo15bo2bo107b2o5bobo3b2obo
31b3o2bo13bo5bo$51b2o5b2o13bo2bo25b2o21bo12bo3b2o8bo2bobobo9b2o6bo2bo
32bo15bo2bo4bo34bobo37bobo18b2o10bo22b2o49bo115bobo102bob2o2bo2b4o4b2o
46bo11b3ob2o20b2o40bobo19bo71b3o32bo6b2o39b5o13bobo4bo$74b2o26b2o34bob
o9bo4bobo2bo8b2o7b2o31bobo16b2o5bo34bobo37bobo33b2o68bobo90bo24bo105b
2o2b2ob2ob2o3bo33bo13bo10bo26b2o21bo19bo17bobo156bob2o13bobo4bo$137b3o
bob2o9b2obobo51b2o60bo39bo33bo2bo68bo91bo68b2o60bo3b2obo3b2obo32b4o12b
o10b4o19bo26bo36b3o77bo26b3o3b3o62bo$70bo66bobo3b2o11bo43b2o31b3o3b3o
106b2o52bo88b2o18bo68b2o71b2o37b2o23b3o17b2obo25bo12b2o21bobo78bo56b2o
$62bo7bo70b2o8bo4bo43b2o75b2o105b3o14bobo55bo31bobo146bo50bo29b2o14bo
2bo38b2o21bobo78bo30bo25b2o$42b2o17bobo6bo80bo85bo14b3o21bo2bo53b2o58b
2o6b2o3bo23b3o25bobo31bo146bo3bo50bo23bo2b2o14b3o65bo33b2o59b2o12bo35b
2o8b2o27b2o$24b2o15bo2bo15b2obo88b3o30b2o50bo39b2o53bo2bo24b3o30b3ob5o
4bo50bobo55b2o63b2o61bo8b2o33bo3bo2bo19b2o2bob3o81b2o33b2o58bo2bo11bo
35b2o7bo11bobo15b2o$23bo2bo14bobo17b2o72bo17bo30bo2bo49bo95b2o28bo31b
6o4bobo49b2o27b2o26bo2bo42bo14bo3bo2bo56bobo9bo2bo31b3o24bo3b4ob2o6bo
54b2o17b2o93bo2bo57b2o10b2o$24b2o16bo17b2o4bo67bobo48b2o173bo2b4o28bo
3b3o84b2o26bobo42bobo13bo3bobo57b2o11b2o31b2ob2ob2o21b2obo2bob2o5bobo
53b2o34bo78b2o60b2o8bo44b2o$59b2o5b2o21bo43bo2bo212b2o4b2o3bo3b4o28b6o
21bo91bo43bobo13bo4bo57b2obo43b2o3bo2bo2bo12bo5bobo2bo2bo4bo2bo13bo74b
obo194b2o$60b2o3bob2o20bo8bo35b2o54bo157bobo3bo2bo3bo2bobobo28b3o7b2o
13bobo126b2o7bo77bo2b2o17b3o7b4o10b3o4bo5b3obo6bobo9bobo6b2o13bobo76bo
188b2o$66bo22bo7bobo19b2o69bo49b2o37bo69bo5b2o3bobobo2b2o19bo18bo13bo
2bo14b3o109b2o86bo3bo25bo3bo19bo5bo7bo3bo8bo2bo21bo74bo191b2o3b2o$5b2o
90b2o20b2o51b2o16bo49b2o37bo81bo2b2o10bo10bobo6bobo8bo14b2o215bo2bo26b
o7bo7b2o6bo2bo2bo8bobo8b2obo98bo195b2o$5b2o125b2o38b2o105bo10bo51b2o
20b2o10bo10bo2bo5bob2o2b2o33bo8b2o193bo28b2obo12b2o20bo10b3o40b2o134b
2o26b2o3b2o$132b2o102b3o49b4o17bo31bo2bo14bo3bo12bo11b2o5bo2bo2bob2o
32bo7bo2bo224bobobo8b2o7b2o5bobo56bobo46bo11bobo59b2o12b2o26b2o3b2o68b
2o18bo$105b2o164b2o11b2obo4bo15bobo31bobo14bo3bo31b3o2b2o3bo31bo7bobo
127bo58bo15b3o21b3o10b4o3b3o64b2o46b3o11bobo58b2o95b2o18b2o17bobo$72b
2o12b2o16bo2bo36bo125bo2bo10b2o5bo15bo3bo31bo16b3o9b3o20bobo2b2ob4o5b
2o32bo65bo62b2o57bo15bo24bo12b3o4bo8bobo2bobo6b3obo85b2ob2o5bo3bob2o
10bo26b3obo113b2o13bo22bo2bo$53b2o17b2o12b2o17b2o36b2o101bo24b2o13b2o
3bo15bo3bo84bo4bo4bo5b2o75b2o20bobo60bobo57bo16bo36b3o3bobo7bob2o2bo6b
obo39bo5bo41b2o8b2o3b2o2bo8bobo25b4obo127bo23b2o$53b2o88b2o100bobo59bo
3bo7bo67bo10b4o3bo83b2o19bo2bo3b2o24bo146b7o3bobobo2b2obo6bo2b4o34bobo
3bobo35b2o2b3o7b3o3bobo10bobo29bo44b2o82bo$143bo102bo19b2o8bo11b2o18bo
bo4bo5bo64b2o7bob3o2bo2bo105b2o3bo2bo23bo57b2o20bo6b3o3b3o36b2o10bo4b
2obo5b3o2b2o5b2o2bo4bo35bobo3bobo35b2o3b2o7b2o18bo26bo3b3obo34b2o3bo2b
o16bo13bo$260b2o4b2o7bobo6b2o23bo4bo70bo3bo6b4o3bo101b2o9bobo24bo57b2o
20bo62bobo13bo10b2o6b2o36bo5bo42b2ob2o17bo33b2o4bo19b2o14b2o4b2o17bo
13bo41bo34b2o$179b3o9b2o67b2o13bobo7bo28bo7bo61bo52b2o37bo27bo2bo9bo
91bo13bo10bo52bo3bo2bo24bo89b3o4bo11b2o18bo41b2o5bo33bo13bo17b2o21bobo
33b2o$91b3o97b2o83bo7bo14b2o13b4o4b2o52bo8b2o49bobo37bo28b2o32b3o3b3o
60bobo23bo56b2obo23bobo12b2o26b2o47bo3b2obo10b3o16bobo35b3o9b2o64b2o
21b2o13b2o$5b2o276b2o14b2o14bo4bobo23bo28bobo59bo38bo130bo2bo23bo58bo
15bo9bo13b2o26b2o51b2obobo5b2o21b2o36bo6b5obo27b3o3b3o65b2o$5b2o48b2o
81b2o143b2o14b2o15bobo26bobo28b2o11bo153bo64b2o59b2o37bobo8bo95bo9bo
59bob5obobo2b2o17b2o$55b2o28b2o33b3o15b2o59bo94b2o21b2o3bo23bo36b6o
154bo125b2o36b2ob2o103bo2bo66b3o2b2o4bo4bo14bo2bo11bo$81b3ob2o111bobo
30bo14bo4b3o11b2o26bo2bob6o14bo3bo59bo4b2o154bo39b2o33bo72bo16bobo4b3o
3b3o40bo51b2o27b2o42bo6bo5bo4bo8bo2bo11bo31b2o6b2o$13bo68bo4bo14b3o3b
3o36bo50bo2bo28b3o14b2o15bo2bo25bo2bob2o2bo15bo3bo28b2o34bo195b2o33bo
72bo17bo54bo79bo2bo13b2o23b2o6b3o2bobo5bo9b2o12bo31b2o5bo2bo45b2o$13bo
57bo10bo3b2o28b2o28bobo50b2o4b2o22b2obo14b2o16bobo24bo2bo3b3o16bo2bo
29b2o30bo234bo100bo44bo80b2o14b2o11bo19b2obobo7bo63b2o45bo2bo$13bo57b
2o13bo19bo9b2o28bobo56b2o4bo17b2o13bo2bo18bo26b2o5bo8b2o8bobo84b2o33b
3o182bo92bo104bo48b2o20bo3bo26b2o91b2o$67bo4b2o8b2ob2o19bo40bo62bobo
15b3o13b3o60b2obo95b2o217bobo91bo13b2o25b3o3b3o54b3o13b3o29bo2bo11bo9b
obo27b2o$46b2o18bo5b2o7bo2bo21bo20b2o68b2o12bo17b2o2b2o10b2o61bo17b2o
132bo9b2o153bobo3bo101b2o87bo2b2o4bo39bobo13bo9bo$27bo17bo2bo16b2o2b2o
b3o4b2o9b3o34b2o9b2o56bo2bo29b3ob2obo89bob3o129bo9b2o154bo4bo132bo51b
2o4bo2bo5bo41b2obo8b3o$26bobo17b2o18b5ob3o4b2o57b2o57bobo29b2o3bobo27b
2o42bo20b3o27bo5b2o5bo87bo170bo36b3o73b2o18bo50bob2o4b3o5bo45bo141b2o$
26bobo38b3obo2bo3bobo117bo31b2o32b2o41bo4bo10b3o3bo29bo4bo2bo3bobo32bo
190b3o15bo18b2o82b2o24bobo17bo51bob2o4bo49b2obob2o26b3o109b2o$27bo43bo
bobo2bobo215b3o7bo3b2o10bo3b3obo9b2o17bo5b2o3bo2bo32bo159b2o47bo11b3o
4bobo13b2o65bo2bo24bo80bo50bo22bo6bo2bo59bo$57b2o12b2o2bo2bo217b3o8b4o
11bo4b2o11b2o29b2o5b3o25bo158bo2bo46bo19b2o13b2o66b2o106bo48bobob2o19b
o4bo4bo59bo$56bo2bo8bo3bob2o3b3o2b2o33b2o17b2o22b2o131bo9bo3bo13b2o3bo
3bo17b2o40b2o23bo97bo23b2o24bobo63bo66b2o116bobo7bo15bo33b5o19bo18bo
37b2o11bo27b2o4b2o12b2o$32b2o23bobo9bob2obo5bo3b2o6bo25bo2bo15bo2bo21b
2o131bobobo3b2o3bo20bo20b2o40b2o8b3o3b3o5bobo96bo22bo2bo24bo64bo33b2o
31b2o7b2o58b2o46bob2o22bobo18bo5bo15bo19bo5bo8b2ob3o2b3o8bo17bo2bo31bo
6b2o3bo2bo11b2o$2b2o28b2o24bo10b3obo18bo26bobo16b2o54bo78bo22b2obo7bo
22bo86b2o96bo23b2o90bo27b3o2bo2bo38bobo58b2o18b2o28bo24bo19bo5bo8bobo
3b3o33bo2b3o2bo9bobo17bobo12b3o15bobo10bobo$b2o76b3o10bo27bo48bo23bobo
50b3o2bo21bo23bob3o27bobo74bo23b2o183bo49b2o40bo79b2o4bo68bo5bo8b2o3b
2ob2o18b2o4bo11b2obobo8bobo11b2o5bo31b2o12bo$obo2bo74b2o3b2o22bo58bobo
22bobo49bo2bo3b2o19bo28bo28bo74bo23b2o38b2o19b2o11b2o5b3o3b3o56b3o35bo
bo22bo152bobo88b3o21b2o3bo9b4o6bobo2bobo10bo2bo$2ob3o74b2o3b2o22bo27b
2o3b3o22bo2bo23bo51bobo2b2o49bo28bo28b2o18b2o24bo63b2o18bo2bo9bo2bo
107bobo21bobo151bobo69b3o17bo23bobob2o8bobo10bob3o11b2o26bo$obobo41bo
37bo2bo21bo26bo2bo28b2o81b2o39b2ob2o28bo34b2o17bo2bo43bob2o61b2o10bobo
9bo22b2o34bo5bo34bo22bobo152bo85bo30bobo5bobo4bo5bo2bo43bobo38bo$b3o
41bobo15b2o6bobo11bo2bo37b2o9b2o109b6o26bo11bo3bo29bo52bobo44bobob2o
72bo3b2o5bo10b2o10b2o34bo5bo58bo86bo150bo3bo23b2o3bobo6b2o10b3o43bo2bo
37bobo$45bo2bo13bo8bobo12b3o37b2o121bob2obo25b4o9b3o84bo46bobo78b2o5bo
10b2o46bo5bo55bo50bo37bobo131b2o16bo3bo23b3o2bo67b2o38bobo$b3o42b2o17b
o6bo6bo6bo165bobo22b3ob5o146bo37b2o3b2o159bo40b2o7bobo36bobo30b3o98b2o
45bo112bo$obobo47b2o9b2o14bo2bo3bo166bo22b2ob2o2b3o19b2o48b2o61bo9bo2b
2o37b2o3b2o99b3o52b2o3bo40b2o7bobo37bo72bo137b2o$2ob3o46b2o28bo5bo128b
2o58bob2o4bo19b2o48b2o62bo8bobo54b2o22b2o86bo9bo23b2o31bo22bo110bobo
135bo2bo$obo2bo75b2obo4bo19b2o37b2o67b2o192b3o3b2o9b3o54b2o21bo2bo18b
2o64bobo7bobo55bo99b2o32bobo8bo127b2o$b2o80b3o2bo19bo2bo36b2o14bo112bo
bo130b2o5bo90bo2bo17bobo20b2o43b2o7b2o56bo98b3o33bo8bobo131b2o$2b2o80b
4o20bobo53bo11b2o99b2o130bo3bo21b3o10b2o59b2o19bo21b2o171b2o41bo20bo
18bobo131b2o$79b2o28bo54bo11b2o71bo26b2o47bo84bob2o4bo29b2o100b2o50bo
122b2o41bo19bobo18bo$79b2o167bobo26b2o45bobo86bo3bob2o15bobo111b2o49bo
bo160bo23bobo116b3o$166b3o79bobo18bo3bo4bo31b2o13bo86b2o6bo16bobo161bo
bo86b3o74bo21bo155bo$87bo3bo51b2o104bo18bobobobo35b2o8b3o94bo14bo62b2o
105bo24bo138b2o86bo20b2o67bobo$80bo7b2ob2o50b2o92bo30bobob2o77b3o25b2o
4b2o30b3o10b2obo3b2ob3o51bobo90b3o36bobo82b2o47bo5b2o86bo20b2o67bobo
57b3o$2o77b3o5bob2o2bo125b2o16bobo12bo16bo84bo74bo3bo3b2o3bo51b2o129b
2o83bo2bo45bobo17bo15b2o44b2o11bo90bo$2o27bo48b5o4bo2b3o86b2o38b2o16bo
2bo11bo90bo6bo4bo16b2o21bo28bo4b2ob2o3bo4bo131b2o41bo4bo3bobo82b2o13bo
33bo17bobo13bo2bo2b2o38b2o$28bobo2b3o41b2o3b2o4b4o25b2o3b2o55b2o56bobo
17bo84bobo5bo5bo15bobo20bo27b2o6bobo4bo2bo132b2o40bobo2b3o3bob3ob2o90b
obo50b2o14bobo3b2o40bo7b3o3b3o11b2o143b2o$28bobo47b5o5b2o27b2o3b2o114b
o18b3o82bobo6bo3bo16bobo20bo26bo14b2obo48b2o113b2o10bobo2b2o19bo38b2o
43b2o9bo57bo74b2o86b2o18bo36b2o$29bo49b3o175bo18bo66bo28bobo48b2o8bo
15b2o2b2o24b2o8b2o113b2o15bobo4b7o6b3o25bo11b2o53bobo115bo20b3o80b2o
17bobo27bo$80bo106b2o87bo75b2o20b2o15b3o3b3o26bo22b2o2b2o24b2o147bo11b
2o2bo23bobo64bo2bo9b2o104bo122b2o27bobo$187b2o71bo7b2o6bo61b2o7b2o3bo
5bo16b2o29b2o11bo3bo2bo78bo85bo4b2o41b2o2b2o23bobo65b2o10b2o39b3o62bo
151bobo$131b2o8bo19bo67b3o27bob2o5b2o67bo2bo5bo2bo7bo2b2o13b2o29b2o10b
obo2b2o45b2ob2o30bo47bo10bo25bobo2bo2bo44bo25bo249b2o75b2o9bo$70b2o59b
2o7bobo18bo33b2o61bo4bo74b2o7b2o10bo19b2o36bo3b3o23b2o21b2ob2o30bo46bo
bo8bobo5bo19b2o2bobo31b3o289b2o72bo2bo$2o67bo2bo12b3o10bo42bo19bo32bob
o60bo6b2o112bo2bo36b4obo6b2o14bo2bo60b2o41b2o8bobo4bobo23bo33bob3o8b4o
268bo3bo2bo12b3o58b2o$2o68b2o12bo3bo8b3o95bo61bo4bo80bo17bo2bo13bobo
40bobo6bobo14b2o61b2o52bo5bobo58bo2bo6b3o91b2o121b2o39b3o13bo4b3o10b2o
b2o$35b2o46bo5bo6bobobo62b3o91bo2bo7b2o38b2o32bobo16bo17bo42b2o8bo138b
o35b3o22b3o8bob2o87bo2bo120bobo71bobob2o31b3o2b2o$35b2o30bo15bo5bo6bob
obo10b2o150bobo2b2o22b2o14b2o32bobo16b2o3bo125b2o150bo35b2o53b2o111b2o
9bo55b3o14bo41b2o26bo6b2o$66bobo14bo5bo7b3o11bobo18bo28bo95b3o2b3o27b
2o49bo20bobo115bo9b2o164b2o20b2o82b2o81bo2bo65b2o16b2o5b3o57bobo5b2o$
67b2o15bo13bo13b2o18bo28bo99b2o22bobo194bo175b2o45b2o57b2o7bo74b2o67bo
15bo2b2o2b2ob2o56bobo$88bo43bo28bo97bo2bo21bo2bo82b2o110bo117b2o102bo
2bo64bobo103bo54b2ob2o2bobo59bo$85bo11b3o160b2o23bobo82b2o227bo2bo102b
2o30b2o33b2o13b3o87bobo19b3o32bo13bo$75b2o7bo5bo43b3o123bo60b2o37b2o
143b2o15b2o75bobo134bobo137bo2bo35b2o17bo2bo9bobo$74bo2bo5b2o5b2o5bobo
125bo57b2o36b2o37bobo64b2o76b2o5b2o7b3o12b2o62bo96b3o27bo9bo111b3o25b
2o35bo2bo17bo2bo7bo2bo3b2o$74bobo6bo8bo5bo126bo56bobo76bo30b2o33b2o62b
o20b2o11bo10b2o97b2o89b3o144b2o40bobo18b2o9b2o3bo2bo$39bo35bo7bo4bobo
134bo56bo5bo102bo2bo6b2o70b2o17b2o57b2o52bo29b2o88b2ob2o143bobo40bo36b
2o35b2o$39bo44b3o3bo2bo74b2o22b3o4bo7b2o20b3o51b3obo2bo101b2o7b2o70bob
o13b2ob2o3b2o17b2o4bo28b2o51bobo62b3o52b2o3b3o142bo115b2o$39bo49bo2b2o
73bo2bo28bo7b2o53bo21bo2bo2bo137b2o17b2o25bo14b2obo17b2o3bo2bo3b3o7b4o
68bobo53bo63b2o3b2obo26b3o146bo34b3o$89b3o36b2o19b2o16bo2bo28bo51bo9bo
2b2o23bo14b2o91bo12b3o15b2o17b2o43b2o16b2o4bob2o3b2o6b3ob2o62b2o4bo53b
2o63b5o3bo14b3o7b5o114bobo28bobo16b2o15b2obo$90bo37b2o19b2o17b2o62b2o
17bo10bo3bo37bobo38b2o29bo19bobo95b2o6b3o12b2o12bo4bo17b2o42bo2bo43bo
12bobob2o61b2ob3o2bo21bobobo92b2o13b2o9bo27bo2bo16b2o16bo$2o229bo2bo
16bo10b2obo39bo39b2o28bobo18bobo95b2o8bo23bo2b6o17b2o42bobo7bo35b2o13b
o3b3o59b2ob5o21bo4b2o60b3o18b2o8b2o13b2o5b2o3bo27b2o8b2o26b3o47b3o$2o
11b2o34bo170b2o10b2o28bob2o8bo68b2o3bo10b2o15bo20bo5bo44b2o38bo6bo5bo
25bo3bo3bo63bo7bobo33bo2b2o11b2o4bo89bo2b2o4b2o67b2o7b2o23b4o2b2ob3o
38b2o11b2o5b3o5bo$13b2o33bobo169b2o25b3o3b3o5b3o4bo3bo2bo10bo56b2ob4o
9b2o4b2o35bobo43b2o45bo7bo24bo3b3o52b2o18b2o33b2ob3o11bo3b4o34b2o17b2o
36bo5bobo14b2o50b2o22bo7bo2bo2b2obo55b2o5bo2bo52bo5bo$48bobo100b2o96bo
bobo7b2o3b2obo2bo2b2o9b2o55b2ob2o2bo14b2o35bo2bo63b3o16bo3bo36b3o2bo
12bo38bo2bo54b3o12b2o4bo35b2o17b2o21bobo11b2ob2o3bo15b2o74bobo5bob2o3b
2ob3o59bob2o3b2o3bo43bo5bo$49bo101b2o98bo12b3o5bobob3ob2o4b2o45b2o10bo
4bo52b2o127b2o12b4o37bobo67b2o5b2o76bo2bo12bo3b3o103bob2obo2bo67b2o3bo
43bo5bo$139b2o112bo9b4o2b2o5bo3bo52b2o160bo33b2ob2o12bo2b2o11b2o24bo
25b2o44bo81b2o18bo93bo78bo8b2o11b3o$47bo70b2o19b2o110b3o4b2o5bo3b2o6bo
bo12bo128b2o68bob2o34b3o15bo3bo10b2o50b2o41bo5bo69b2o23b2obo93bobo76bo
bo7bo2bo47b3o$3b2o41bobo68bo2bo128bo14b3o3b2obob4o12bobo54bo36bo35b2o
69bo15b2o37bo3bo96bo11bo3b3o6bo11b2o46b2o10b2o7b3o3bo79b2o13bobo4b2o
59bo10bobo7bo3bo$3b2o41bo2bo68b2o102bo24b3o2b3o4b3o2b2o5b3o2bo14bobo
54bo36bo77b3o42b2o40bo87bo8b3o18bo4b3o9b2o58b2o7bob7o33bo43b2o14bo5b2o
33bo25bo10bo9bo2bo73b2o$17b2o22bo5b2o4b3o165bobo28bo3b2o2b2o3b2o5b2o2b
o8bo6bo92bo178b3o71bo7bo2bo19bo4b2o79b7obo2bo6b2o21bo11b2o86bobo24bo
19bo2bo74b2o$17bobo20bobo32b3o23b2o7b2o109bo2bo27b2o2bo3bobo20bobo149b
2o7b2o65b3o12bo21bo3b2o84bo8b2o12bo7bo4b3o45b2o37bo2b3o6b2o21bo11b2o
75b2o9bobo35bo6bob3o$18bo21b2o59b2o7b2o110b2o28b2obo5b3o19b3o95b3o3b3o
44bo2bo6b2o79bobo24b2o8bo5bo72b2o22b2obo6b2o44bo2bo37b2o2bo56b2o6b3o
41b2o7bo2bo9bo42b4o64b2o$203bo50bo6bo2bo71b2o38bo15bo34b2o6bobo77bo8bo
3bo33bo5bo53b2o16bobo22b2o9bo45b2o68b3o3b3o22b2o50b2o8b2o52bo3bo64b2o$
124b2o29b2o46bo58bo2bo70b2o38bo8bo6bo33bobo7bo78bo9bobo34bo5bo47b2o4b
2o10bo6bo20b2o65bo77b2o20bo5bo20bobo79bo2b2o18b2o58b2o$124b2o29b2o46bo
60b2obo4b2o14b3o85bo8bo6bo12b3o19bo87bo10bo89b2o16bo94b2o23bo28b2o11bo
10b2o20bo5bo23bo79b3o18bo2bo57b2o$89bo170b2obob2obo2bo2bo8b3o99bo178b
3o67bo95b2o22bo28b2o11bo32bo5bo19bo3bo43b2o54bo$89bo164b3obobobobobobo
3bobo5b2o2b3o3bo9b2o323b3o38b2o15b3o26b3o16b2obo19bo41bo58bo3bo43b2o
54bo3bo$56b2o31bo122b3o43bobo3bobo4bo3bo3bo3b4o13b2o190bo101bo39bo25b
2o3bo2bo27b2o33bo2bo80b2o14b3o125bo2bo$56b2o75bo119bo7b2obob2o3b3obo6b
o3bob2o115b2o84bobo99bobo14b3o21bo24b3o4b2o13bo5bo7bobo12bo5bo15bobo
15b3o3b3o55bo3bo37b3o47bo6b2o33bo11b2o49b2o9bo$2o5bo77b3o44bobo119b3o
6b2o6bo6b4o5bob3o22b2o74b2o12bobo84bobo99bo2bo37bo23b2o2bo18bo5bo6bobo
13bo5bo66b2o30bob4o84bobo5b2o12b2o22bo58bo2bo7bobo$2o5bo25b2o43b2o52bo
bo64bo54b3o8b3o5b2o4bo10b2o22b2o74b2o12b2o11bo23b3o48bo101b2o64bo20bo
5bo7bo14bo5bo37bo28b2o31b2o3bo12b3o69b2o19b2o19bo7b2o53b2o8b2o$7bo24bo
2bo41bo2bo8bo11b2o30bo9b2o53bobo65bo7bo3bo90b2o45bobo138b2o195bo62b3o
129b2obobo5bo$32bobo43b2o9bo10bo2bo39b2o53bobo18bo57bo77bo12bo2bo44bob
o138b2o16bo107b3o26b3o39bo10bo51b2o13bo5bo73b2o36bob2o3bobob2o$15bo17b
o55bo11b2o26b2o68bo18bobo30bo67b3o32bobo12b2o46bo156bobo20bo59bo73bo
33bo43b2o8b4o9bo5bo4b2o67b2o37b3obo3bo3bo30b2o$15bo113b2o87bobo9bo19bo
9b2o92bobo4b2o120bo90bobo19bobo54bo2b3o72b2o32bo42b3ob2o3bo2bo5bo5bo5b
o4b2o6bo105bobo3bo30b2o15b2o$15bo28b2o148b2o7b2o14bo10bo19b2o3b3o2bobo
80b2o10bo5b2o19b3o15b3o80bo59b2o4b2o24bo20b2o56b2o75b3o75b2o2b2o3b2o4b
4o22bobo106bo51b2o$43bobo42b2o53b3o2bo44bo2bo5bo2bo24bo11bo8b3obo4bobo
80b2o138bo58bobo4b2o37bo65b2obo17b3o55bo34bo41b2obo2bo6b5o6b3o13bobo4b
2o59b2o38bo2b2o$7b2o35bo42bobo15bo42bo45b2o7b2o36bobo8b2o150bo137b2o
43bobo66bo78bo32bo42b2o9bo28bo5b2o59b2o39b2o53bo$6bo2bo6b2o50b3o17bo
15bobo41bo77b3o12bobo9bo8b2o23bo116bo182bobo83bo5bo50b2o3bo32bo43b2o3b
o5bobo2b2o76b2o105bobo$7b2o7b2o38b3o45bobo92bo42bo19b2o22b2obo114bo37b
o90bo54bo84bo5bo50b2o70b2o9bob2o7b6o75bo2bo104bobo$105bo28bo46b2o15bob
o29bo28bobo25bo2bo150bobo60b2o26bobo138bo5bo33b2o19bo13bo8b2o43b2o4b2o
2bo2bo12bo76bo2bo105bo$12bo120bobo44bo2bo14bobo10bo18bo29bo19b2o6bo2bo
142b2o5bobo60b2o26bo2bo37b2o8b2o7b2o46bo45bo26b2o15bo2bo14bo7bo2bo47bo
2bob3o45bo45b2o65bo$11bobo46b2o71bobo45bobo15bo10bobo17bo51bo6b2o143b
2o6bo36b2o34b2o16b2o38b2o7bo2bo5bo2bo44bobo33b3o8bo44b3o14bo8b2o49bo4b
2o44bobo109b2ob2o$11bobo46b2o66b2o4bo47bo28b2o74b3o54b3o132b2o33bo2bo
65b2o7b2o46bo25b2o18bo121b3ob2o44bo2bo109b2obo$12bo114bo2bo11b2o136bo
2bo2bobo37b2o163b2o22bobo148b2o191b2o110bobo19bo5b2o$108b2o18b2o11bobo
60b2o75bobo2bo2bo35bo2bo162b2o23bo71bo8bo35bo143b2o69b2o119b3o20bobo4b
2o$85bo21bo2bo31bo61b2o34b2o40bo3bobo8bo28b2o259bobo6bobo33bobo102bo
39b2o69b2o142b2o$84bobo21b2o101b2o27b2o18b2o25bo8bobo9b2o94b2o10bo82b
2o86bobo6bo2bo32bobo102bo129b2o$30b2o53bo125b2o47b2o34b2o10b2o24b2o36b
2o29bo2bo9bo82b2o61b2o24bo8b2o34bo77b2o8b2o14bo26b2o67b3o31b2o132b2o$
30b2o302b2o36b2o30b2o10bo145b2o147b2o8b2o41b2o235b2o!
